2. reversing the negative/print paper LUTs/contrast/2. paper_a_0% black_fogged white.cube
# input: log10/density, output: linear
# kodak endura curve
# by Aaron Buchler, 2023
#  
# 

# https: //github.com/abpy/color-neg-resources

LUT_1D_SIZE 1024
DOMAIN_MIN 0 0 0
DOMAIN_MAX 3 3 3

0.0000000000 0.0000000000 0.0000000000
0.0000000000 0.0000000000 0.0000000000
0.0000000000 0.0000000000 0.0000000000
0.0000000000 0.0000000000 0.0000000000
0.0000000000 0.0000000000 0.0000000000
0.0000000000 0.0000000000 0.0000000000
0.0000000000 0.0000000000 0.0000000000
0.0000000000 0.0000000000 0.0000000000
0.0000000000 0.0000000000 0.0000000000
0.0000000000 0.0000000000 0.0000000000
0.0000000000 0.0000000000 0.0000000000
0.0000000000 0.0000000000 0.0000000000
0.0000000000 0.0000000000 0.0000000000
0.0000000000 0.0000000000 0.0000000000
0.0000000000 0.0000000000 0.0000000000
0.0000000000 0.0000000000 0.0000000000
0.0000000000 0.0000000000 0.0000000000
0.0000000000 0.0000000000 0.0000000000
0.0000000000 0.0000000000 0.0000000000
0.0000000000 0.0000000000 0.0000000000
0.0000000000 0.0000000000 0.0000000000
0.0000000000 0.0000000000 0.0000000000
0.0000000000 0.0000000000 0.0000000000
0.0000000000 0.0000000000 0.0000000000
0.0000000000 0.0000000000 0.0000000000
0.0000000000 0.0000000000 0.0000000000
0.0000000000 0.0000000000 0.0000000000
0.0000000000 0.0000000000 0.0000000000
0.0000000000 0.0000000000 0.0000000000
0.0000000000 0.0000000000 0.0000000000
0.0000000000 0.0000000000 0.0000000000
0.0000000000 0.0000000000 0.0000000000
0.0000000000 0.0000000000 0.0000000000
0.0000000000 0.0000000000 0.0000000000
0.0000000000 0.0000000000 0.0000000000
0.0000000000 0.0000000000 0.0000000000
0.0000000000 0.0000000000 0.0000000000
0.0000000000 0.0000000000 0.0000000000
0.0000000000 0.0000000000 0.0000000000
0.0000000000 0.0000000000 0.0000000000
0.0000000000 0.0000000000 0.0000000000
0.0000000000 0.0000000000 0.0000000000
0.0000000000 0.0000000000 0.0000000000
0.0000000000 0.0000000000 0.0000000000
0.0000000000 0.0000000000 0.0000000000
0.0000000000 0.0000000000 0.0000000000
0.0000000000 0.0000000000 0.0000000000
0.0000000000 0.0000000000 0.0000000000
0.0000000000 0.0000000000 0.0000000000
0.0000000000 0.0000000000 0.0000000000
0.0000000000 0.0000000000 0.0000000000
0.0000000000 0.0000000000 0.0000000000
0.0000000000 0.0000000000 0.0000000000
0.0000000000 0.0000000000 0.0000000000
0.0000000000 0.0000000000 0.0000000000
0.0000000000 0.0000000000 0.0000000000
0.0000000000 0.0000000000 0.0000000000
0.0000000000 0.0000000000 0.0000000000
0.0000000000 0.0000000000 0.0000000000
0.0000000000 0.0000000000 0.0000000000
0.0000000000 0.0000000000 0.0000000000
0.0000000000 0.0000000000 0.0000000000
0.0000000000 0.0000000000 0.0000000000
0.0000000000 0.0000000000 0.0000000000
0.0000000000 0.0000000000 0.0000000000
0.0000000000 0.0000000000 0.0000000000
0.0000000000 0.0000000000 0.0000000000
0.0000000000 0.0000000000 0.0000000000
0.0000000000 0.0000000000 0.0000000000
0.0000000000 0.0000000000 0.0000000000
0.0000000000 0.0000000000 0.0000000000
0.0000000000 0.0000000000 0.0000000000
0.0000000000 0.0000000000 0.0000000000
0.0000000000 0.0000000000 0.0000000000
0.0000000000 0.0000000000 0.0000000000
0.0000000000 0.0000000000 0.0000000000
0.0000000000 0.0000000000 0.0000000000
0.0000000000 0.0000000000 0.0000000000
0.0000000000 0.0000000000 0.0000000000
0.0000000000 0.0000000000 0.0000000000
0.0000000000 0.0000000000 0.0000000000
0.0000000000 0.0000000000 0.0000000000
0.0000000000 0.0000000000 0.0000000000
0.0000000000 0.0000000000 0.0000000000
0.0000000000 0.0000000000 0.0000000000
0.0000000000 0.0000000000 0.0000000000
0.0000000000 0.0000000000 0.0000000000
0.0000000000 0.0000000000 0.0000000000
0.0000000000 0.0000000000 0.0000000000
0.0000000000 0.0000000000 0.0000000000
0.0000000000 0.0000000000 0.0000000000
0.0000000000 0.0000000000 0.0000000000
0.0000000000 0.0000000000 0.0000000000
0.0000000000 0.0000000000 0.0000000000
0.0000000000 0.0000000000 0.0000000000
0.0000000000 0.0000000000 0.0000000000
0.0000000000 0.0000000000 0.0000000000
0.0000000000 0.0000000000 0.0000000000
0.0000000000 0.0000000000 0.0000000000
0.0000000000 0.0000000000 0.0000000000
0.0000000000 0.0000000000 0.0000000000
0.0000000000 0.0000000000 0.0000000000
0.0000000000 0.0000000000 0.0000000000
0.0000000000 0.0000000000 0.0000000000
0.0000000000 0.0000000000 0.0000000000
0.0000000000 0.0000000000 0.0000000000
0.0000000000 0.0000000000 0.0000000000
0.0000000000 0.0000000000 0.0000000000
0.0000000000 0.0000000000 0.0000000000
0.0000000000 0.0000000000 0.0000000000
0.0000000000 0.0000000000 0.0000000000
0.0000000000 0.0000000000 0.0000000000
0.0000000000 0.0000000000 0.0000000000
0.0000000000 0.0000000000 0.0000000000
0.0000000000 0.0000000000 0.0000000000
0.0000000000 0.0000000000 0.0000000000
0.0000000000 0.0000000000 0.0000000000
0.0000000000 0.0000000000 0.0000000000
0.0000000000 0.0000000000 0.0000000000
0.0000000000 0.0000000000 0.0000000000
0.0000000000 0.0000000000 0.0000000000
0.0000100347 0.0000100347 0.0000100347
0.0000100347 0.0000100347 0.0000100347
0.0000100347 0.0000100347 0.0000100347
0.0000100347 0.0000100347 0.0000100347
0.0000100347 0.0000100347 0.0000100347
0.0000100347 0.0000100347 0.0000100347
0.0000100347 0.0000100347 0.0000100347
0.0000100347 0.0000100347 0.0000100347
0.0000100347 0.0000100347 0.0000100347
0.0000100347 0.0000100347 0.0000100347
0.0000100347 0.0000100347 0.0000100347
0.0000100347 0.0000100347 0.0000100347
0.0000100347 0.0000100347 0.0000100347
0.0000100347 0.0000100347 0.0000100347
0.0000100347 0.0000100347 0.0000100347
0.0000100347 0.0000100347 0.0000100347
0.0000100347 0.0000100347 0.0000100347
0.0000100347 0.0000100347 0.0000100347
0.0000100347 0.0000100347 0.0000100347
0.0000100347 0.0000100347 0.0000100347
0.0000200694 0.0000200694 0.0000200694
0.0000200694 0.0000200694 0.0000200694
0.0000200694 0.0000200694 0.0000200694
0.0000200694 0.0000200694 0.0000200694
0.0000200694 0.0000200694 0.0000200694
0.0000200694 0.0000200694 0.0000200694
0.0000200694 0.0000200694 0.0000200694
0.0000200694 0.0000200694 0.0000200694
0.0000200694 0.0000200694 0.0000200694
0.0000200694 0.0000200694 0.0000200694
0.0000301041 0.0000301041 0.0000301041
0.0000301041 0.0000301041 0.0000301041
0.0000301041 0.0000301041 0.0000301041
0.0000301041 0.0000301041 0.0000301041
0.0000301041 0.0000301041 0.0000301041
0.0000301041 0.0000301041 0.0000301041
0.0000301041 0.0000301041 0.0000301041
0.0000401388 0.0000401388 0.0000401388
0.0000401388 0.0000401388 0.0000401388
0.0000401388 0.0000401388 0.0000401388
0.0000401388 0.0000401388 0.0000401388
0.0000401388 0.0000401388 0.0000401388
0.0000401388 0.0000401388 0.0000401388
0.0000501735 0.0000501735 0.0000501735
0.0000501735 0.0000501735 0.0000501735
0.0000501735 0.0000501735 0.0000501735
0.0000501735 0.0000501735 0.0000501735
0.0000501735 0.0000501735 0.0000501735
0.0000501735 0.0000501735 0.0000501735
0.0000602082 0.0000602082 0.0000602082
0.0000602082 0.0000602082 0.0000602082
0.0000602082 0.0000602082 0.0000602082
0.0000602082 0.0000602082 0.0000602082
0.0000602082 0.0000602082 0.0000602082
0.0000702430 0.0000702430 0.0000702430
0.0000702430 0.0000702430 0.0000702430
0.0000702430 0.0000702430 0.0000702430
0.0000702430 0.0000702430 0.0000702430
0.0000802777 0.0000802777 0.0000802777
0.0000802777 0.0000802777 0.0000802777
0.0000802777 0.0000802777 0.0000802777
0.0000802777 0.0000802777 0.0000802777
0.0000802777 0.0000802777 0.0000802777
0.0000903124 0.0000903124 0.0000903124
0.0000903124 0.0000903124 0.0000903124
0.0000903124 0.0000903124 0.0000903124
0.0000903124 0.0000903124 0.0000903124
0.0001003471 0.0001003471 0.0001003471
0.0001003471 0.0001003471 0.0001003471
0.0001003471 0.0001003471 0.0001003471
0.0001003471 0.0001003471 0.0001003471
0.0001103818 0.0001103818 0.0001103818
0.0001103818 0.0001103818 0.0001103818
0.0001103818 0.0001103818 0.0001103818
0.0001103818 0.0001103818 0.0001103818
0.0001204165 0.0001204165 0.0001204165
0.0001204165 0.0001204165 0.0001204165
0.0001204165 0.0001204165 0.0001204165
0.0001304512 0.0001304512 0.0001304512
0.0001304512 0.0001304512 0.0001304512
0.0001304512 0.0001304512 0.0001304512
0.0001304512 0.0001304512 0.0001304512
0.0001404859 0.0001404859 0.0001404859
0.0001404859 0.0001404859 0.0001404859
0.0001404859 0.0001404859 0.0001404859
0.0001404859 0.0001404859 0.0001404859
0.0001505206 0.0001505206 0.0001505206
0.0001505206 0.0001505206 0.0001505206
0.0001505206 0.0001505206 0.0001505206
0.0001605553 0.0001605553 0.0001605553
0.0001605553 0.0001605553 0.0001605553
0.0001605553 0.0001605553 0.0001605553
0.0001605553 0.0001605553 0.0001605553
0.0001705900 0.0001705900 0.0001705900
0.0001705900 0.0001705900 0.0001705900
0.0001705900 0.0001705900 0.0001705900
0.0001705900 0.0001705900 0.0001705900
0.0001806247 0.0001806247 0.0001806247
0.0001806247 0.0001806247 0.0001806247
0.0001806247 0.0001806247 0.0001806247
0.0001906595 0.0001906595 0.0001906595
0.0001906595 0.0001906595 0.0001906595
0.0001906595 0.0001906595 0.0001906595
0.0002006942 0.0002006942 0.0002006942
0.0002006942 0.0002006942 0.0002006942
0.0002006942 0.0002006942 0.0002006942
0.0002107289 0.0002107289 0.0002107289
0.0002107289 0.0002107289 0.0002107289
0.0002107289 0.0002107289 0.0002107289
0.0002207636 0.0002207636 0.0002207636
0.0002207636 0.0002207636 0.0002207636
0.0002207636 0.0002207636 0.0002207636
0.0002307983 0.0002307983 0.0002307983
0.0002307983 0.0002307983 0.0002307983
0.0002408330 0.0002408330 0.0002408330
0.0002408330 0.0002408330 0.0002408330
0.0002408330 0.0002408330 0.0002408330
0.0002508677 0.0002508677 0.0002508677
0.0002508677 0.0002508677 0.0002508677
0.0002609024 0.0002609024 0.0002609024
0.0002609024 0.0002609024 0.0002609024
0.0002709371 0.0002709371 0.0002709371
0.0002709371 0.0002709371 0.0002709371
0.0002809718 0.0002809718 0.0002809718
0.0002809718 0.0002809718 0.0002809718
0.0002910065 0.0002910065 0.0002910065
0.0002910065 0.0002910065 0.0002910065
0.0003010412 0.0003010412 0.0003010412
0.0003110759 0.0003110759 0.0003110759
0.0003110759 0.0003110759 0.0003110759
0.0003211107 0.0003211107 0.0003211107
0.0003311454 0.0003311454 0.0003311454
0.0003411801 0.0003411801 0.0003411801
0.0003411801 0.0003411801 0.0003411801
0.0003512148 0.0003512148 0.0003512148
0.0003612495 0.0003612495 0.0003612495
0.0003712842 0.0003712842 0.0003712842
0.0003813189 0.0003813189 0.0003813189
0.0003813189 0.0003813189 0.0003813189
0.0003913536 0.0003913536 0.0003913536
0.0004013883 0.0004013883 0.0004013883
0.0004114230 0.0004114230 0.0004114230
0.0004214577 0.0004214577 0.0004214577
0.0004314924 0.0004314924 0.0004314924
0.0004415271 0.0004415271 0.0004415271
0.0004515619 0.0004515619 0.0004515619
0.0004615966 0.0004615966 0.0004615966
0.0004716313 0.0004716313 0.0004716313
0.0004816660 0.0004816660 0.0004816660
0.0004917007 0.0004917007 0.0004917007
0.0005017354 0.0005017354 0.0005017354
0.0005218048 0.0005218048 0.0005218048
0.0005318395 0.0005318395 0.0005318395
0.0005418742 0.0005418742 0.0005418742
0.0005519089 0.0005519089 0.0005519089
0.0005619436 0.0005619436 0.0005619436
0.0005820131 0.0005820131 0.0005820131
0.0005920478 0.0005920478 0.0005920478
0.0006020825 0.0006020825 0.0006020825
0.0006221519 0.0006221519 0.0006221519
0.0006321866 0.0006321866 0.0006321866
0.0006522560 0.0006522560 0.0006522560
0.0006622907 0.0006622907 0.0006622907
0.0006823601 0.0006823601 0.0006823601
0.0006923948 0.0006923948 0.0006923948
0.0007124643 0.0007124643 0.0007124643
0.0007325337 0.0007325337 0.0007325337
0.0007425684 0.0007425684 0.0007425684
0.0007626378 0.0007626378 0.0007626378
0.0007827072 0.0007827072 0.0007827072
0.0008027766 0.0008027766 0.0008027766
0.0008228460 0.0008228460 0.0008228460
0.0008429155 0.0008429155 0.0008429155
0.0008730196 0.0008730196 0.0008730196
0.0008930890 0.0008930890 0.0008930890
0.0009131584 0.0009131584 0.0009131584
0.0009432625 0.0009432625 0.0009432625
0.0009633320 0.0009633320 0.0009633320
0.0009934361 0.0009934361 0.0009934361
0.0010135055 0.0010135055 0.0010135055
0.0010436096 0.0010436096 0.0010436096
0.0010737137 0.0010737137 0.0010737137
0.0011038179 0.0011038179 0.0011038179
0.0011339220 0.0011339220 0.0011339220
0.0011640261 0.0011640261 0.0011640261
0.0012041649 0.0012041649 0.0012041649
0.0012342691 0.0012342691 0.0012342691
0.0012643732 0.0012643732 0.0012643732
0.0013045120 0.0013045120 0.0013045120
0.0013346162 0.0013346162 0.0013346162
0.0013747550 0.0013747550 0.0013747550
0.0014148938 0.0014148938 0.0014148938
0.0014449979 0.0014449979 0.0014449979
0.0014851368 0.0014851368 0.0014851368
0.0015252756 0.0015252756 0.0015252756
0.0015654144 0.0015654144 0.0015654144
0.0016055533 0.0016055533 0.0016055533
0.0016456921 0.0016456921 0.0016456921
0.0016858309 0.0016858309 0.0016858309
0.0017360045 0.0017360045 0.0017360045
0.0017761433 0.0017761433 0.0017761433
0.0018263168 0.0018263168 0.0018263168
0.0018664557 0.0018664557 0.0018664557
0.0019166292 0.0019166292 0.0019166292
0.0019668028 0.0019668028 0.0019668028
0.0020169763 0.0020169763 0.0020169763
0.0020671498 0.0020671498 0.0020671498
0.0021173234 0.0021173234 0.0021173234
0.0021775316 0.0021775316 0.0021775316
0.0022277052 0.0022277052 0.0022277052
0.0022879134 0.0022879134 0.0022879134
0.0023481217 0.0023481217 0.0023481217
0.0024083299 0.0024083299 0.0024083299
0.0024685381 0.0024685381 0.0024685381
0.0025387811 0.0025387811 0.0025387811
0.0025989894 0.0025989894 0.0025989894
0.0026692323 0.0026692323 0.0026692323
0.0027394753 0.0027394753 0.0027394753
0.0028097182 0.0028097182 0.0028097182
0.0028899959 0.0028899959 0.0028899959
0.0029702735 0.0029702735 0.0029702735
0.0030505512 0.0030505512 0.0030505512
0.0031308289 0.0031308289 0.0031308289
0.0032211412 0.0032211412 0.0032211412
0.0033114536 0.0033114536 0.0033114536
0.0034017660 0.0034017660 0.0034017660
0.0035021131 0.0035021131 0.0035021131
0.0036024601 0.0036024601 0.0036024601
0.0037028072 0.0037028072 0.0037028072
0.0038131890 0.0038131890 0.0038131890
0.0039235708 0.0039235708 0.0039235708
0.0040339526 0.0040339526 0.0040339526
0.0041543691 0.0041543691 0.0041543691
0.0042848203 0.0042848203 0.0042848203
0.0044152715 0.0044152715 0.0044152715
0.0045457227 0.0045457227 0.0045457227
0.0046862086 0.0046862086 0.0046862086
0.0048266945 0.0048266945 0.0048266945
0.0049872498 0.0049872498 0.0049872498
0.0051377705 0.0051377705 0.0051377705
0.0053083605 0.0053083605 0.0053083605
0.0054789505 0.0054789505 0.0054789505
0.0056495406 0.0056495406 0.0056495406
0.0058402000 0.0058402000 0.0058402000
0.0060308595 0.0060308595 0.0060308595
0.0062315536 0.0062315536 0.0062315536
0.0064422825 0.0064422825 0.0064422825
0.0066530113 0.0066530113 0.0066530113
0.0068838096 0.0068838096 0.0068838096
0.0071146079 0.0071146079 0.0071146079
0.0073654756 0.0073654756 0.0073654756
0.0076163433 0.0076163433 0.0076163433
0.0078772457 0.0078772457 0.0078772457
0.0081481828 0.0081481828 0.0081481828
0.0084391894 0.0084391894 0.0084391894
0.0087301959 0.0087301959 0.0087301959
0.0090312371 0.0090312371 0.0090312371
0.0093523478 0.0093523478 0.0093523478
0.0096734584 0.0096734584 0.0096734584
0.0100146385 0.0100146385 0.0100146385
0.0103658533 0.0103658533 0.0103658533
0.0107271028 0.0107271028 0.0107271028
0.0111084217 0.0111084217 0.0111084217
0.0114897406 0.0114897406 0.0114897406
0.0118911289 0.0118911289 0.0118911289
0.0123125866 0.0123125866 0.0123125866
0.0127440791 0.0127440791 0.0127440791
0.0131856062 0.0131856062 0.0131856062
0.0136472028 0.0136472028 0.0136472028
0.0141188340 0.0141188340 0.0141188340
0.0146005000 0.0146005000 0.0146005000
0.0151122701 0.0151122701 0.0151122701
0.0156240402 0.0156240402 0.0156240402
0.0161659145 0.0161659145 0.0161659145
0.0167178234 0.0167178234 0.0167178234
0.0172797670 0.0172797670 0.0172797670
0.0178718148 0.0178718148 0.0178718148
0.0184738973 0.0184738973 0.0184738973
0.0190860145 0.0190860145 0.0190860145
0.0197282358 0.0197282358 0.0197282358
0.0203804918 0.0203804918 0.0203804918
0.0210528172 0.0210528172 0.0210528172
0.0217351773 0.0217351773 0.0217351773
0.0224476416 0.0224476416 0.0224476416
0.0231701406 0.0231701406 0.0231701406
0.0239127090 0.0239127090 0.0239127090
0.0246753468 0.0246753468 0.0246753468
0.0254580540 0.0254580540 0.0254580540
0.0262708653 0.0262708653 0.0262708653
0.0270937114 0.0270937114 0.0270937114
0.0279466615 0.0279466615 0.0279466615
0.0288297158 0.0288297158 0.0288297158
0.0297428743 0.0297428743 0.0297428743
0.0306761021 0.0306761021 0.0306761021
0.0316494688 0.0316494688 0.0316494688
0.0326529396 0.0326529396 0.0326529396
0.0336965492 0.0336965492 0.0336965492
0.0347702629 0.0347702629 0.0347702629
0.0358841155 0.0358841155 0.0358841155
0.0370280722 0.0370280722 0.0370280722
0.0382222025 0.0382222025 0.0382222025
0.0394464368 0.0394464368 0.0394464368
0.0407208447 0.0407208447 0.0407208447
0.0420253568 0.0420253568 0.0420253568
0.0433800423 0.0433800423 0.0433800423
0.0447748667 0.0447748667 0.0447748667
0.0462198647 0.0462198647 0.0462198647
0.0477050014 0.0477050014 0.0477050014
0.0492302770 0.0492302770 0.0492302770
0.0508157609 0.0508157609 0.0508157609
0.0524413836 0.0524413836 0.0524413836
0.0541071451 0.0541071451 0.0541071451
0.0558331148 0.0558331148 0.0558331148
0.0575992234 0.0575992234 0.0575992234
0.0594255403 0.0594255403 0.0594255403
0.0612919960 0.0612919960 0.0612919960
0.0632186599 0.0632186599 0.0632186599
0.0651954973 0.0651954973 0.0651954973
0.0672225083 0.0672225083 0.0672225083
0.0692996929 0.0692996929 0.0692996929
0.0714270510 0.0714270510 0.0714270510
0.0736045826 0.0736045826 0.0736045826
0.0758423224 0.0758423224 0.0758423224
0.0781302358 0.0781302358 0.0781302358
0.0804683228 0.0804683228 0.0804683228
0.0828666180 0.0828666180 0.0828666180
0.0853050520 0.0853050520 0.0853050520
0.0877936596 0.0877936596 0.0877936596
0.0903424754 0.0903424754 0.0903424754
0.0929314300 0.0929314300 0.0929314300
0.0955705582 0.0955705582 0.0955705582
0.0982598599 0.0982598599 0.0982598599
0.1009893005 0.1009893005 0.1009893005
0.1037588799 0.1037588799 0.1037588799
0.1065786328 0.1065786328 0.1065786328
0.1094385245 0.1094385245 0.1094385245
0.1123285204 0.1123285204 0.1123285204
0.1152686898 0.1152686898 0.1152686898
0.1182489981 0.1182489981 0.1182489981
0.1212694452 0.1212694452 0.1212694452
0.1243300311 0.1243300311 0.1243300311
0.1274508252 0.1274508252 0.1274508252
0.1306117582 0.1306117582 0.1306117582
0.1338328995 0.1338328995 0.1338328995
0.1370941796 0.1370941796 0.1370941796
0.1404156679 0.1404156679 0.1404156679
0.1437973644 0.1437973644 0.1437973644
0.1472292346 0.1472292346 0.1472292346
0.1507213129 0.1507213129 0.1507213129
0.1542635648 0.1542635648 0.1542635648
0.1578660249 0.1578660249 0.1578660249
0.1615186586 0.1615186586 0.1615186586
0.1652315006 0.1652315006 0.1652315006
0.1690045507 0.1690045507 0.1690045507
0.1728378092 0.1728378092 0.1728378092
0.1767112064 0.1767112064 0.1767112064
0.1806548466 0.1806548466 0.1806548466
0.1846486604 0.1846486604 0.1846486604
0.1886926477 0.1886926477 0.1886926477
0.1927968432 0.1927968432 0.1927968432
0.1969512123 0.1969512123 0.1969512123
0.2011657896 0.2011657896 0.2011657896
0.2054305405 0.2054305405 0.2054305405
0.2097454649 0.2097454649 0.2097454649
0.2141105628 0.2141105628 0.2141105628
0.2185258343 0.2185258343 0.2185258343
0.2230013140 0.2230013140 0.2230013140
0.2275169326 0.2275169326 0.2275169326
0.2320827247 0.2320827247 0.2320827247
0.2367087250 0.2367087250 0.2367087250
0.2413648295 0.2413648295 0.2413648295
0.2460811422 0.2460811422 0.2460811422
0.2508275591 0.2508275591 0.2508275591
0.2556341842 0.2556341842 0.2556341842
0.2604709134 0.2604709134 0.2604709134
0.2653578161 0.2653578161 0.2653578161
0.2702748230 0.2702748230 0.2702748230
0.2752420034 0.2752420034 0.2752420034
0.2802392880 0.2802392880 0.2802392880
0.2852666767 0.2852666767 0.2852666767
0.2903442389 0.2903442389 0.2903442389
0.2954418705 0.2954418705 0.2954418705
0.3005696062 0.3005696062 0.3005696062
0.3057274461 0.3057274461 0.3057274461
0.3109153901 0.3109153901 0.3109153901
0.3161334382 0.3161334382 0.3161334382
0.3213715557 0.3213715557 0.3213715557
0.3266297427 0.3266297427 0.3266297427
0.3318979643 0.3318979643 0.3318979643
0.3371762207 0.3371762207 0.3371762207
0.3424745465 0.3424745465 0.3424745465
0.3477829070 0.3477829070 0.3477829070
0.3531013022 0.3531013022 0.3531013022
0.3584096627 0.3584096627 0.3584096627
0.3637380926 0.3637380926 0.3637380926
0.3690564878 0.3690564878 0.3690564878
0.3743648482 0.3743648482 0.3743648482
0.3796631740 0.3796631740 0.3796631740
0.3849614998 0.3849614998 0.3849614998
0.3902497909 0.3902497909 0.3902497909
0.3955180125 0.3955180125 0.3955180125
0.4007761995 0.4007761995 0.4007761995
0.4060243517 0.4060243517 0.4060243517
0.4112524345 0.4112524345 0.4112524345
0.4164704827 0.4164704827 0.4164704827
0.4216684614 0.4216684614 0.4216684614
0.4268463707 0.4268463707 0.4268463707
0.4320042105 0.4320042105 0.4320042105
0.4371520157 0.4371520157 0.4371520157
0.4422797514 0.4422797514 0.4422797514
0.4473773830 0.4473773830 0.4473773830
0.4524649800 0.4524649800 0.4524649800
0.4575224728 0.4575224728 0.4575224728
0.4625699308 0.4625699308 0.4625699308
0.4675872848 0.4675872848 0.4675872848
0.4725745346 0.4725745346 0.4725745346
0.4775517498 0.4775517498 0.4775517498
0.4824988608 0.4824988608 0.4824988608
0.4874259023 0.4874259023 0.4874259023
0.4923328745 0.4923328745 0.4923328745
0.4972097426 0.4972097426 0.4972097426
0.5020665412 0.5020665412 0.5020665412
0.5068932357 0.5068932357 0.5068932357
0.5117098955 0.5117098955 0.5117098955
0.5164964512 0.5164964512 0.5164964512
0.5212529027 0.5212529027 0.5212529027
0.5259993196 0.5259993196 0.5259993196
0.5307156323 0.5307156323 0.5307156323
0.5354118756 0.5354118756 0.5354118756
0.5400880495 0.5400880495 0.5400880495
0.5447441540 0.5447441540 0.5447441540
0.5493801890 0.5493801890 0.5493801890
0.5539861200 0.5539861200 0.5539861200
0.5585820162 0.5585820162 0.5585820162
0.5631578430 0.5631578430 0.5631578430
0.5677236351 0.5677236351 0.5677236351
0.5722593231 0.5722593231 0.5722593231
0.5767950110 0.5767950110 0.5767950110
0.5813005949 0.5813005949 0.5813005949
0.5857961441 0.5857961441 0.5857961441
0.5902615891 0.5902615891 0.5902615891
0.5946868953 0.5946868953 0.5946868953
0.5990720626 0.5990720626 0.5990720626
0.6034170912 0.6034170912 0.6034170912
0.6076918767 0.6076918767 0.6076918767
0.6119064540 0.6119064540 0.6119064540
0.6160608231 0.6160608231 0.6160608231
0.6201449492 0.6201449492 0.6201449492
0.6241487977 0.6241487977 0.6241487977
0.6280623338 0.6280623338 0.6280623338
0.6319056269 0.6319056269 0.6319056269
0.6356586077 0.6356586077 0.6356586077
0.6393413455 0.6393413455 0.6393413455
0.6429438056 0.6429438056 0.6429438056
0.6464659881 0.6464659881 0.6464659881
0.6499179276 0.6499179276 0.6499179276
0.6532996242 0.6532996242 0.6532996242
0.6566010431 0.6566010431 0.6566010431
0.6598322191 0.6598322191 0.6598322191
0.6629931521 0.6629931521 0.6629931521
0.6660838421 0.6660838421 0.6660838421
0.6691042892 0.6691042892 0.6691042892
0.6720645280 0.6720645280 0.6720645280
0.6749545239 0.6749545239 0.6749545239
0.6777843115 0.6777843115 0.6777843115
0.6805639256 0.6805639256 0.6805639256
0.6832732968 0.6832732968 0.6832732968
0.6859324944 0.6859324944 0.6859324944
0.6885314837 0.6885314837 0.6885314837
0.6910802995 0.6910802995 0.6910802995
0.6935789418 0.6935789418 0.6935789418
0.6960274105 0.6960274105 0.6960274105
0.6984357404 0.6984357404 0.6984357404
0.7007938968 0.7007938968 0.7007938968
0.7031119143 0.7031119143 0.7031119143
0.7053998277 0.7053998277 0.7053998277
0.7076375676 0.7076375676 0.7076375676
0.7098552380 0.7098552380 0.7098552380
0.7120227349 0.7120227349 0.7120227349
0.7141801971 0.7141801971 0.7141801971
0.7162975205 0.7162975205 0.7162975205
0.7183947745 0.7183947745 0.7183947745
0.7204719590 0.7204719590 0.7204719590
0.7225290741 0.7225290741 0.7225290741
0.7245661198 0.7245661198 0.7245661198
0.7265931308 0.7265931308 0.7265931308
0.7286101071 0.7286101071 0.7286101071
0.7306170487 0.7306170487 0.7306170487
0.7326139556 0.7326139556 0.7326139556
