1. pre-requisites/Adobe Standard tone curve > Linear.cube
TITLE "Generated by 3D LUT Creator Pro (c) Oleg Sharonov"
LUT_3D_SIZE 33
#INPUTGAMMA sRGB IEC61966-2.1 v.2.10
#IMAGEPROFILE sRGB IEC61966-2.1 v.2.10
#OUTPUTGAMMA sRGB IEC61966-2.1 v.2.10
0.000000 0.000000 0.000000
0.049050 0.000000 0.000000
0.086087 0.000000 0.000000
0.114090 0.000000 0.000000
0.137438 0.000000 0.000000
0.158857 0.000000 0.000000
0.180054 0.000000 0.000000
0.200278 0.000000 0.000000
0.219939 0.000000 0.000000
0.239377 0.000000 0.000000
0.258267 0.000000 0.000000
0.276913 0.000000 0.000000
0.295467 0.000000 0.000000
0.313548 0.000000 0.000000
0.331462 0.000000 0.000000
0.349388 0.000000 0.000000
0.368018 0.000000 0.000000
0.386803 0.000000 0.000000
0.405928 0.000000 0.000000
0.425371 0.000000 0.000000
0.446106 0.000000 0.000000
0.467728 0.000000 0.000000
0.491109 0.000000 0.000000
0.516581 0.000000 0.000000
0.543812 0.000000 0.000000
0.573529 0.000000 0.000000
0.607770 0.000000 0.000000
0.643148 0.000000 0.000000
0.684275 0.000000 0.000000
0.740542 0.000000 0.000000
0.820632 0.000000 0.000000
0.909960 0.000000 0.000000
0.999863 0.000000 0.000000
0.000000 0.050162 0.000000
0.051258 0.051258 0.000000
0.085555 0.050162 0.000000
0.113384 0.051258 0.000000
0.137211 0.050162 0.000000
0.159382 0.051258 0.000000
0.180328 0.051258 0.000000
0.200165 0.051258 0.000000
0.220130 0.051258 0.000000
0.239214 0.051258 0.000000
0.258480 0.051258 0.000000
0.277100 0.051258 0.000000
0.295411 0.051258 0.000000
0.313694 0.051258 0.000000
0.331374 0.051258 0.000000
0.349304 0.051258 0.000000
0.367938 0.051258 0.000000
0.386915 0.051258 0.000000
0.406033 0.051258 0.000000
0.425474 0.051258 0.000000
0.446072 0.051258 0.000000
0.467828 0.051258 0.000000
0.491212 0.051258 0.000000
0.516511 0.051258 0.000000
0.543740 0.051258 0.000000
0.573648 0.051258 0.000000
0.607691 0.051258 0.000000
0.643108 0.051258 0.000000
0.684231 0.051258 0.000000
0.740471 0.051258 0.000000
0.820873 0.051258 0.000000
0.909797 0.051258 0.000000
0.999939 0.051258 0.001327
0.000000 0.085555 0.000000
0.051258 0.086087 0.000000
0.085555 0.085555 0.000000
0.113384 0.085555 0.000000
0.137211 0.085555 0.000000
0.159382 0.086087 0.000000
0.180328 0.086087 0.000000
0.200165 0.085555 0.000000
0.220130 0.086087 0.000000
0.239214 0.085555 0.000000
0.258409 0.086087 0.000000
0.277100 0.086087 0.000000
0.295635 0.086087 0.000000
0.313694 0.086087 0.000000
0.331374 0.085555 0.000000
0.349304 0.085555 0.000000
0.367938 0.085555 0.000000
0.386915 0.085555 0.000000
0.405998 0.086087 0.000000
0.425440 0.085555 0.000000
0.446039 0.085555 0.000000
0.467828 0.085555 0.000000
0.491178 0.085555 0.000000
0.516511 0.085555 0.000000
0.543740 0.085555 0.000000
0.573648 0.085555 0.000000
0.607691 0.085555 0.000000
0.643068 0.085555 0.000000
0.684187 0.085555 0.000000
0.740471 0.085555 0.000000
0.820792 0.085555 0.000000
0.909797 0.085555 0.000000
0.999939 0.086087 0.000000
0.000000 0.113028 0.000000
0.051258 0.113384 0.000000
0.085555 0.113028 0.000000
0.113384 0.113384 0.000000
0.137438 0.113028 0.000000
0.159382 0.113384 0.000000
0.180328 0.113384 0.000000
0.200165 0.113384 0.000000
0.220130 0.113384 0.000000
0.239214 0.113384 0.000000
0.258409 0.113384 0.000000
0.277037 0.113384 0.000000
0.295635 0.113384 0.000000
0.313694 0.113384 0.000000
0.331374 0.113384 0.000000
0.349304 0.113384 0.000000
0.367938 0.113384 0.000000
0.386915 0.113384 0.000000
0.405998 0.113384 0.000000
0.425440 0.113384 0.000000
0.446072 0.113384 0.000000
0.467828 0.113384 0.000000
0.491178 0.113384 0.000000
0.516511 0.113384 0.000000
0.543740 0.113384 0.000000
0.573648 0.113384 0.000000
0.607691 0.113384 0.000000
0.643108 0.113384 0.000000
0.684187 0.113384 0.000000
0.740471 0.113384 0.000000
0.820792 0.113384 0.000000
0.909797 0.113384 0.000000
0.999939 0.113384 0.000000
0.000000 0.137438 0.000000
0.051258 0.137663 0.000000
0.085555 0.137438 0.000000
0.113384 0.137438 0.000000
0.137438 0.137438 0.000000
0.159382 0.137663 0.000000
0.180054 0.137438 0.000000
0.200165 0.137438 0.000000
0.219939 0.137438 0.000000
0.239295 0.137438 0.000000
0.258267 0.137438 0.000000
0.276913 0.137438 0.000000
0.295467 0.137438 0.000000
0.313548 0.137438 0.000000
0.331418 0.137438 0.000000
0.349346 0.137438 0.000000
0.367978 0.137438 0.000000
0.386803 0.137438 0.000000
0.405894 0.137438 0.000000
0.425337 0.137438 0.000000
0.446106 0.137438 0.000000
0.467728 0.137438 0.000000
0.491075 0.137438 0.000000
0.516546 0.137438 0.000000
0.543776 0.137438 0.000000
0.573529 0.137438 0.000000
0.607730 0.137438 0.000000
0.643148 0.137438 0.000000
0.684231 0.137438 0.000000
0.740542 0.137438 0.000000
0.820953 0.137438 0.000000
0.909879 0.137438 0.000000
0.999788 0.137438 0.000000
0.000000 0.159207 0.000000
0.051258 0.159207 0.000000
0.086087 0.159207 0.000000
0.113384 0.159382 0.000000
0.137438 0.159207 0.000000
0.159207 0.159207 0.000000
0.180191 0.159207 0.000000
0.200278 0.159382 0.000000
0.219939 0.159207 0.000000
0.239377 0.159207 0.000000
0.258338 0.159207 0.000000
0.276975 0.159207 0.000000
0.295523 0.159207 0.000000
0.313597 0.159207 0.000000
0.331462 0.159207 0.000000
0.349388 0.159207 0.000000
0.367859 0.159207 0.000000
0.386840 0.159207 0.000000
0.405928 0.159207 0.000000
0.425371 0.159207 0.000000
0.446139 0.159207 0.000000
0.467761 0.159207 0.000000
0.491109 0.159207 0.000000
0.516581 0.159207 0.000000
0.543812 0.159207 0.000000
0.573569 0.159207 0.000000
0.607770 0.159207 0.000000
0.643188 0.159207 0.000000
0.684098 0.159207 0.000000
0.740614 0.159207 0.000000
0.820632 0.159207 0.000000
0.909960 0.159207 0.000000
0.999863 0.159207 0.000000
0.000000 0.180191 0.000000
0.051258 0.180054 0.000000
0.086087 0.180191 0.000000
0.113384 0.180054 0.000000
0.137438 0.180191 0.000000
0.159207 0.180054 0.000000
0.180191 0.180191 0.000000
0.200278 0.180191 0.000000
0.219939 0.180191 0.000000
0.239377 0.180191 0.000000
0.258338 0.180191 0.000000
0.276975 0.180191 0.000000
0.295523 0.180191 0.000000
0.313597 0.180191 0.000000
0.331462 0.180191 0.000000
0.349388 0.180191 0.000000
0.367899 0.180191 0.000000
0.386840 0.180191 0.000000
0.405928 0.180191 0.000000
0.425406 0.180191 0.000000
0.446139 0.180191 0.000000
0.467761 0.180191 0.000000
0.491143 0.180191 0.000000
0.516581 0.180191 0.000000
0.543812 0.180191 0.000000
0.573569 0.180191 0.000000
0.607770 0.180191 0.000000
0.643188 0.180191 0.000000
0.684142 0.180191 0.000000
0.740614 0.180191 0.000000
0.820712 0.180191 0.000000
0.909960 0.180191 0.000000
0.999939 0.180191 0.000000
0.000000 0.200165 0.000000
0.051258 0.200165 0.000000
0.085555 0.200165 0.000000
0.113384 0.200278 0.000000
0.137438 0.200165 0.000000
0.159207 0.200165 0.000000
0.180191 0.200165 0.000000
0.200165 0.200165 0.000000
0.219939 0.200165 0.000000
0.239377 0.200165 0.000000
0.258338 0.200165 0.000000
0.276975 0.200165 0.000000
0.295523 0.200165 0.000000
0.313597 0.200165 0.000000
0.331462 0.200165 0.000000
0.349346 0.200165 0.000000
0.367859 0.200165 0.000000
0.386840 0.200165 0.000000
0.405928 0.200165 0.000000
0.425371 0.200165 0.000000
0.446106 0.200165 0.000000
0.467761 0.200165 0.000000
0.491109 0.200165 0.000000
0.516581 0.200165 0.000000
0.543812 0.200165 0.000000
0.573569 0.200165 0.000000
0.607770 0.200165 0.000000
0.643188 0.200165 0.000000
0.684275 0.200165 0.000000
0.740614 0.200165 0.000000
0.820632 0.200165 0.000000
0.909960 0.200165 0.000000
0.999863 0.200165 0.000000
0.000000 0.219939 0.000000
0.051258 0.220035 0.000000
0.085555 0.219939 0.000000
0.113384 0.220035 0.000000
0.137438 0.219939 0.000000
0.159207 0.220035 0.000000
0.180191 0.219939 0.000000
0.200165 0.220035 0.000000
0.219939 0.219939 0.000000
0.239295 0.219939 0.000000
0.258267 0.219939 0.000000
0.276913 0.219939 0.000000
0.295467 0.219939 0.000000
0.313597 0.219939 0.000000
0.331418 0.220035 0.000000
0.349346 0.220035 0.000000
0.367978 0.220035 0.000000
0.386803 0.219939 0.000000
0.405894 0.219939 0.000000
0.425371 0.219939 0.000000
0.446106 0.220035 0.000000
0.467728 0.219939 0.000000
0.491075 0.219939 0.000000
0.516546 0.219939 0.000000
0.543776 0.219939 0.000000
0.573529 0.219939 0.000000
0.607730 0.220035 0.000000
0.643148 0.220035 0.000000
0.684231 0.220035 0.000000
0.740542 0.220035 0.000000
0.820873 0.220035 0.000000
0.909879 0.220035 0.000000
0.999788 0.219939 0.000000
0.000000 0.239295 0.000000
0.051258 0.239377 0.000000
0.085555 0.239295 0.000000
0.113384 0.239295 0.000000
0.137438 0.239295 0.000000
0.159207 0.239377 0.000000
0.180191 0.239377 0.000000
0.200165 0.239295 0.000000
0.220035 0.239377 0.000000
0.239295 0.239295 0.000000
0.258338 0.239377 0.000000
0.277037 0.239377 0.000000
0.295579 0.239377 0.000000
0.313646 0.239377 0.000000
0.331374 0.239295 0.000000
0.349304 0.239295 0.000000
0.367938 0.239295 0.000000
0.386877 0.239377 0.000000
0.405998 0.239377 0.000000
0.425440 0.239377 0.000000
0.446072 0.239295 0.000000
0.467795 0.239377 0.000000
0.491178 0.239377 0.000000
0.516511 0.239295 0.000000
0.543740 0.239295 0.000000
0.573608 0.239377 0.000000
0.607691 0.239295 0.000000
0.643108 0.239295 0.000000
0.684187 0.239295 0.000000
0.740471 0.239295 0.000000
0.820792 0.239295 0.000000
0.909797 0.239295 0.000000
0.999939 0.239377 0.000000
0.000000 0.258409 0.000000
0.051258 0.258338 0.000000
0.085555 0.258267 0.000000
0.113384 0.258338 0.000000
0.137438 0.258409 0.000000
0.159207 0.258338 0.000000
0.180191 0.258338 0.000000
0.200165 0.258338 0.000000
0.220035 0.258338 0.000000
0.239295 0.258267 0.000000
0.258338 0.258338 0.000000
0.276975 0.258338 0.000000
0.295523 0.258338 0.000000
0.313646 0.258338 0.000000
0.331374 0.258338 0.000000
0.349304 0.258338 0.000000
0.367938 0.258338 0.000000
0.386877 0.258338 0.000000
0.405963 0.258338 0.000000
0.425440 0.258338 0.000000
0.446072 0.258338 0.000000
0.467795 0.258338 0.000000
0.491143 0.258338 0.000000
0.516616 0.258338 0.000000
0.543848 0.258338 0.000000
0.573608 0.258338 0.000000
0.607691 0.258338 0.000000
0.643068 0.258338 0.000000
0.684187 0.258338 0.000000
0.740685 0.258338 0.000000
0.820792 0.258338 0.000000
0.909716 0.258338 0.000000
0.999939 0.258338 0.000000
0.000000 0.276975 0.000000
0.051258 0.276975 0.000000
0.085555 0.276975 0.000000
0.113384 0.276975 0.000000
0.137438 0.276975 0.000000
0.159207 0.276975 0.000000
0.180191 0.276913 0.000000
0.200165 0.276975 0.000000
0.220035 0.277037 0.000000
0.239295 0.276975 0.000000
0.258267 0.276913 0.000000
0.276913 0.276913 0.000000
0.295467 0.276975 0.000000
0.313646 0.276975 0.000000
0.331418 0.276975 0.000000
0.349304 0.276975 0.000000
0.367938 0.276975 0.000000
0.386877 0.276975 0.000000
0.405894 0.276975 0.000000
0.425440 0.276975 0.000000
0.446072 0.276975 0.000000
0.467728 0.276975 0.000000
0.491075 0.276975 0.000000
0.516546 0.276975 0.000000
0.543776 0.276975 0.000000
0.573648 0.276975 0.000000
0.607691 0.276975 0.000000
0.643108 0.276975 0.000000
0.684231 0.276975 0.000000
0.740471 0.276975 0.000000
0.820873 0.276975 0.000000
0.909797 0.276975 0.000000
0.999939 0.277037 0.001327
0.000000 0.295467 0.000000
0.051258 0.295523 0.000000
0.085555 0.295467 0.000000
0.113384 0.295523 0.000000
0.137438 0.295467 0.000000
0.159207 0.295523 0.000000
0.180191 0.295523 0.000000
0.200165 0.295523 0.000000
0.220035 0.295523 0.000000
0.239295 0.295467 0.000000
0.258338 0.295523 0.000000
0.276975 0.295523 0.000000
0.295523 0.295523 0.000000
0.313646 0.295523 0.000000
0.331374 0.295523 0.000000
0.349304 0.295523 0.000000
0.367938 0.295523 0.000000
0.386877 0.295523 0.000000
0.405963 0.295523 0.000000
0.425440 0.295523 0.000000
0.446072 0.295523 0.000000
0.467795 0.295523 0.000000
0.491143 0.295523 0.000000
0.516616 0.295523 0.000000
0.543848 0.295523 0.000000
0.573608 0.295523 0.000000
0.607691 0.295523 0.000000
0.643108 0.295523 0.000000
0.684187 0.295523 0.000000
0.740471 0.295523 0.000000
0.820792 0.295523 0.000000
0.909797 0.295523 0.000000
0.999939 0.295523 0.000000
0.000000 0.313646 0.000000
0.051258 0.313597 0.000000
0.085555 0.313646 0.000000
0.113384 0.313597 0.000000
0.137438 0.313646 0.000000
0.159207 0.313597 0.000000
0.180191 0.313597 0.000000
0.200165 0.313597 0.000000
0.220035 0.313597 0.000000
0.239377 0.313646 0.000000
0.258338 0.313597 0.000000
0.276975 0.313597 0.000000
0.295523 0.313646 0.000000
0.313597 0.313597 0.000000
0.331374 0.313597 0.000000
0.349304 0.313597 0.000000
0.367899 0.313597 0.000000
0.386840 0.313597 0.000000
0.405963 0.313597 0.000000
0.425406 0.313597 0.000000
0.446139 0.313646 0.000000
0.467761 0.313597 0.000000
0.491143 0.313597 0.000000
0.516581 0.313597 0.000000
0.543812 0.313597 0.000000
0.573569 0.313597 0.000000
0.607770 0.313646 0.000000
0.643188 0.313646 0.000000
0.684142 0.313597 0.000000
0.740614 0.313597 0.000000
0.820712 0.313597 0.000000
0.909716 0.313597 0.000000
0.999939 0.313597 0.000000
0.000000 0.331418 0.000000
0.051258 0.331374 0.000000
0.085555 0.331418 0.000000
0.113384 0.331374 0.000000
0.137438 0.331418 0.000000
0.159207 0.331374 0.000000
0.180191 0.331418 0.000000
0.200165 0.331418 0.000000
0.220035 0.331418 0.000000
0.239377 0.331418 0.000000
0.258338 0.331418 0.000000
0.276975 0.331418 0.000000
0.295523 0.331418 0.000000
0.313597 0.331418 0.000000
0.331418 0.331418 0.000000
0.349346 0.331418 0.000000
0.367899 0.331374 0.000000
0.386840 0.331374 0.000000
0.405928 0.331418 0.000000
0.425406 0.331374 0.000000
0.446106 0.331418 0.000000
0.467761 0.331418 0.000000
0.491143 0.331418 0.000000
0.516581 0.331418 0.000000
0.543812 0.331418 0.000000
0.573569 0.331418 0.000000
0.607770 0.331418 0.000000
0.643188 0.331418 0.000000
0.684142 0.331374 0.000000
0.740614 0.331418 0.000000
0.820712 0.331418 0.000000
0.909960 0.331418 0.000000
0.999939 0.331418 0.000000
0.000000 0.349304 0.000000
0.051258 0.349346 0.000000
0.085555 0.349304 0.000000
0.113384 0.349304 0.000000
0.137438 0.349304 0.000000
0.159207 0.349346 0.000000
0.180191 0.349346 0.000000
0.200165 0.349304 0.000000
0.220035 0.349346 0.000000
0.239295 0.349304 0.000000
0.258338 0.349346 0.000000
0.276975 0.349346 0.000000
0.295523 0.349346 0.000000
0.313646 0.349346 0.000000
0.331418 0.349304 0.000000
0.349304 0.349304 0.000000
0.367938 0.349346 0.000000
0.386877 0.349346 0.000000
0.405963 0.349346 0.000000
0.425440 0.349346 0.000000
0.446072 0.349304 0.000000
0.467795 0.349346 0.000000
0.491143 0.349346 0.000000
0.516616 0.349346 0.000000
0.543776 0.349304 0.000000
0.573608 0.349346 0.000000
0.607691 0.349304 0.000000
0.643108 0.349304 0.000000
0.684187 0.349304 0.000000
0.740471 0.349304 0.000000
0.820792 0.349346 0.000000
0.909797 0.349304 0.000000
0.999939 0.349346 0.001327
0.000000 0.367938 0.000000
0.051258 0.367978 0.000000
0.085555 0.367938 0.000000
0.113384 0.367938 0.000000
0.137438 0.367938 0.000000
0.159207 0.367899 0.000000
0.180191 0.367899 0.000000
0.200165 0.367938 0.000000
0.219939 0.367899 0.000000
0.239295 0.367938 0.000000
0.258338 0.367899 0.000000
0.276975 0.367938 0.000000
0.295523 0.367938 0.000000
0.313597 0.367899 0.000000
0.331418 0.367938 0.000000
0.349346 0.367938 0.000000
0.367938 0.367938 0.000000
0.386840 0.367899 0.000000
0.405928 0.367938 0.000000
0.425406 0.367899 0.000000
0.446106 0.367938 0.000000
0.467761 0.367938 0.000000
0.491109 0.367938 0.000000
0.516581 0.367938 0.000000
0.543812 0.367938 0.000000
0.573569 0.367938 0.000000
0.607730 0.367938 0.000000
0.643148 0.367938 0.000000
0.684231 0.367938 0.000000
0.740542 0.367938 0.000000
0.820632 0.367938 0.000000
0.909879 0.367938 0.000000
0.999863 0.367938 0.000000
0.000000 0.386840 0.000000
0.051258 0.386877 0.000000
0.085555 0.386840 0.000000
0.113384 0.386840 0.000000
0.137438 0.386840 0.000000
0.159207 0.386877 0.000000
0.180191 0.386877 0.000000
0.200165 0.386840 0.000000
0.220035 0.386877 0.000000
0.239295 0.386840 0.000000
0.258338 0.386877 0.000000
0.276975 0.386877 0.000000
0.295523 0.386877 0.000000
0.313646 0.386877 0.000000
0.331374 0.386840 0.000000
0.349304 0.386840 0.000000
0.367938 0.386877 0.000000
0.386877 0.386877 0.000000
0.405963 0.386877 0.000000
0.425440 0.386877 0.000000
0.446072 0.386840 0.000000
0.467795 0.386877 0.000000
0.491143 0.386877 0.000000
0.516616 0.386877 0.000000
0.543848 0.386877 0.000000
0.573608 0.386877 0.000000
0.607691 0.386840 0.000000
0.643108 0.386840 0.000000
0.684187 0.386877 0.000000
0.740685 0.386877 0.000000
0.820792 0.386877 0.000000
0.909797 0.386840 0.000000
0.999939 0.386877 0.000000
0.000000 0.405928 0.000000
0.051258 0.405963 0.000000
0.085555 0.405928 0.000000
0.113384 0.405963 0.000000
0.137438 0.405928 0.000000
0.159207 0.405963 0.000000
0.180191 0.405928 0.000000
0.200165 0.405963 0.000000
0.219939 0.405928 0.000000
0.239295 0.405928 0.000000
0.258338 0.405928 0.000000
0.276975 0.405928 0.000000
0.295523 0.405928 0.000000
0.313597 0.405928 0.000000
0.331418 0.405963 0.000000
0.349346 0.405963 0.000000
0.367938 0.405963 0.000000
0.386840 0.405928 0.000000
0.405928 0.405928 0.000000
0.425440 0.405963 0.000000
0.446106 0.405928 0.000000
0.467761 0.405928 0.000000
0.491109 0.405928 0.000000
0.516581 0.405928 0.000000
0.543812 0.405928 0.000000
0.573569 0.405928 0.000000
0.607730 0.405928 0.000000
0.643148 0.405928 0.000000
0.684231 0.405963 0.000000
0.740542 0.405928 0.000000
0.820792 0.405963 0.000000
0.909879 0.405963 0.000000
0.999863 0.405928 0.000000
0.000000 0.425440 0.000000
0.051258 0.425406 0.000000
0.085555 0.425440 0.000000
0.113384 0.425406 0.000000
0.137438 0.425440 0.000000
0.159207 0.425406 0.000000
0.180191 0.425406 0.000000
0.200165 0.425406 0.000000
0.220035 0.425406 0.000000
0.239295 0.425440 0.000000
0.258338 0.425406 0.000000
0.276975 0.425406 0.000000
0.295523 0.425406 0.000000
0.313597 0.425406 0.000000
0.331374 0.425406 0.000000
0.349346 0.425440 0.000000
0.367938 0.425406 0.000000
0.386840 0.425406 0.000000
0.405963 0.425406 0.000000
0.425406 0.425406 0.000000
0.446106 0.425440 0.000000
0.467761 0.425406 0.000000
0.491143 0.425406 0.000000
0.516581 0.425406 0.000000
0.543812 0.425440 0.000000
0.573569 0.425406 0.000000
0.607730 0.425440 0.000000
0.643188 0.425440 0.000000
0.684187 0.425406 0.000000
0.740614 0.425440 0.000000
0.820712 0.425406 0.000000
0.909716 0.425406 0.000000
0.999939 0.425406 0.000000
0.000000 0.446106 0.000000
0.051258 0.446106 0.000000
0.085555 0.446106 0.000000
0.113384 0.446072 0.000000
0.137438 0.446106 0.000000
0.159207 0.446106 0.000000
0.180191 0.446106 0.000000
0.200165 0.446139 0.000000
0.220035 0.446106 0.000000
0.239295 0.446106 0.000000
0.258338 0.446106 0.000000
0.276975 0.446106 0.000000
0.295523 0.446106 0.000000
0.313597 0.446106 0.000000
0.331374 0.446072 0.000000
0.349346 0.446139 0.000000
0.367938 0.446106 0.000000
0.386840 0.446106 0.000000
0.405928 0.446106 0.000000
0.425406 0.446106 0.000000
0.446106 0.446106 0.000000
0.467761 0.446106 0.000000
0.491143 0.446106 0.000000
0.516581 0.446106 0.000000
0.543812 0.446106 0.000000
0.573569 0.446106 0.000000
0.607730 0.446106 0.000000
0.643148 0.446106 0.000000
0.684187 0.446106 0.000000
0.740614 0.446106 0.000000
0.820712 0.446106 0.000000
0.909879 0.446106 0.000000
0.999939 0.446106 0.000000
0.000000 0.467761 0.000000
0.051258 0.467761 0.000000
0.085555 0.467795 0.000000
0.113384 0.467761 0.000000
0.137438 0.467761 0.000000
0.159207 0.467761 0.000000
0.180191 0.467761 0.000000
0.200165 0.467728 0.000000
0.220035 0.467761 0.000000
0.239295 0.467761 0.000000
0.258338 0.467761 0.000000
0.276975 0.467761 0.000000
0.295523 0.467761 0.000000
0.313597 0.467761 0.000000
0.331374 0.467761 0.000000
0.349346 0.467795 0.000000
0.367938 0.467761 0.000000
0.386877 0.467761 0.000000
0.405963 0.467761 0.000000
0.425406 0.467761 0.000000
0.446106 0.467761 0.000000
0.467761 0.467761 0.000000
0.491143 0.467761 0.000000
0.516581 0.467761 0.000000
0.543812 0.467761 0.000000
0.573569 0.467761 0.000000
0.607730 0.467795 0.000000
0.643148 0.467761 0.000000
0.684187 0.467761 0.000000
0.740614 0.467761 0.000000
0.820712 0.467761 0.000000
0.909879 0.467795 0.000000
0.999939 0.467761 0.000000
0.000000 0.491109 0.000000
0.051258 0.491143 0.000000
0.085555 0.491109 0.000000
0.113384 0.491143 0.000000
0.137438 0.491109 0.000000
0.159207 0.491143 0.000000
0.180191 0.491109 0.000000
0.200165 0.491143 0.000000
0.219939 0.491109 0.000000
0.239295 0.491109 0.000000
0.258338 0.491109 0.000000
0.276975 0.491109 0.000000
0.295523 0.491109 0.000000
0.313597 0.491109 0.000000
0.331418 0.491143 0.000000
0.349304 0.491143 0.000000
0.367938 0.491143 0.000000
0.386877 0.491143 0.000000
0.405928 0.491109 0.000000
0.425440 0.491143 0.000000
0.446106 0.491109 0.000000
0.467761 0.491109 0.000000
0.491109 0.491109 0.000000
0.516581 0.491109 0.000000
0.543812 0.491109 0.000000
0.573608 0.491143 0.000000
0.607730 0.491109 0.000000
0.643148 0.491109 0.000000
0.684187 0.491143 0.000000
0.740542 0.491109 0.000000
0.820792 0.491143 0.000000
0.909797 0.491143 0.000000
0.999939 0.491143 0.001327
0.000000 0.516581 0.000000
0.051258 0.516581 0.000000
0.085555 0.516581 0.000000
0.113384 0.516546 0.000000
0.137438 0.516581 0.000000
0.159207 0.516581 0.000000
0.180191 0.516581 0.000000
0.200165 0.516616 0.000000
0.220035 0.516581 0.000000
0.239295 0.516581 0.000000
0.258338 0.516581 0.000000
0.276975 0.516581 0.000000
0.295523 0.516581 0.000000
0.313597 0.516581 0.000000
0.331374 0.516546 0.000000
0.349346 0.516616 0.000000
0.367938 0.516581 0.000000
0.386877 0.516581 0.000000
0.405928 0.516581 0.000000
0.425406 0.516581 0.000000
0.446106 0.516581 0.000000
0.467761 0.516581 0.000000
0.491143 0.516581 0.000000
0.516581 0.516581 0.000000
0.543812 0.516581 0.000000
0.573569 0.516581 0.000000
0.607730 0.516581 0.000000
0.643148 0.516581 0.000000
0.684187 0.516581 0.000000
0.740614 0.516581 0.000000
0.820712 0.516581 0.000000
0.909879 0.516581 0.000000
0.999939 0.516581 0.000000
0.000000 0.543812 0.000000
0.051258 0.543812 0.000000
0.085555 0.543812 0.000000
0.113384 0.543776 0.000000
0.137438 0.543812 0.000000
0.159207 0.543812 0.000000
0.180191 0.543812 0.000000
0.200165 0.543848 0.000000
0.220035 0.543812 0.000000
0.239295 0.543812 0.000000
0.258338 0.543812 0.000000
0.276975 0.543812 0.000000
0.295523 0.543812 0.000000
0.313597 0.543812 0.000000
0.331418 0.543848 0.000000
0.349346 0.543848 0.000000
0.367938 0.543812 0.000000
0.386840 0.543812 0.000000
0.405928 0.543812 0.000000
0.425406 0.543812 0.000000
0.446106 0.543812 0.000000
0.467761 0.543812 0.000000
0.491143 0.543812 0.000000
0.516581 0.543812 0.000000
0.543812 0.543812 0.000000
0.573569 0.543812 0.000000
0.607730 0.543812 0.000000
0.643148 0.543812 0.000000
0.684187 0.543812 0.000000
0.740614 0.543812 0.000000
0.820712 0.543812 0.000000
0.909879 0.543812 0.000000
0.999939 0.543812 0.000000
0.000000 0.573608 0.000000
0.051258 0.573569 0.000000
0.085555 0.573608 0.000000
0.113384 0.573569 0.000000
0.137438 0.573608 0.000000
0.159207 0.573569 0.000000
0.180191 0.573569 0.000000
0.200165 0.573608 0.000000
0.220035 0.573569 0.000000
0.239295 0.573608 0.000000
0.258338 0.573569 0.000000
0.276975 0.573569 0.000000
0.295523 0.573569 0.000000
0.313597 0.573569 0.000000
0.331418 0.573608 0.000000
0.349346 0.573608 0.000000
0.367938 0.573569 0.000000
0.386840 0.573569 0.000000
0.405928 0.573569 0.000000
0.425406 0.573569 0.000000
0.446106 0.573608 0.000000
0.467761 0.573569 0.000000
0.491143 0.573569 0.000000
0.516581 0.573569 0.000000
0.543812 0.573569 0.000000
0.573569 0.573569 0.000000
0.607730 0.573608 0.000000
0.643148 0.573608 0.000000
0.684187 0.573569 0.000000
0.740614 0.573608 0.000000
0.820712 0.573569 0.000000
0.909879 0.573608 0.000000
0.999939 0.573569 0.000000
0.000000 0.607691 0.000000
0.051258 0.607730 0.000000
0.085555 0.607691 0.000000
0.113384 0.607730 0.000000
0.137438 0.607691 0.000000
0.159207 0.607730 0.000000
0.180191 0.607730 0.000000
0.200165 0.607730 0.000000
0.220035 0.607730 0.000000
0.239295 0.607691 0.000000
0.258338 0.607730 0.000000
0.276975 0.607730 0.000000
0.295523 0.607691 0.000000
0.313597 0.607730 0.000000
0.331418 0.607730 0.000000
0.349304 0.607730 0.000000
0.367938 0.607730 0.000000
0.386877 0.607730 0.000000
0.405963 0.607730 0.000000
0.425440 0.607730 0.000000
0.446106 0.607691 0.000000
0.467761 0.607730 0.000000
0.491143 0.607730 0.000000
