1. pre-requisites/Adobe Standard tone curve > Linear.cube
TITLE "Generated by 3D LUT Creator Pro (c) Oleg Sharonov"
LUT_3D_SIZE 9
#INPUTGAMMA sRGB IEC61966-2.1 v.2.10
#IMAGEPROFILE sRGB IEC61966-2.1 v.2.10
#OUTPUTGAMMA sRGB IEC61966-2.1 v.2.10
0.000000 0.000000 0.000000
0.137438 0.000000 0.000000
0.219939 0.000000 0.000000
0.295467 0.000000 0.000000
0.368018 0.000000 0.000000
0.446106 0.000000 0.000000
0.543812 0.000000 0.000000
0.684275 0.000000 0.000000
0.999863 0.000000 0.000000
0.000000 0.137438 0.000000
0.137438 0.137438 0.000000
0.219939 0.137438 0.000000
0.295467 0.137438 0.000000
0.367978 0.137438 0.000000
0.446106 0.137438 0.000000
0.543776 0.137438 0.000000
0.684231 0.137438 0.000000
0.999788 0.137438 0.000000
0.000000 0.219939 0.000000
0.137438 0.219939 0.000000
0.219939 0.219939 0.000000
0.295467 0.219939 0.000000
0.367978 0.220035 0.000000
0.446106 0.220035 0.000000
0.543776 0.219939 0.000000
0.684231 0.220035 0.000000
0.999788 0.219939 0.000000
0.000000 0.295467 0.000000
0.137438 0.295467 0.000000
0.220035 0.295523 0.000000
0.295523 0.295523 0.000000
0.367938 0.295523 0.000000
0.446072 0.295523 0.000000
0.543848 0.295523 0.000000
0.684187 0.295523 0.000000
0.999939 0.295523 0.000000
0.000000 0.367938 0.000000
0.137438 0.367938 0.000000
0.219939 0.367899 0.000000
0.295523 0.367938 0.000000
0.367938 0.367938 0.000000
0.446106 0.367938 0.000000
0.543812 0.367938 0.000000
0.684231 0.367938 0.000000
0.999863 0.367938 0.000000
0.000000 0.446106 0.000000
0.137438 0.446106 0.000000
0.220035 0.446106 0.000000
0.295523 0.446106 0.000000
0.367938 0.446106 0.000000
0.446106 0.446106 0.000000
0.543812 0.446106 0.000000
0.684187 0.446106 0.000000
0.999939 0.446106 0.000000
0.000000 0.543812 0.000000
0.137438 0.543812 0.000000
0.220035 0.543812 0.000000
0.295523 0.543812 0.000000
0.367938 0.543812 0.000000
0.446106 0.543812 0.000000
0.543812 0.543812 0.000000
0.684187 0.543812 0.000000
0.999939 0.543812 0.000000
0.000000 0.684231 0.000000
0.137438 0.684231 0.000000
0.220035 0.684187 0.000000
0.295523 0.684231 0.000000
0.367938 0.684187 0.000000
0.446106 0.684231 0.000000
0.543812 0.684231 0.000000
0.684187 0.684187 0.000000
0.999939 0.684187 0.000000
0.001327 0.999939 0.001327
0.137663 0.999939 0.001327
0.220035 0.999939 0.000000
0.295523 0.999939 0.000000
0.367938 0.999863 0.000000
0.446139 0.999939 0.001327
0.543812 0.999939 0.001327
0.684187 0.999939 0.000000
0.999939 0.999939 0.000000
0.000000 0.000000 0.137438
0.137438 0.000000 0.137438
0.219939 0.000000 0.137438
0.295467 0.000000 0.137438
0.368018 0.000000 0.137438
0.446106 0.000000 0.137438
0.543812 0.000000 0.137438
0.684275 0.000000 0.137438
0.999863 0.000000 0.137438
0.000000 0.137438 0.137438
0.137438 0.137438 0.137438
0.219939 0.137438 0.137438
0.295467 0.137438 0.137438
0.367978 0.137438 0.137438
0.446106 0.137438 0.137438
0.543776 0.137438 0.137438
0.684275 0.137438 0.137438
0.999939 0.137438 0.137438
0.000000 0.219939 0.137438
0.137438 0.219939 0.137438
0.219939 0.219939 0.137438
0.295467 0.219939 0.137438
0.367978 0.220035 0.137438
0.446106 0.220035 0.137438
0.543776 0.219939 0.137438
0.684231 0.220035 0.137438
0.999939 0.219939 0.137438
0.000000 0.295467 0.137438
0.137438 0.295467 0.137438
0.220035 0.295523 0.137438
0.295523 0.295523 0.137438
0.367938 0.295523 0.137438
0.446072 0.295523 0.137438
0.543776 0.295523 0.137438
0.684187 0.295523 0.137438
0.999939 0.295523 0.137663
0.000000 0.367938 0.137438
0.137438 0.367938 0.137438
0.219939 0.367899 0.137438
0.295523 0.367938 0.137438
0.367938 0.367938 0.137438
0.446106 0.367938 0.137438
0.543812 0.367938 0.137438
0.684231 0.367938 0.137438
0.999939 0.367899 0.137438
0.000000 0.446106 0.137438
0.137438 0.446106 0.137438
0.220035 0.446106 0.137438
0.295523 0.446106 0.137438
0.367938 0.446106 0.137438
0.446106 0.446106 0.137438
0.543812 0.446106 0.137438
0.684187 0.446106 0.137438
0.999939 0.446106 0.137438
0.000000 0.543812 0.137438
0.137438 0.543812 0.137438
0.220035 0.543812 0.137438
0.295523 0.543812 0.137438
0.367938 0.543812 0.137438
0.446106 0.543812 0.137438
0.543812 0.543812 0.137438
0.684187 0.543812 0.137438
0.999939 0.543812 0.137438
0.000000 0.684231 0.137438
0.137438 0.684231 0.137438
0.220035 0.684187 0.137438
0.295523 0.684231 0.137438
0.367938 0.684187 0.137438
0.446106 0.684231 0.137438
0.543812 0.684231 0.137438
0.684187 0.684187 0.137438
0.999939 0.684187 0.137663
0.001327 0.999939 0.137663
0.137663 0.999939 0.137663
0.219939 0.999939 0.137438
0.295523 0.999939 0.137438
0.367899 0.999939 0.137211
0.446139 0.999939 0.137663
0.543812 0.999939 0.137663
0.684142 0.999939 0.136756
0.999939 0.999939 0.137211
0.000000 0.000000 0.219747
0.137438 0.000000 0.219843
0.219843 0.000000 0.219843
0.295467 0.000000 0.219939
0.367978 0.000000 0.220035
0.446072 0.000000 0.219939
0.543776 0.000000 0.219939
0.684231 0.000000 0.220035
0.999788 0.000000 0.219939
0.000000 0.137438 0.219843
0.137438 0.137438 0.219939
0.220035 0.137438 0.220035
0.295411 0.137438 0.219939
0.367938 0.137438 0.220035
0.446072 0.137438 0.219939
0.543740 0.137438 0.219939
0.684231 0.137438 0.220035
0.999939 0.137663 0.220035
0.000000 0.219939 0.219939
0.137438 0.219939 0.219939
0.220035 0.220035 0.220035
0.295467 0.219939 0.219939
0.367938 0.220035 0.220035
0.446072 0.219939 0.219939
0.543776 0.219939 0.219939
0.684231 0.220035 0.220035
0.999939 0.220035 0.220035
0.000000 0.295523 0.220035
0.137438 0.295523 0.220035
0.220035 0.295523 0.220035
0.295523 0.295523 0.220035
0.367938 0.295523 0.219939
0.446139 0.295523 0.220035
0.543848 0.295523 0.220035
0.684187 0.295523 0.220035
0.999939 0.295523 0.220035
0.000000 0.367899 0.219939
0.137438 0.367899 0.219939
0.219939 0.367899 0.219939
0.295523 0.367899 0.219939
0.367938 0.367938 0.220035
0.446106 0.367938 0.220035
0.543776 0.367938 0.219939
0.684231 0.367938 0.220035
0.999939 0.367938 0.220035
0.000000 0.446106 0.220035
0.137438 0.446106 0.220035
0.220035 0.446106 0.220035
0.295523 0.446106 0.220035
0.367938 0.446139 0.220035
0.446106 0.446106 0.220035
0.543812 0.446106 0.220035
0.684231 0.446106 0.220035
0.999939 0.446106 0.219939
0.000000 0.543812 0.220035
0.137438 0.543812 0.220035
0.220035 0.543812 0.220035
0.295523 0.543812 0.220035
0.367938 0.543848 0.220035
0.446106 0.543812 0.220035
0.543812 0.543812 0.220035
0.684231 0.543812 0.220035
0.999939 0.543812 0.219939
0.000000 0.684187 0.220035
0.137438 0.684187 0.220035
0.220035 0.684187 0.220035
0.295523 0.684187 0.220035
0.367938 0.684187 0.220035
0.446106 0.684187 0.220035
0.543812 0.684187 0.220035
0.684187 0.684187 0.220035
0.999939 0.684187 0.219939
0.000000 0.999939 0.220035
0.137438 0.999939 0.220035
0.219939 0.999939 0.219939
0.295467 0.999939 0.219939
0.367978 0.999939 0.220130
0.446106 0.999939 0.220035
0.543812 0.999939 0.219939
0.684231 0.999939 0.220322
0.999939 0.999939 0.219650
0.000000 0.000000 0.295355
0.137438 0.000000 0.295411
0.219843 0.000000 0.295355
0.295467 0.000000 0.295467
0.367978 0.000000 0.295523
0.446072 0.000000 0.295523
0.543776 0.000000 0.295523
0.684231 0.000000 0.295523
0.999788 0.000000 0.295523
0.000000 0.137438 0.295355
0.137438 0.137438 0.295411
0.220035 0.137438 0.295579
0.295411 0.137438 0.295411
0.367938 0.137438 0.295523
0.446072 0.137438 0.295467
0.543740 0.137438 0.295467
0.684187 0.137438 0.295523
0.999939 0.137663 0.295523
0.000000 0.219939 0.295467
0.137438 0.219939 0.295467
0.220035 0.220035 0.295579
0.295579 0.220035 0.295579
0.367938 0.220035 0.295523
0.446072 0.219939 0.295467
0.543740 0.219939 0.295467
0.684187 0.220035 0.295523
0.999939 0.220035 0.295523
0.000000 0.295523 0.295523
0.137438 0.295523 0.295523
0.220035 0.295523 0.295523
0.295523 0.295523 0.295523
0.367899 0.295523 0.295523
0.446139 0.295523 0.295523
0.543848 0.295523 0.295523
0.684142 0.295523 0.295523
0.999939 0.295523 0.295523
0.000000 0.367899 0.295523
0.137438 0.367899 0.295523
0.220035 0.367938 0.295523
0.295523 0.367899 0.295523
0.367938 0.367938 0.295523
0.446106 0.367938 0.295523
0.543776 0.367938 0.295523
0.684187 0.367938 0.295523
0.999939 0.367938 0.295523
0.000000 0.446106 0.295523
0.137438 0.446106 0.295523
0.220035 0.446106 0.295523
0.295523 0.446106 0.295523
0.367938 0.446106 0.295523
0.446106 0.446106 0.295523
0.543812 0.446106 0.295523
0.684231 0.446106 0.295523
0.999939 0.446106 0.295467
0.000000 0.543812 0.295523
0.137438 0.543812 0.295523
0.220035 0.543812 0.295523
0.295523 0.543812 0.295523
0.367938 0.543812 0.295523
0.446106 0.543812 0.295523
0.543812 0.543812 0.295523
0.684231 0.543812 0.295523
0.999939 0.543812 0.295467
0.000000 0.684187 0.295523
0.137438 0.684187 0.295523
0.220035 0.684187 0.295523
0.295523 0.684187 0.295523
0.367938 0.684187 0.295523
0.446106 0.684187 0.295523
0.543812 0.684187 0.295523
0.684187 0.684187 0.295523
0.999939 0.684187 0.295467
0.000000 0.999939 0.295523
0.137438 0.999939 0.295523
0.219939 0.999939 0.295467
0.295467 0.999939 0.295467
0.367978 0.999939 0.295579
0.446106 0.999939 0.295523
0.543812 0.999939 0.295467
0.684231 0.999939 0.295635
0.999939 0.999939 0.295244
0.000000 0.000000 0.367819
0.137438 0.000000 0.367859
0.219939 0.000000 0.367819
0.295467 0.000000 0.367859
0.367978 0.000000 0.367978
0.446072 0.000000 0.367938
0.543776 0.000000 0.367899
0.684231 0.000000 0.367938
0.999788 0.000000 0.367899
0.000000 0.137438 0.367819
0.137438 0.137438 0.367819
0.220035 0.137438 0.368018
0.295467 0.137438 0.367859
0.367938 0.137438 0.367938
0.446072 0.137438 0.367899
0.543740 0.137438 0.367899
0.684231 0.137438 0.367938
0.999939 0.137663 0.367938
0.000000 0.219939 0.367859
0.137438 0.219939 0.367899
0.220035 0.220035 0.367978
0.295467 0.219939 0.367899
0.367938 0.220035 0.367938
0.446072 0.219939 0.367899
0.543776 0.219939 0.367899
0.684187 0.220035 0.367938
0.999939 0.220035 0.367938
0.000000 0.295523 0.367978
0.137438 0.295523 0.367978
0.220035 0.295523 0.367938
0.295523 0.295523 0.367938
0.367938 0.295523 0.367938
0.446139 0.295523 0.367938
0.543848 0.295523 0.367938
0.684187 0.295523 0.367938
0.999939 0.295523 0.367938
0.000000 0.367899 0.367899
0.137438 0.367938 0.367938
0.220035 0.367938 0.367938
0.295523 0.367899 0.367899
0.367938 0.367938 0.367938
0.446106 0.367938 0.367938
0.543776 0.367938 0.367938
0.684231 0.367938 0.367938
0.999939 0.367938 0.367938
0.000000 0.446106 0.367938
0.137438 0.446106 0.367938
0.220035 0.446106 0.367938
0.295523 0.446106 0.367938
0.367938 0.446139 0.367938
0.446106 0.446106 0.367938
0.543812 0.446106 0.367938
0.684231 0.446106 0.367938
0.999939 0.446106 0.367938
0.000000 0.543812 0.367938
0.137438 0.543812 0.367938
0.220035 0.543812 0.367938
0.295523 0.543812 0.367938
0.367938 0.543848 0.367938
0.446106 0.543812 0.367938
0.543812 0.543812 0.367938
0.684231 0.543812 0.367938
0.999939 0.543812 0.367899
0.000000 0.684187 0.367938
0.137438 0.684187 0.367938
0.220035 0.684187 0.367938
0.295523 0.684187 0.367938
0.367938 0.684187 0.367938
0.446106 0.684187 0.367938
0.543812 0.684187 0.367938
0.684187 0.684187 0.367938
0.999939 0.684187 0.367938
0.000000 0.999939 0.367938
0.137438 0.999939 0.367938
0.219939 0.999939 0.367899
0.295467 0.999939 0.367899
0.367978 0.999939 0.367978
0.446106 0.999939 0.367938
0.543812 0.999939 0.367899
0.684231 0.999939 0.368057
0.999939 0.999939 0.367780
0.000000 0.000000 0.445972
0.137438 0.000000 0.446006
0.219939 0.000000 0.445939
0.295467 0.000000 0.446006
0.367938 0.000000 0.446139
0.446072 0.000000 0.446072
0.543776 0.000000 0.446072
0.684231 0.000000 0.446106
0.999788 0.000000 0.446072
0.000000 0.137438 0.445972
0.137438 0.137438 0.445972
0.220035 0.137438 0.446206
0.295579 0.137438 0.446206
0.367938 0.137438 0.446106
0.446072 0.137438 0.446072
0.543740 0.137438 0.446072
0.684187 0.137438 0.446106
0.999939 0.137663 0.446106
0.000000 0.219939 0.446039
0.137438 0.219939 0.446039
0.220035 0.220035 0.446173
0.295523 0.220035 0.446173
0.367938 0.220035 0.446106
0.446072 0.219939 0.446072
0.543776 0.219939 0.446072
0.684187 0.220035 0.446106
0.999939 0.220035 0.446106
0.000000 0.295523 0.446139
0.137438 0.295523 0.446139
0.220035 0.295523 0.446106
0.295523 0.295523 0.446106
0.367899 0.295523 0.446072
0.446139 0.295523 0.446139
0.543848 0.295523 0.446106
0.684142 0.295523 0.446106
0.999939 0.295523 0.446106
0.000000 0.367899 0.446072
0.137438 0.367899 0.446072
0.220035 0.367938 0.446139
0.295523 0.367899 0.446072
0.367938 0.367938 0.446106
0.446106 0.367938 0.446106
0.543776 0.367938 0.446072
0.684187 0.367938 0.446106
0.999939 0.367938 0.446106
0.000000 0.446106 0.446106
0.137438 0.446106 0.446106
0.220035 0.446106 0.446106
0.295523 0.446106 0.446106
0.367938 0.446106 0.446106
0.446106 0.446106 0.446106
0.543812 0.446106 0.446106
0.684187 0.446106 0.446106
0.999939 0.446106 0.446106
0.000000 0.543812 0.446106
0.137438 0.543812 0.446106
0.220035 0.543812 0.446106
0.295523 0.543812 0.446106
0.367938 0.543812 0.446106
0.446106 0.543812 0.446106
0.543812 0.543812 0.446106
0.684187 0.543812 0.446106
0.999939 0.543812 0.446072
0.000000 0.684187 0.446106
0.137438 0.684187 0.446106
0.220035 0.684187 0.446106
0.295523 0.684187 0.446106
0.367938 0.684187 0.446106
0.446106 0.684187 0.446106
0.543812 0.684187 0.446106
0.684187 0.684187 0.446072
0.999939 0.684187 0.446106
0.000000 0.999939 0.446106
0.137438 0.999939 0.446106
0.219843 0.999939 0.446072
0.295467 0.999939 0.446072
0.367978 0.999939 0.446139
0.446106 0.999939 0.446106
0.543776 0.999939 0.446072
0.684231 0.999939 0.446173
0.999939 0.999939 0.445939
0.000000 0.000000 0.543776
0.137438 0.000000 0.543776
0.219939 0.000000 0.543704
0.295467 0.000000 0.543740
0.367978 0.000000 0.543884
0.446106 0.000000 0.543812
0.543776 0.000000 0.543776
0.684231 0.000000 0.543848
0.999863 0.000000 0.543776
0.000000 0.137438 0.543704
0.137438 0.137438 0.543740
0.219939 0.137438 0.543668
0.295467 0.137438 0.543704
0.367938 0.137438 0.543848
0.446072 0.137438 0.543776
0.543776 0.137438 0.543776
0.684231 0.137438 0.543812
0.999939 0.137211 0.543812
0.000000 0.219939 0.543740
0.137438 0.219939 0.543740
0.219939 0.219939 0.543704
0.295467 0.219939 0.543740
0.367938 0.220035 0.543848
0.446106 0.219939 0.543776
0.543776 0.219939 0.543776
0.684231 0.220035 0.543812
0.999939 0.220035 0.543812
0.000000 0.295523 0.543884
0.137438 0.295523 0.543884
0.220035 0.295523 0.543848
0.295523 0.295523 0.543848
0.367938 0.295523 0.543812
0.446139 0.295523 0.543848
0.543848 0.295523 0.543848
0.684187 0.295523 0.543812
0.999939 0.295523 0.543812
0.000000 0.367938 0.543776
0.137438 0.367938 0.543776
0.219939 0.367899 0.543776
0.295523 0.367938 0.543776
0.367938 0.367938 0.543848
0.446106 0.367938 0.543812
0.543812 0.367938 0.543812
0.684231 0.367938 0.543812
0.999939 0.367899 0.543812
0.000000 0.446106 0.543812
0.137438 0.446106 0.543812
0.220035 0.446106 0.543812
0.295523 0.446106 0.543812
0.367938 0.446106 0.543776
0.446106 0.446106 0.543812
0.543812 0.446106 0.543812
0.684187 0.446072 0.543812
0.999939 0.446106 0.543812
0.000000 0.543812 0.543812
0.137438 0.543812 0.543812
0.220035 0.543812 0.543812
0.295523 0.543812 0.543812
0.367938 0.543776 0.543776
0.446106 0.543812 0.543812
0.543812 0.543812 0.543812
0.684187 0.543776 0.543776
0.999939 0.543812 0.543812
0.000000 0.684231 0.543812
0.137438 0.684231 0.543812
0.220035 0.684187 0.543812
0.295523 0.684187 0.543812
0.367938 0.684187 0.543812
0.446139 0.684187 0.543812
0.543812 0.684187 0.543812
0.684187 0.684187 0.543776
0.999939 0.684187 0.543812
0.000000 0.999939 0.543812
0.137438 0.999939 0.543812
0.219939 0.999939 0.543812
0.295523 0.999939 0.543812
0.367859 0.999939 0.543776
0.446106 0.999939 0.543812
0.543812 0.999939 0.543812
0.684275 0.999939 0.543919
0.999939 0.999939 0.543740
0.000000 0.000000 0.684187
0.137438 0.000000 0.684187
0.219939 0.000000 0.684098
0.295523 0.000000 0.684142
0.367978 0.000000 0.684363
0.446106 0.000000 0.684231
0.543812 0.000000 0.684187
0.684275 0.000000 0.684275
0.999863 0.000000 0.684187
0.000000 0.137438 0.684142
0.137438 0.137438 0.684142
0.219939 0.137438 0.684054
0.295467 0.137438 0.684098
0.367938 0.137438 0.684275
0.446106 0.137438 0.684187
0.543776 0.137438 0.684142
0.684231 0.137438 0.684231
0.999939 0.137438 0.684187
0.000000 0.219939 0.684142
0.137438 0.219939 0.684142
0.219939 0.219939 0.684098
0.295523 0.219939 0.684098
0.367938 0.220035 0.684275
0.446106 0.220035 0.684187
0.543776 0.219939 0.684142
0.684231 0.220035 0.684231
0.999939 0.219939 0.684187
0.000000 0.295467 0.684098
0.137438 0.295467 0.684098
0.220035 0.295523 0.684275
0.295523 0.295523 0.684275
0.367938 0.295523 0.684187
0.446072 0.295523 0.684142
0.543848 0.295523 0.684275
0.684187 0.295523 0.684187
0.999939 0.295523 0.684187
0.000000 0.367938 0.684187
0.137438 0.367938 0.684187
0.219939 0.367938 0.684142
0.295523 0.367938 0.684187
0.367938 0.367938 0.684231
0.446106 0.367938 0.684187
0.543812 0.367938 0.684187
0.684231 0.367938 0.684231
0.999939 0.367899 0.684187
0.000000 0.446106 0.684231
0.137438 0.446106 0.684231
0.220035 0.446106 0.684187
0.295523 0.446106 0.684187
0.367938 0.446106 0.684187
0.446106 0.446106 0.684187
0.543812 0.446106 0.684187
0.684187 0.446106 0.684187
0.999939 0.446106 0.684187
0.000000 0.543812 0.684231
0.137438 0.543812 0.684231
0.220035 0.543812 0.684187
0.295523 0.543812 0.684187
0.367938 0.543812 0.684187
0.446106 0.543812 0.684187
0.543812 0.543812 0.684187
0.684187 0.543812 0.684187
0.999939 0.543812 0.684187
0.000000 0.684231 0.684231
0.137438 0.684231 0.684231
0.220035 0.684187 0.684187
0.295523 0.684231 0.684231
0.367938 0.684187 0.684187
0.446139 0.684231 0.684231
0.543812 0.684187 0.684187
0.684187 0.684187 0.684187
0.999939 0.684187 0.684187
0.001327 0.999939 0.684187
0.137663 0.999939 0.684187
0.219939 0.999939 0.684187
0.295523 0.999939 0.684187
0.367859 0.999939 0.684187
0.446139 0.999939 0.684231
0.543812 0.999939 0.684187
0.684142 0.999939 0.684142
0.999939 0.999939 0.684142
0.000000 0.000000 0.999939
0.137438 0.000000 0.999939
0.219939 0.000000 0.999788
0.295523 0.000000 0.999939
0.367899 0.000000 0.999637
0.446106 0.000000 0.999939
0.543812 0.000000 0.999939
0.684142 0.000000 0.999788
0.999863 0.000000 0.999863
0.000000 0.137438 0.999863
0.137438 0.137438 0.999939
0.219939 0.137438 0.999939
0.295523 0.137438 0.999939
0.367938 0.137663 0.999939
0.446106 0.137438 0.999939
0.543812 0.137438 0.999939
0.684187 0.137663 0.999939
0.999939 0.137438 0.999939
0.000000 0.220035 0.999863
0.137438 0.219939 0.999939
0.219939 0.219939 0.999939
0.295523 0.219939 0.999939
0.367938 0.220035 0.999939
0.446106 0.220035 0.999939
0.543812 0.219939 0.999939
0.684187 0.220035 0.999939
0.999939 0.219939 0.999939
0.000000 0.295523 0.999788
0.137438 0.295467 0.999939
0.220035 0.295523 0.999939
0.295467 0.295467 0.999939
0.367938 0.295523 0.999939
0.446106 0.295467 0.999939
0.543812 0.295467 0.999939
0.684187 0.295523 0.999939
0.999939 0.295523 0.999939
0.000000 0.367938 0.999939
0.137438 0.367938 0.999939
0.219939 0.367938 0.999939
0.295523 0.367938 0.999939
0.367938 0.367938 0.999939
0.446106 0.367938 0.999939
0.543812 0.367938 0.999939
0.684187 0.367938 0.999939
0.999939 0.367899 0.999939
0.000000 0.446106 0.999939
0.137663 0.446106 0.999939
0.220035 0.446106 0.999939
0.295523 0.446106 0.999939
0.367938 0.446106 0.999939
0.446106 0.446106 0.999939
0.543812 0.446106 0.999939
0.684187 0.446106 0.999939
0.999939 0.446106 0.999939
0.000000 0.543812 0.999939
0.137663 0.543812 0.999939
0.220035 0.543812 0.999939
0.295523 0.543812 0.999939
0.367899 0.543812 0.999939
0.446106 0.543812 0.999939
0.543812 0.543812 0.999939
0.684187 0.543812 0.999939
0.999939 0.543812 0.999939
0.001327 0.684231 0.999939
0.137663 0.684231 0.999939
0.220035 0.684187 0.999939
0.295579 0.684187 0.999939
0.367938 0.684187 0.999939
0.446139 0.684231 0.999939
0.543848 0.684231 0.999939
0.684187 0.684187 0.999939
0.999939 0.684187 0.999939
0.001327 0.999939 0.999939
0.137663 0.999939 0.999939
0.220035 0.999939 0.999939
0.295523 0.999939 0.999939
0.367859 0.999939 0.999939
0.446139 0.999939 0.999939
0.543848 0.999939 0.999939
0.684142 0.999939 0.999939
0.999939 0.999939 0.999939
