1. pre-requisites/Adobe Standard tone curve > Linear.cube
TITLE "Generated by 3D LUT Creator Pro (c) Oleg Sharonov"
LUT_3D_SIZE 5
#INPUTGAMMA sRGB IEC61966-2.1 v.2.10
#IMAGEPROFILE sRGB IEC61966-2.1 v.2.10
#OUTPUTGAMMA sRGB IEC61966-2.1 v.2.10
0.000000 0.000000 0.000000
0.219939 0.000000 0.000000
0.368018 0.000000 0.000000
0.543812 0.000000 0.000000
0.999863 0.000000 0.000000
0.000000 0.219939 0.000000
0.219939 0.219939 0.000000
0.367978 0.220035 0.000000
0.543776 0.219939 0.000000
0.999788 0.219939 0.000000
0.000000 0.367938 0.000000
0.219939 0.367899 0.000000
0.367938 0.367938 0.000000
0.543812 0.367938 0.000000
0.999863 0.367938 0.000000
0.000000 0.543812 0.000000
0.220035 0.543812 0.000000
0.367938 0.543812 0.000000
0.543812 0.543812 0.000000
0.999939 0.543812 0.000000
0.001327 0.999939 0.001327
0.220035 0.999939 0.000000
0.367938 0.999863 0.000000
0.543812 0.999939 0.001327
0.999939 0.999939 0.000000
0.000000 0.000000 0.219747
0.219843 0.000000 0.219843
0.367978 0.000000 0.220035
0.543776 0.000000 0.219939
0.999788 0.000000 0.219939
0.000000 0.219939 0.219939
0.220035 0.220035 0.220035
0.367938 0.220035 0.220035
0.543776 0.219939 0.219939
0.999939 0.220035 0.220035
0.000000 0.367899 0.219939
0.219939 0.367899 0.219939
0.367938 0.367938 0.220035
0.543776 0.367938 0.219939
0.999939 0.367938 0.220035
0.000000 0.543812 0.220035
0.220035 0.543812 0.220035
0.367938 0.543848 0.220035
0.543812 0.543812 0.220035
0.999939 0.543812 0.219939
0.000000 0.999939 0.220035
0.219939 0.999939 0.219939
0.367978 0.999939 0.220130
0.543812 0.999939 0.219939
0.999939 0.999939 0.219650
0.000000 0.000000 0.367819
0.219939 0.000000 0.367819
0.367978 0.000000 0.367978
0.543776 0.000000 0.367899
0.999788 0.000000 0.367899
0.000000 0.219939 0.367859
0.220035 0.220035 0.367978
0.367938 0.220035 0.367938
0.543776 0.219939 0.367899
0.999939 0.220035 0.367938
0.000000 0.367899 0.367899
0.220035 0.367938 0.367938
0.367938 0.367938 0.367938
0.543776 0.367938 0.367938
0.999939 0.367938 0.367938
0.000000 0.543812 0.367938
0.220035 0.543812 0.367938
0.367938 0.543848 0.367938
0.543812 0.543812 0.367938
0.999939 0.543812 0.367899
0.000000 0.999939 0.367938
0.219939 0.999939 0.367899
0.367978 0.999939 0.367978
0.543812 0.999939 0.367899
0.999939 0.999939 0.367780
0.000000 0.000000 0.543776
0.219939 0.000000 0.543704
0.367978 0.000000 0.543884
0.543776 0.000000 0.543776
0.999863 0.000000 0.543776
0.000000 0.219939 0.543740
0.219939 0.219939 0.543704
0.367938 0.220035 0.543848
0.543776 0.219939 0.543776
0.999939 0.220035 0.543812
0.000000 0.367938 0.543776
0.219939 0.367899 0.543776
0.367938 0.367938 0.543848
0.543812 0.367938 0.543812
0.999939 0.367899 0.543812
0.000000 0.543812 0.543812
0.220035 0.543812 0.543812
0.367938 0.543776 0.543776
0.543812 0.543812 0.543812
0.999939 0.543812 0.543812
0.000000 0.999939 0.543812
0.219939 0.999939 0.543812
0.367859 0.999939 0.543776
0.543812 0.999939 0.543812
0.999939 0.999939 0.543740
0.000000 0.000000 0.999939
0.219939 0.000000 0.999788
0.367899 0.000000 0.999637
0.543812 0.000000 0.999939
0.999863 0.000000 0.999863
0.000000 0.220035 0.999863
0.219939 0.219939 0.999939
0.367938 0.220035 0.999939
0.543812 0.219939 0.999939
0.999939 0.219939 0.999939
0.000000 0.367938 0.999939
0.219939 0.367938 0.999939
0.367938 0.367938 0.999939
0.543812 0.367938 0.999939
0.999939 0.367899 0.999939
0.000000 0.543812 0.999939
0.220035 0.543812 0.999939
0.367899 0.543812 0.999939
0.543812 0.543812 0.999939
0.999939 0.543812 0.999939
0.001327 0.999939 0.999939
0.220035 0.999939 0.999939
0.367859 0.999939 0.999939
0.543848 0.999939 0.999939
0.999939 0.999939 0.999939
