2. reversing the negative/print paper LUTs/color/Beyond Print/Fuji Matt DPII_color only.cube
LUT_3D_SIZE 33
0.0000125243 0.0000000000 0.0000262935
0.0335024201 0.0056792689 0.0064405924
0.0608768832 0.0101390386 0.0123403204
0.0882955279 0.0130650123 0.0159133404
0.1157224838 0.0150758357 0.0184387902
0.1432160122 0.0156923310 0.0192350110
0.1726141444 0.0153093053 0.0191603510
0.2013613718 0.0139501845 0.0184831289
0.2250214531 0.0135666156 0.0183889213
0.2461175405 0.0130991710 0.0183109841
0.2709949705 0.0122386911 0.0177302601
0.3030556156 0.0096977328 0.0164622044
0.3330952520 0.0060582685 0.0151642031
0.3580317756 0.0019597149 0.0141912798
0.3795587943 0.0000000000 0.0132921718
0.4013990614 0.0000000000 0.0120991897
0.4268220942 0.0000000000 0.0103795190
0.4567389369 0.0000000000 0.0083381932
0.4860378535 0.0000000000 0.0062337341
0.5133920420 0.0000000000 0.0049954005
0.5353950741 0.0000000000 0.0040976332
0.5549328577 0.0000000000 0.0036616003
0.5757675874 0.0000000000 0.0032168917
0.5957484208 0.0000000000 0.0027256710
0.6148745525 0.0000000000 0.0021659008
0.6332642284 0.0000000000 0.0014577565
0.6512268115 0.0000000000 0.0005839734
0.6680840495 0.0000000000 0.0000806313
0.6837772191 0.0000000000 0.0000012933
0.6979896457 0.0000000000 0.0000000000
0.7102936517 0.0000000000 0.0000000000
0.7222954373 0.0000000000 0.0000000000
0.7346857844 0.0000000000 0.0000000000
0.0000000000 0.0225600775 0.0075542856
0.0342947016 0.0279205981 0.0070426836
0.0639290557 0.0338456680 0.0138198280
0.0937576738 0.0379710994 0.0175904051
0.1223263170 0.0419517761 0.0205359515
0.1508986032 0.0443413135 0.0214416760
0.1816105519 0.0454400239 0.0213641990
0.2114952205 0.0456378382 0.0204566755
0.2361676856 0.0460477403 0.0197910425
0.2575639179 0.0464630755 0.0193755556
0.2831194015 0.0463256148 0.0185625883
0.3166215850 0.0452767341 0.0175356082
0.3471194712 0.0439674034 0.0162014120
0.3727006961 0.0419707249 0.0153962919
0.3944497584 0.0391263760 0.0143015552
0.4168171376 0.0356590105 0.0132851668
0.4429447856 0.0305795421 0.0112115614
0.4737415601 0.0236690919 0.0092552634
0.5029570947 0.0163213314 0.0068944230
0.5307353604 0.0097169159 0.0060992532
0.5534698722 0.0060827004 0.0050258616
0.5736322818 0.0052150703 0.0047471643
0.5954691576 0.0045825169 0.0043027822
0.6164980185 0.0036765433 0.0037501033
0.6363460869 0.0027104105 0.0029383068
0.6556022013 0.0013725091 0.0018707816
0.6739267585 0.0000000000 0.0007221440
0.6912734600 0.0000000000 0.0000715192
0.7072815666 0.0000000000 0.0000007859
0.7215768541 0.0000000000 0.0000000000
0.7353086981 0.0000000000 0.0000000000
0.7478858856 0.0000000000 0.0000000000
0.7597314065 0.0000000000 0.0000000000
0.0000000000 0.0413158561 0.0149272344
0.0338339092 0.0486031532 0.0138003071
0.0667166660 0.0551502478 0.0158321891
0.0977373515 0.0605137760 0.0197853101
0.1277684161 0.0648196375 0.0223955026
0.1568099891 0.0682827965 0.0231173932
0.1882185991 0.0705844047 0.0227118145
0.2192914785 0.0717218010 0.0216355400
0.2447751862 0.0727603571 0.0207214376
0.2667868691 0.0737114355 0.0200895915
0.2932302730 0.0741517339 0.0191414937
0.3272305172 0.0741295668 0.0178896490
0.3584891261 0.0732416419 0.0165597460
0.3843616924 0.0725361675 0.0155367643
0.4065779631 0.0712319707 0.0144105896
0.4291814205 0.0690974333 0.0131378190
0.4559158235 0.0657946444 0.0109648179
0.4871853525 0.0611223073 0.0090923452
0.5168733230 0.0565396613 0.0069351323
0.5452869308 0.0530382800 0.0062763805
0.5684624512 0.0498896057 0.0054213376
0.5891404025 0.0467976922 0.0051910064
0.6114253939 0.0427213747 0.0046282905
0.6330898660 0.0371310703 0.0037686031
0.6533774168 0.0305257545 0.0025130836
0.6727855752 0.0221559271 0.0011930003
0.6914916445 0.0127135905 0.0003207976
0.7087824297 0.0063930609 0.0000000000
0.7248786503 0.0042258385 0.0000000000
0.7396403804 0.0020616435 0.0000000000
0.7531107053 0.0000000000 0.0000000000
0.7673077833 0.0000000000 0.0000000000
0.7804957116 0.0000000000 0.0000000000
0.0000000000 0.0611832235 0.0212465903
0.0316148042 0.0694497516 0.0197095433
0.0670292818 0.0766441554 0.0195868635
0.1004758706 0.0822751903 0.0213941529
0.1315930446 0.0870409640 0.0236458117
0.1617422004 0.0909515844 0.0238808219
0.1938686517 0.0940773814 0.0232197588
0.2258383800 0.0961204140 0.0220335771
0.2522751329 0.0977929750 0.0211837334
0.2749925473 0.0990868745 0.0203834241
0.3021931469 0.1001460956 0.0192916612
0.3369686988 0.1006651245 0.0178416825
0.3688470362 0.1004478235 0.0162929044
0.3950142225 0.1003293293 0.0150298260
0.4174369226 0.0999202111 0.0137054685
0.4401486957 0.0986529697 0.0122865973
0.4676024646 0.0967171128 0.0104038310
0.4990498915 0.0937598202 0.0085678285
0.5295494057 0.0907221932 0.0067961842
0.5587144926 0.0891115930 0.0061493798
0.5820900786 0.0873136974 0.0054598530
0.6030424692 0.0852294960 0.0050772922
0.6256130850 0.0821057767 0.0041575389
0.6473026083 0.0778250793 0.0027804657
0.6677401061 0.0725897692 0.0012797312
0.6873203686 0.0662256905 0.0003219486
0.7061086946 0.0587507897 0.0000000000
0.7238462425 0.0503024064 0.0000000000
0.7400060889 0.0411349453 0.0000000000
0.7550508638 0.0318558485 0.0000000000
0.7692947693 0.0225247552 0.0000000000
0.7834478844 0.0132107268 0.0000000000
0.7982794572 0.0114209518 0.0000000000
0.0000000000 0.0831576358 0.0268338309
0.0256835863 0.0917495091 0.0241462745
0.0638099129 0.0992550350 0.0231477409
0.1003888658 0.1049491348 0.0230904480
0.1336698809 0.1100107988 0.0240086722
0.1655560873 0.1143290830 0.0238167075
0.1987630850 0.1180780273 0.0228924040
0.2319559445 0.1208393811 0.0217216777
0.2589382639 0.1229827564 0.0208249999
0.2822537375 0.1246569003 0.0199202788
0.3106435971 0.1261040465 0.0188048766
0.3463875942 0.1273345225 0.0170963320
0.3790745445 0.1278019327 0.0150167555
0.4053934265 0.1281320821 0.0135488814
0.4279480375 0.1281988445 0.0120318109
0.4512162514 0.1278133280 0.0109420259
0.4788781198 0.1269138052 0.0091196536
0.5105854278 0.1255100609 0.0079375052
0.5416009249 0.1238656942 0.0061529914
0.5713546670 0.1232133836 0.0056536292
0.5947828747 0.1221637633 0.0046571054
0.6158348122 0.1205596494 0.0039132571
0.6384329996 0.1178195000 0.0024922984
0.6601888912 0.1141373116 0.0012836678
0.6807340512 0.1098377555 0.0003972296
0.7005672808 0.1048631446 0.0000000000
0.7199039556 0.0993096268 0.0000000000
0.7376947130 0.0930276140 0.0000000000
0.7543851915 0.0862452158 0.0000000000
0.7696568007 0.0796025795 0.0000000000
0.7843306615 0.0733259021 0.0000000000
0.7994382552 0.0667163970 0.0000000000
0.8147072890 0.0590878844 0.0000000000
0.0000000000 0.1047674080 0.0301227091
0.0179817037 0.1146119793 0.0272536131
0.0599972648 0.1221259676 0.0248125892
0.0987385337 0.1284508761 0.0240012604
0.1345910159 0.1335215672 0.0237492665
0.1679327301 0.1381323265 0.0230233891
0.2027617146 0.1421001213 0.0221435621
0.2367451654 0.1454030180 0.0207851317
0.2645247070 0.1483135452 0.0199280976
0.2885797103 0.1504230296 0.0189113262
0.3179435087 0.1524449521 0.0174384110
0.3548362007 0.1541292174 0.0150057481
0.3883205029 0.1551619728 0.0125539930
0.4151707627 0.1561146194 0.0110585137
0.4381576744 0.1567456651 0.0097932932
0.4620206888 0.1570509337 0.0088840339
0.4899614420 0.1570798594 0.0074280289
0.5218815589 0.1567402442 0.0062534169
0.5532739221 0.1560328893 0.0046522922
0.5830393103 0.1558995190 0.0037060035
0.6064264459 0.1550518022 0.0021480997
0.6273747932 0.1538007779 0.0013908909
0.6499429365 0.1515742499 0.0007401825
0.6719514952 0.1485130331 0.0001848005
0.6928106752 0.1450154476 0.0000000000
0.7128564230 0.1411362385 0.0000000000
0.7324780031 0.1368579452 0.0000000000
0.7506780697 0.1318084955 0.0000000000
0.7674949189 0.1266400314 0.0000000000
0.7833991611 0.1215481949 0.0000000000
0.7985097906 0.1169815274 0.0000000000
0.8140783715 0.1124262814 0.0000000000
0.8304168750 0.1075985510 0.0000000000
0.0000000000 0.1237649920 0.0302140586
0.0091859335 0.1347919195 0.0268691806
0.0554611860 0.1433333460 0.0238998891
0.0971450862 0.1503320704 0.0224123781
0.1346054352 0.1561212199 0.0216682623
0.1694435841 0.1607312978 0.0211181099
0.2051114314 0.1649690844 0.0202202529
0.2402148383 0.1681809524 0.0193009196
0.2684967254 0.1717800069 0.0183527782
0.2933514661 0.1744871597 0.0170742093
0.3233978738 0.1770606459 0.0148320309
0.3614838928 0.1794084260 0.0117510777
0.3961663442 0.1810178099 0.0089958124
0.4236393659 0.1826179991 0.0079040394
0.4473732280 0.1838207700 0.0068769627
0.4716745138 0.1847344504 0.0062351728
0.4998494867 0.1853723066 0.0049635171
0.5316790816 0.1856433315 0.0036783400
0.5630446635 0.1853181214 0.0017622600
0.5925695061 0.1852539585 0.0008689383
0.6160023136 0.1846174385 0.0003909581
0.6371183275 0.1837464544 0.0001018299
0.6599528667 0.1822799414 0.0000000000
0.6821798658 0.1800561217 0.0000000000
0.7034882680 0.1773262545 0.0000000000
0.7238472392 0.1742458366 0.0000000000
0.7435711801 0.1709287642 0.0000000000
0.7620636958 0.1669305028 0.0000000000
0.7791889742 0.1625312191 0.0000000000
0.7954098765 0.1586365686 0.0000000000
0.8109578983 0.1551024803 0.0000000000
0.8270781255 0.1516227237 0.0000000000
0.8441969756 0.1481692505 0.0000000000
0.0000000000 0.1425698675 0.0297432268
0.0053433292 0.1542380304 0.0262569989
0.0495370165 0.1637065404 0.0229327079
0.0947515521 0.1714893744 0.0210819263
0.1338719952 0.1777042883 0.0198733104
0.1695621477 0.1827538739 0.0190098747
0.2062902265 0.1872798170 0.0183783840
0.2419810066 0.1909003550 0.0172193852
0.2713241983 0.1943937526 0.0160090868
0.2967351241 0.1976603640 0.0143493442
0.3275850972 0.2008707972 0.0118402109
0.3668624044 0.2041086975 0.0086019339
0.4026655224 0.2064555099 0.0056848510
0.4313499379 0.2085880455 0.0045322708
0.4556930819 0.2103193773 0.0035668315
0.4803769947 0.2117811849 0.0028584755
0.5085862120 0.2127653625 0.0014676926
0.5405039135 0.2134669079 0.0004719787
0.5713351287 0.2130973612 0.0001385745
0.6007691411 0.2131291387 0.0000000000
0.6244330788 0.2127766606 0.0000000000
0.6457150264 0.2122299547 0.0000000000
0.6687862701 0.2112035878 0.0000000000
0.6912305266 0.2096900659 0.0000000000
0.7128571598 0.2076707253 0.0000000000
0.7335896113 0.2051151207 0.0000000000
0.7538048902 0.2024595638 0.0000000000
0.7726477254 0.1993651517 0.0000000000
0.7902248773 0.1959022596 0.0000000000
0.8068823273 0.1926734891 0.0000000000
0.8228845452 0.1898639459 0.0000000000
0.8395828018 0.1872302291 0.0000000000
0.8571192863 0.1845513174 0.0000000000
0.0000000000 0.1633426273 0.0285024359
0.0041332256 0.1756576280 0.0248788533
0.0408946344 0.1857108234 0.0216678079
0.0903277030 0.1940753275 0.0193888916
0.1318472793 0.2010707486 0.0176746916
0.1688933608 0.2067208545 0.0165266781
0.2062277794 0.2117185660 0.0152370013
0.2426224843 0.2158082256 0.0138149010
0.2727602657 0.2197964613 0.0121133869
0.2994309406 0.2231345587 0.0103022347
0.3311147856 0.2270004878 0.0076532362
0.3714776640 0.2312678394 0.0043453777
0.4084287438 0.2344845211 0.0014503588
0.4379895937 0.2369795865 0.0003622906
0.4634892390 0.2388279020 0.0002554716
0.4881989527 0.2405177283 0.0002035924
0.5163618707 0.2417045331 0.0000825363
0.5481919162 0.2424483575 0.0000000000
0.5791915059 0.2427209070 0.0000000000
0.6088926500 0.2430922882 0.0000000000
0.6328987352 0.2431146289 0.0000000000
0.6544908567 0.2429442990 0.0000000000
0.6780140172 0.2424741858 0.0000000000
0.7008732718 0.2415541253 0.0000000000
0.7227977700 0.2403394134 0.0000000000
0.7439511155 0.2386116578 0.0000000000
0.7647920296 0.2365796061 0.0000000000
0.7843834471 0.2342139485 0.0000000000
0.8025012581 0.2316214864 0.0000000000
0.8195795901 0.2291781827 0.0000000000
0.8359704804 0.2269048911 0.0000000000
0.8529547804 0.2245787139 0.0000000000
0.8701400029 0.2220376552 0.0000000000
0.0000000000 0.1839087257 0.0276374991
0.0026944505 0.1968943538 0.0240472850
0.0316405874 0.2074497009 0.0205407847
0.0859300591 0.2165276322 0.0176730194
0.1295425056 0.2241135108 0.0153882109
0.1677653700 0.2302181383 0.0135342014
0.2060508580 0.2359127615 0.0118531987
0.2429491980 0.2407231811 0.0100069297
0.2742887241 0.2448260730 0.0081067258
0.3017356229 0.2485819343 0.0060965424
0.3347970824 0.2527250997 0.0034430957
0.3761089476 0.2576887224 0.0004947762
0.4136849621 0.2614083563 0.0001627701
0.4438641871 0.2643090591 0.0000017367
0.4695947323 0.2661764045 0.0000000000
0.4946438757 0.2679771609 0.0000000000
0.5228777686 0.2694103457 0.0000000000
0.5554934595 0.2708844434 0.0000000000
0.5868434359 0.2715282893 0.0000000000
0.6168522360 0.2723389618 0.0000000000
0.6413049633 0.2728572426 0.0000000000
0.6629524780 0.2729927792 0.0000000000
0.6869530249 0.2729808288 0.0000000000
0.7102526025 0.2725268056 0.0000000000
0.7326742322 0.2719321107 0.0000000000
0.7543398847 0.2709151232 0.0000000000
0.7757246028 0.2696134425 0.0000000000
0.7957350198 0.2678129550 0.0000000000
0.8142045347 0.2656745085 0.0000000000
0.8316771203 0.2635337043 0.0000000000
0.8483692567 0.2613532036 0.0000000000
0.8652033493 0.2590268226 0.0000000000
0.8819964387 0.2568226215 0.0000000000
0.0000000000 0.2020829048 0.0265844757
0.0012218612 0.2157803916 0.0227825176
0.0207052316 0.2268282020 0.0192300307
0.0806922749 0.2361994245 0.0157228528
0.1265136590 0.2441415474 0.0125308506
0.1661309627 0.2508264888 0.0101578828
0.2055518393 0.2570860904 0.0080162373
0.2432383570 0.2626308385 0.0061883614
0.2750369727 0.2674064176 0.0040639362
0.3036309727 0.2712513278 0.0019031516
0.3372203925 0.2756933032 0.0001614003
0.3795236747 0.2806149105 0.0000000000
0.4173476252 0.2844658225 0.0000000000
0.4475624668 0.2874517315 0.0000000000
0.4734933654 0.2894494624 0.0000000000
0.4988335472 0.2914918906 0.0000000000
0.5278994696 0.2933468380 0.0000000000
0.5611516449 0.2951859724 0.0000000000
0.5931998859 0.2966414168 0.0000000000
0.6238876024 0.2979221348 0.0000000000
0.6486478781 0.2988285358 0.0000000000
0.6708297077 0.2994404630 0.0000000000
0.6950703525 0.2998064696 0.0000000000
0.7190111904 0.2999160317 0.0000000000
0.7417213823 0.2997258673 0.0000000000
0.7637107742 0.2990482742 0.0000000000
0.7853344631 0.2980845055 0.0000000000
0.8055643396 0.2966802909 0.0000000000
0.8243458607 0.2948925691 0.0000000000
0.8420607157 0.2929347416 0.0000000000
0.8587105218 0.2907883100 0.0000000000
0.8752166351 0.2885534738 0.0000000000
0.8919286798 0.2861648911 0.0000000000
0.0000000000 0.2169055306 0.0252023951
0.0000001820 0.2314862398 0.0214666199
0.0112698915 0.2431062230 0.0177253611
0.0759107073 0.2524968600 0.0132343329
0.1239536996 0.2607611071 0.0092533152
0.1646267569 0.2680540530 0.0068552421
0.2052699514 0.2749312945 0.0048138598
0.2441503363 0.2810108706 0.0030431507
0.2764139424 0.2862667574 0.0009787592
0.3051529851 0.2903890888 0.0001024834
0.3395212148 0.2946289021 0.0000000000
0.3820929055 0.2993317494 0.0000000000
0.4200824719 0.3027635462 0.0000000000
0.4502324401 0.3061735599 0.0000000000
0.4763099305 0.3086602538 0.0000000000
0.5019835149 0.3111154425 0.0000000000
0.5316353013 0.3133285333 0.0000000000
0.5661644310 0.3154696750 0.0000000000
0.5988968020 0.3174150068 0.0000000000
0.6298343429 0.3191955697 0.0000000000
0.6552176755 0.3205364409 0.0000000000
0.6776173113 0.3214707457 0.0000000000
0.7023903991 0.3222825657 0.0000000000
0.7264189834 0.3225192673 0.0000000000
0.7493031491 0.3224495965 0.0000000000
0.7714634979 0.3219463492 0.0000000000
0.7932352076 0.3211435992 0.0000000000
0.8135506218 0.3198931197 0.0000000000
0.8324068200 0.3182403589 0.0000000000
0.8501881867 0.3163862996 0.0000000000
0.8667736347 0.3142083023 0.0000000000
0.8830109478 0.3117618179 0.0000000000
0.8998913237 0.3093686962 0.0000000000
0.0000000000 0.2338406722 0.0229539587
0.0000000000 0.2487401474 0.0195945471
0.0078483837 0.2608228586 0.0154331414
0.0678025217 0.2709740908 0.0109654172
0.1192259805 0.2795612226 0.0061354845
0.1621537479 0.2874042154 0.0033413744
0.2041640616 0.2949902850 0.0015867016
0.2443000913 0.3015983716 0.0002122186
0.2775239259 0.3070424784 0.0000008211
0.3066025658 0.3113862573 0.0000000000
0.3410458173 0.3157763219 0.0000000000
0.3838880272 0.3203046255 0.0000000000
0.4220275677 0.3236252362 0.0000000000
0.4527701137 0.3270280025 0.0000000000
0.4789118050 0.3300267391 0.0000000000
0.5048606782 0.3327153671 0.0000000000
0.5350803560 0.3355585948 0.0000000000
0.5702440325 0.3381958417 0.0000000000
0.6043864248 0.3406421448 0.0000000000
0.6363024677 0.3430478001 0.0000000000
0.6622887783 0.3449429560 0.0000000000
0.6853947660 0.3462581709 0.0000000000
0.7103942683 0.3472966115 0.0000000000
0.7345504371 0.3477413285 0.0000000000
0.7575457796 0.3477311245 0.0000000000
0.7797982067 0.3472783010 0.0000000000
0.8016203344 0.3465147942 0.0000000000
0.8219719273 0.3453230547 0.0000000000
0.8409251547 0.3438545226 0.0000000000
0.8586446250 0.3422563211 0.0000000000
0.8751473864 0.3404119894 0.0000000000
0.8916965500 0.3381243403 0.0000000000
0.9091260474 0.3357930895 0.0000000000
0.0000000000 0.2530850858 0.0195520733
0.0000000000 0.2682030194 0.0163549662
0.0040099752 0.2806493107 0.0122878212
0.0541687043 0.2915054950 0.0077291341
0.1115083120 0.3009402186 0.0036210289
0.1576650590 0.3091910930 0.0010325351
0.2020480222 0.3173957122 0.0000048784
0.2432920637 0.3244256033 0.0000000000
0.2775844372 0.3300152271 0.0000000000
0.3071002707 0.3342905396 0.0000000000
0.3419340728 0.3387562786 0.0000000000
0.3848775852 0.3435769755 0.0000000000
0.4237596689 0.3474654901 0.0000000000
0.4550035472 0.3510112275 0.0000000000
0.4816833333 0.3540842674 0.0000000000
0.5079971232 0.3571385275 0.0000000000
0.5388415237 0.3605224666 0.0000000000
0.5746184980 0.3639146005 0.0000000000
0.6098321733 0.3670744829 0.0000000000
0.6431192474 0.3700362862 0.0000000000
0.6697780044 0.3723160340 0.0000000000
0.6933518099 0.3737971740 0.0000000000
0.7187710432 0.3749646902 0.0000000000
0.7430435203 0.3755566350 0.0000000000
0.7661007676 0.3756335736 0.0000000000
0.7884476068 0.3752090767 0.0000000000
0.8104102341 0.3745118830 0.0000000000
0.8310633727 0.3734858116 0.0000000000
0.8501378730 0.3722314785 0.0000000000
0.8680114746 0.3710115442 0.0000000000
0.8846760170 0.3696530581 0.0000000000
0.9017874650 0.3680436996 0.0000000000
0.9200956158 0.3663073931 0.0000000000
0.0000000000 0.2724078142 0.0150427515
0.0000000000 0.2880808301 0.0123213071
0.0006808591 0.3008003324 0.0078250953
0.0371815446 0.3125213215 0.0045787834
0.1017022918 0.3226128823 0.0009696923
0.1520377991 0.3316211923 0.0000000000
0.1989363523 0.3400527333 0.0000000000
0.2416046970 0.3472927089 0.0000000000
0.2765922742 0.3528514339 0.0000000000
0.3067805734 0.3571060727 0.0000000000
0.3420658684 0.3617700933 0.0000000000
0.3860463325 0.3671916798 0.0000000000
0.4251411931 0.3716339799 0.0000000000
0.4573429479 0.3754857444 0.0000000000
0.4846134323 0.3789802132 0.0000000000
0.5115176409 0.3823313776 0.0000000000
0.5430774017 0.3864063009 0.0000000000
0.5795843695 0.3905363748 0.0000000000
0.6157359647 0.3945027161 0.0000000000
0.6498974803 0.3977945653 0.0000000000
0.6771562464 0.4002336397 0.0000000000
0.7010373837 0.4019035686 0.0000000000
0.7266091757 0.4031212976 0.0000000000
0.7510187534 0.4037284861 0.0000000000
0.7742128088 0.4038813952 0.0000000000
0.7967133373 0.4035810490 0.0000000000
0.8190263358 0.4030855585 0.0000000000
0.8402077263 0.4023658003 0.0000000000
0.8597331404 0.4015515103 0.0000000000
0.8778961813 0.4007618338 0.0000000000
0.8950638814 0.3999259450 0.0000000000
0.9131248935 0.3989328866 0.0000000000
0.9320655843 0.3979092816 0.0000000000
0.0000000000 0.2899126431 0.0096440920
0.0000000000 0.3058833004 0.0066856913
0.0000000000 0.3193329953 0.0035975647
0.0194841290 0.3316447966 0.0007345057
0.0914716567 0.3424960302 0.0000000000
0.1450816295 0.3516884999 0.0000000000
0.1945412955 0.3602044261 0.0000000000
0.2388697875 0.3673612867 0.0000000000
0.2747932818 0.3731061620 0.0000000000
0.3057679292 0.3776875222 0.0000000000
0.3419825410 0.3828083404 0.0000000000
0.3864920534 0.3887711699 0.0000000000
0.4268160205 0.3939712184 0.0000000000
0.4594574673 0.3983579590 0.0000000000
0.4876840547 0.4021491936 0.0000000000
0.5150576902 0.4060571788 0.0000000000
0.5475941162 0.4105937107 0.0000000000
0.5845903009 0.4153723634 0.0000000000
0.6210637503 0.4196073140 0.0000000000
0.6556737478 0.4230711616 0.0000000000
0.6833584829 0.4254273412 0.0000000000
0.7074404441 0.4271095726 0.0000000000
0.7330709265 0.4284245669 0.0000000000
0.7576191691 0.4291502464 0.0000000000
0.7812307667 0.4295263538 0.0000000000
0.8042731453 0.4295839561 0.0000000000
0.8272443615 0.4295605552 0.0000000000
0.8491021678 0.4293097695 0.0000000000
0.8690477557 0.4288995203 0.0000000000
0.8874619298 0.4285093821 0.0000000000
0.9053764352 0.4280600044 0.0000000000
0.9242333849 0.4275672834 0.0000000000
0.9439111096 0.4269911854 0.0000000000
0.0000000000 0.3044294956 0.0043044693
0.0000000000 0.3212103523 0.0022626161
0.0000000000 0.3351249176 0.0000000000
0.0164854231 0.3479884144 0.0000000000
0.0821507876 0.3589534573 0.0000000000
0.1389111377 0.3683571965 0.0000000000
0.1902802916 0.3767948872 0.0000000000
0.2364338192 0.3841610333 0.0000000000
0.2732553494 0.3902948314 0.0000000000
0.3049392239 0.3951764064 0.0000000000
0.3418388491 0.4005918442 0.0000000000
0.3877433952 0.4070235387 0.0000000000
0.4285093708 0.4128227381 0.0000000000
0.4619166241 0.4179181070 0.0000000000
0.4906327465 0.4221795461 0.0000000000
0.5187385184 0.4264773080 0.0000000000
0.5518215813 0.4313242312 0.0000000000
0.5892986242 0.4360694825 0.0000000000
0.6258357737 0.4405029729 0.0000000000
0.6602643661 0.4441229464 0.0000000000
0.6881220111 0.4464939683 0.0000000000
0.7123573536 0.4482250632 0.0000000000
0.7382671815 0.4497725709 0.0000000000
0.7632866755 0.4508848553 0.0000000000
0.7873998475 0.4516979187 0.0000000000
0.8109756256 0.4521654965 0.0000000000
0.8345933170 0.4525242525 0.0000000000
0.8569460264 0.4526440397 0.0000000000
0.8773226501 0.4525748274 0.0000000000
0.8962422036 0.4524323397 0.0000000000
0.9146609724 0.4521008225 0.0000000000
0.9337385248 0.4516818547 0.0000000000
0.9538150049 0.4511456901 0.0000000000
0.0000000000 0.3167090736 0.0000079183
0.0000000000 0.3339759410 0.0000000000
0.0000000000 0.3485578537 0.0000000000
0.0136293791 0.3614752396 0.0000000000
0.0733922421 0.3726306923 0.0000000000
0.1328892072 0.3820133028 0.0000000000
0.1861707448 0.3907386961 0.0000000000
0.2340755286 0.3983804082 0.0000000000
0.2719023229 0.4047547234 0.0000000000
0.3041896076 0.4100148714 0.0000000000
0.3419285825 0.4158414970 0.0000000000
0.3885002668 0.4227217139 0.0000000000
0.4305162605 0.4289713940 0.0000000000
0.4643413918 0.4347025989 0.0000000000
0.4934853195 0.4395822556 0.0000000000
0.5217806320 0.4440988797 0.0000000000
0.5552833325 0.4490417008 0.0000000000
0.5930494357 0.4537582085 0.0000000000
0.6298058026 0.4579522136 0.0000000000
0.6640755079 0.4617567606 0.0000000000
0.6918867411 0.4642546572 0.0000000000
0.7164547620 0.4662921415 0.0000000000
0.7428652300 0.4682183587 0.0000000000
0.7683855299 0.4697329122 0.0000000000
0.7929852845 0.4709545026 0.0000000000
0.8170293726 0.4717912973 0.0000000000
0.8411852333 0.4724752220 0.0000000000
0.8638458482 0.4728505476 0.0000000000
0.8844141194 0.4729125268 0.0000000000
0.9037018787 0.4728097978 0.0000000000
0.9224344672 0.4724361833 0.0000000000
0.9416914885 0.4718577924 0.0000000000
0.9617222300 0.4712125254 0.0000000000
0.0000000000 0.3278796025 0.0000000000
0.0000000000 0.3459888638 0.0000000000
0.0000000000 0.3605797298 0.0000000000
0.0105056367 0.3738923894 0.0000000000
0.0645032772 0.3848736667 0.0000000000
0.1273780674 0.3943571737 0.0000000000
0.1824245472 0.4032853792 0.0000000000
0.2316273846 0.4111698416 0.0000000000
0.2705198640 0.4177616621 0.0000000000
0.3035358107 0.4233597491 0.0000000000
0.3418175777 0.4295038605 0.0000000000
0.3893661327 0.4370492950 0.0000000000
0.4319913181 0.4438179700 0.0000000000
0.4665357820 0.4499325868 0.0000000000
0.4957465221 0.4551066793 0.0000000000
0.5242082951 0.4597577578 0.0000000000
0.5579554589 0.4647713041 0.0000000000
0.5956016768 0.4694979729 0.0000000000
0.6325659289 0.4735857453 0.0000000000
0.6668023981 0.4774356369 0.0000000000
0.6948680329 0.4803215601 0.0000000000
