2. reversing the negative/print paper LUTs/color/Beyond Print/Fuji Matt DPII_color only.cube
LUT_3D_SIZE 5
0.0000125243 0.0000000000 0.0000262935
0.2250214531 0.0135666156 0.0183889213
0.4268220942 0.0000000000 0.0103795190
0.6148745525 0.0000000000 0.0021659008
0.7346857844 0.0000000000 0.0000000000
0.0000000000 0.1633426273 0.0285024359
0.2727602657 0.2197964613 0.0121133869
0.5163618707 0.2417045331 0.0000825363
0.7227977700 0.2403394134 0.0000000000
0.8701400029 0.2220376552 0.0000000000
0.0000000000 0.3044294956 0.0043044693
0.2732553494 0.3902948314 0.0000000000
0.5518215813 0.4313242312 0.0000000000
0.7873998475 0.4516979187 0.0000000000
0.9538150049 0.4511456901 0.0000000000
0.0000000000 0.3993362007 0.0000000000
0.2583861203 0.5076362928 0.0000000000
0.5692611684 0.5673437001 0.0000000000
0.8257056781 0.6048508650 0.0000000000
1.0000000000 0.6143434446 0.0000000000
0.0000000000 0.4649665661 0.0000000000
0.2242948913 0.6091723710 0.0000000000
0.5799689376 0.6943362294 0.0000000000
0.8594896053 0.7520343069 0.0000000000
1.0000000000 0.7803418321 0.0000000000
0.0000000000 0.0031994937 0.2198126616
0.2076156895 0.0232848109 0.2327419195
0.4185298662 0.0002786287 0.2350013191
0.6138893997 0.0000000000 0.2324843495
0.7578015024 0.0000000000 0.2355437795
0.0000000000 0.2040647848 0.2600404101
0.2500001685 0.2500000415 0.2500006427
0.4919467754 0.2771536850 0.2637290487
0.7127386646 0.2797913885 0.2606778309
0.8827134824 0.2671115662 0.2621622766
0.0000000000 0.3633975480 0.2738641273
0.1978605695 0.4435000163 0.2770937234
0.5117801247 0.4863805180 0.2722295914
0.7689961250 0.5133442761 0.2653277735
0.9657777311 0.5193574524 0.2578880783
0.0000000000 0.4683686368 0.2867074876
0.0993983913 0.5814387534 0.2785931463
0.5089735072 0.6461205240 0.2663733633
0.7969008087 0.6924003055 0.2497672160
1.0000000000 0.7075320800 0.2283822663
0.0000000000 0.5408281985 0.2928929501
0.0000000000 0.6898659599 0.2764866995
0.4948441911 0.7813506544 0.2352091112
0.8172488109 0.8520164183 0.2007319924
1.0000000000 0.8931105351 0.1717201045
0.0000000000 0.0000000000 0.3839426934
0.2060427917 0.0000000000 0.4087736212
0.4180197574 0.0000000000 0.4174847007
0.6137833829 0.0000000000 0.4260184150
0.7632960371 0.0000000000 0.4288331270
0.0000000000 0.2077248584 0.4520691346
0.2148964546 0.2632057069 0.4758670960
0.4828169964 0.2836038553 0.4826365359
0.7099152921 0.2864855103 0.4837380734
0.8775041842 0.2697866960 0.4832846689
0.0000000000 0.3854676081 0.4900933829
0.1266274752 0.4633747836 0.5050843102
0.5000004687 0.5000006458 0.5000000839
0.7554305288 0.5342138464 0.5104549191
0.9600162347 0.5429867721 0.5122234013
0.0000000000 0.4951530216 0.5042301817
0.0000000000 0.6130814073 0.5201074012
0.4670852696 0.6828330231 0.5201289794
0.7704557830 0.7281063071 0.5189171998
1.0000000000 0.7490338206 0.5142302458
0.0000000000 0.5769517185 0.5177748849
0.0000000000 0.7318850467 0.5243066301
0.4182916296 0.8298515277 0.5241428298
0.7771458652 0.9067704928 0.5162496454
1.0000000000 0.9515980657 0.5030640462
0.0000000000 0.0000000000 0.4982436851
0.2104261662 0.0000000000 0.5426374494
0.4221563388 0.0000000000 0.5607695738
0.6197824343 0.0000000000 0.5680183313
0.7644763145 0.0000000000 0.5754823160
0.0000000000 0.2006312023 0.5970125189
0.2082043804 0.2574683750 0.6437235947
0.4796178695 0.2755958305 0.6558888462
0.7073365540 0.2796804532 0.6696377312
0.8793080378 0.2637792601 0.6744257088
0.0000000000 0.3914356638 0.6522143741
0.0695523888 0.4741791382 0.6935737810
0.4667858750 0.5177868611 0.7119052997
0.7469998002 0.5445597967 0.7272641242
0.9584695988 0.5560666649 0.7324123560
0.0000000000 0.5098568042 0.6790277755
0.0000000000 0.6314221261 0.7281317433
0.4297842047 0.7037863467 0.7452754462
0.7500000401 0.7500001766 0.7499999680
0.9996054741 0.7727846544 0.7593351232
0.0000000000 0.5941997240 0.6942979134
0.0000000000 0.7552181201 0.7449817871
0.3485107974 0.8591544633 0.7605259831
0.7369947848 0.9415160000 0.7686935125
1.0000000000 0.9882526010 0.7617885742
0.0000000000 0.0000000000 0.5645159196
0.2195154005 0.0000000000 0.6283885638
0.4264836671 0.0000000000 0.6529101101
0.6201403874 0.0000000000 0.6704849306
0.7603105080 0.0000000000 0.6788472094
0.0000000000 0.1962688297 0.6896898359
0.2086340216 0.2481719616 0.7613824172
0.4774370407 0.2649042428 0.7878800911
0.7106478652 0.2678369419 0.8074778019
0.8785381537 0.2429822151 0.8210517743
0.0000000000 0.3931349199 0.7633879011
0.0182991012 0.4807576643 0.8431355965
0.4564704578 0.5232057658 0.8773605292
0.7452351057 0.5527091174 0.9009707126
0.9582525605 0.5574871919 0.9152136797
0.0000000000 0.5180273380 0.8027914193
0.0000000000 0.6418591363 0.8938462001
0.4031133634 0.7148841261 0.9327595334
0.7391058761 0.7629022679 0.9576752941
0.9923837785 0.7821804865 0.9726988006
0.0000000000 0.6006875711 0.8239939052
0.0000000000 0.7626730694 0.9246219896
0.2830464670 0.8749331322 0.9647188223
0.7066819025 0.9574181997 0.9943567431
0.9999274095 0.9999669908 1.0000000000
