2. reversing the negative/print paper LUTs/color/Beyond Print/Fuji gloss DPII_color only.cube
LUT_3D_SIZE 33
0.0000000000 0.0000057347 0.0001304367
0.0320504267 0.0007530186 0.0000941567
0.0612331114 0.0027671719 0.0000205436
0.0906960408 0.0053595801 -0.0000000000
0.1177891385 0.0079475473 -0.0000000000
0.1413506151 0.0106291007 0.0000337674
0.1638667995 0.0129114450 0.0001024751
0.1868968701 0.0141737654 0.0000644109
0.2112283959 0.0141882183 0.0000000000
0.2355638734 0.0133506081 0.0000000000
0.2584956769 0.0124756955 -0.0000000000
0.2807552337 0.0120036400 0.0000000000
0.3043177729 0.0118298115 0.0000000000
0.3299674359 0.0116671800 0.0000000000
0.3558859520 0.0113017929 0.0000000000
0.3810502402 0.0107401108 0.0000000000
0.4042130247 0.0100049619 0.0000000000
0.4256450085 0.0085714022 0.0000000000
0.4458036962 0.0063946071 0.0000000000
0.4656058643 0.0036404280 0.0000000000
0.4863740221 0.0012959664 0.0000000000
0.5074132756 0.0001673834 0.0000000000
0.5270121573 0.0000000000 0.0000000000
0.5447401749 0.0000000000 0.0000000000
0.5616597020 0.0000000000 0.0000000000
0.5790840392 0.0000000000 0.0000000000
0.5966533465 0.0000000000 0.0000000000
0.6144244734 0.0000000000 0.0000000000
0.6322487003 0.0000000000 0.0000000000
0.6496480225 0.0000000000 0.0000000000
0.6663807082 0.0000000000 0.0000000000
0.6829030569 0.0000000000 0.0000000000
0.6998798072 0.0000000000 0.0000000000
-0.0000000000 0.0176844448 -0.0000000000
0.0335245208 0.0237500387 0.0020155647
0.0663587530 0.0279524618 0.0025607393
0.0977816687 0.0318564626 0.0012908703
0.1266161728 0.0352567602 0.0003417031
0.1524507312 0.0380226625 0.0000750996
0.1779069203 0.0402073067 0.0000059654
0.2035723677 0.0418841339 0.0000065883
0.2292433141 0.0430146740 0.0000000000
0.2542014537 0.0436609155 0.0000000000
0.2777669840 0.0440841252 -0.0000000000
0.3016064109 0.0445145608 -0.0000000000
0.3269656959 0.0449847411 0.0000000000
0.3534701240 0.0454306106 0.0000000000
0.3792053077 0.0458281805 0.0000000000
0.4032906194 0.0462995249 0.0000000000
0.4249303912 0.0467250185 -0.0000000000
0.4464001341 0.0465039164 -0.0000000000
0.4685244458 0.0452143154 -0.0000000000
0.4905815913 0.0430408698 0.0000000000
0.5123927724 0.0402958434 0.0000000000
0.5334843241 0.0374071518 0.0000000000
0.5530713798 0.0346705027 0.0000000000
0.5709685144 0.0321463983 -0.0000000000
0.5885869598 0.0295266275 -0.0000000000
0.6065146420 0.0265732311 0.0000000000
0.6242942073 0.0232871980 0.0000000000
0.6421824760 0.0197043099 0.0000000000
0.6603169304 0.0163494888 -0.0000000000
0.6782487033 0.0135206936 -0.0000000000
0.6954869445 0.0105689104 -0.0000000000
0.7121927922 0.0070477408 0.0000000000
0.7289191321 0.0061997769 -0.0000000000
0.0000000000 0.0352029143 0.0001106379
0.0331951680 0.0434540409 0.0026737600
0.0701567266 0.0490253579 0.0045005629
0.1030522205 0.0536415034 0.0038584089
0.1325235528 0.0575781613 0.0022249726
0.1591566607 0.0607420861 0.0007696841
0.1856011013 0.0632800352 0.0001092662
0.2128263485 0.0654664655 0.0000000000
0.2396101940 0.0673983425 0.0000000000
0.2653676667 0.0690347715 0.0000000000
0.2902125785 0.0703567167 0.0000000000
0.3151765356 0.0714366733 0.0000000000
0.3415708505 0.0723747042 0.0000000000
0.3685367164 0.0732299042 0.0000000000
0.3939355163 0.0740747535 0.0000000000
0.4170079706 0.0750777072 0.0000000000
0.4389400754 0.0760570909 0.0000000000
0.4613627872 0.0763943019 0.0000000000
0.4855411995 0.0756194082 0.0000000000
0.5087440126 0.0739434622 0.0000000000
0.5309581291 0.0718043024 0.0000000000
0.5519077159 0.0697189404 0.0000000000
0.5710244519 0.0679889241 0.0000000000
0.5885756725 0.0665271040 0.0000000000
0.6058753199 0.0649681458 0.0000000000
0.6238300194 0.0628707355 0.0000000000
0.6420974558 0.0602231413 0.0000000000
0.6607678795 0.0571142108 0.0000000000
0.6799514213 0.0534856752 0.0000000000
0.6988123684 0.0492329124 0.0000000000
0.7165757971 0.0442245125 0.0000000000
0.7334720371 0.0383108651 0.0000000000
0.7498966866 0.0321510304 0.0000000000
-0.0000000000 0.0535024265 0.0017378184
0.0314850598 0.0632211049 0.0032411832
0.0718535825 0.0695830667 0.0050352120
0.1070148700 0.0746567168 0.0055779707
0.1371154720 0.0789422845 0.0042367065
0.1644730602 0.0825327418 0.0021651230
0.1912707666 0.0855612217 0.0005316155
0.2190616109 0.0883611541 0.0000000000
0.2467662507 0.0910415295 0.0000000000
0.2734126178 0.0934946654 0.0000000000
0.2996181096 0.0955470563 0.0000000000
0.3258532761 0.0971814364 0.0000000000
0.3526590637 0.0985362877 0.0000000000
0.3795493456 0.0997567952 0.0000000000
0.4048114512 0.1009872101 0.0000000000
0.4277189971 0.1023930395 0.0000000000
0.4502202481 0.1037900089 0.0000000000
0.4745279788 0.1045852352 -0.0000000000
0.4996579191 0.1043039919 -0.0000000000
0.5233767288 0.1031336641 0.0000000000
0.5456716787 0.1015546939 0.0000000000
0.5666519938 0.1001173560 0.0000000000
0.5856183793 0.0992004314 0.0000000000
0.6027450791 0.0986818965 0.0000000000
0.6196195847 0.0980991878 0.0000000000
0.6376198347 0.0967771955 0.0000000000
0.6565333402 0.0946002716 0.0000000000
0.6764647483 0.0917389086 0.0000000000
0.6966062330 0.0884460703 0.0000000000
0.7162330899 0.0849645321 0.0000000000
0.7341989717 0.0813823825 0.0000000000
0.7511621239 0.0775625625 0.0000000000
0.7679698283 0.0729335740 -0.0000000000
-0.0000000000 0.0718775287 0.0062154633
0.0283124178 0.0821794723 0.0041769039
0.0713568400 0.0891198372 0.0051147821
0.1082657428 0.0945466610 0.0060311885
0.1396221374 0.0990864498 0.0050593834
0.1680928907 0.1029703938 0.0026589352
0.1958707237 0.1063990122 0.0006858966
0.2242357698 0.1097432752 -0.0000000000
0.2526233547 0.1131312308 -0.0000000000
0.2800199975 0.1163424944 0.0000000000
0.3073125120 0.1190426257 -0.0000000000
0.3344813106 0.1211489835 0.0000000000
0.3615490265 0.1228685714 0.0000000000
0.3880335815 0.1244355455 0.0000000000
0.4128350175 0.1260491110 0.0000000000
0.4364327153 0.1279056558 0.0000000000
0.4598602275 0.1297557855 0.0000000000
0.4860857364 0.1310668777 -0.0000000000
0.5112892361 0.1314260656 -0.0000000000
0.5343815880 0.1310123059 0.0000000000
0.5563149923 0.1301728026 0.0000000000
0.5774161451 0.1292963175 -0.0000000000
0.5968718769 0.1287654354 -0.0000000000
0.6143573775 0.1285601659 -0.0000000000
0.6316474691 0.1282929660 0.0000000000
0.6504790115 0.1273824581 0.0000000000
0.6705952019 0.1257229160 0.0000000000
0.6915883266 0.1234176369 0.0000000000
0.7124250461 0.1206300569 0.0000000000
0.7318760876 0.1176761967 0.0000000000
0.7495923954 0.1147153633 0.0000000000
0.7660157538 0.1116922669 -0.0000000000
0.7827633174 0.1084512062 -0.0000000000
-0.0000000000 0.0896346815 0.0113932434
0.0240341785 0.0999296700 0.0054270332
0.0691357837 0.1072304859 0.0050541054
0.1076399273 0.1132246771 0.0059379061
0.1402175414 0.1182523315 0.0050269350
0.1702007751 0.1223771188 0.0024987195
0.1993241939 0.1260168839 0.0006601667
0.2285098740 0.1297428986 0.0000000000
0.2574956359 0.1337025842 0.0000000000
0.2857664609 0.1375984543 0.0000000000
0.3137555047 0.1409372761 -0.0000000000
0.3415759705 0.1435418936 -0.0000000000
0.3689152760 0.1456625479 0.0000000000
0.3950933625 0.1475826976 0.0000000000
0.4194513933 0.1495477950 0.0000000000
0.4436954469 0.1518019046 -0.0000000000
0.4684214145 0.1540305863 -0.0000000000
0.4957719329 0.1557731792 0.0000000000
0.5208368440 0.1567330701 0.0000000000
0.5429423419 0.1570923642 0.0000000000
0.5642454858 0.1570569901 -0.0000000000
0.5853149392 0.1568105367 0.0000000000
0.6054290395 0.1565970965 0.0000000000
0.6239689829 0.1564530650 -0.0000000000
0.6424796151 0.1562012408 -0.0000000000
0.6625522377 0.1555084123 0.0000000000
0.6840222699 0.1543775031 0.0000000000
0.7056742043 0.1528024389 0.0000000000
0.7267352842 0.1507325849 -0.0000000000
0.7458371365 0.1483072215 -0.0000000000
0.7630527782 0.1457298405 -0.0000000000
0.7791662312 0.1429516293 0.0000000000
0.7951245250 0.1399619880 -0.0000000000
-0.0000000000 0.1066250544 0.0145990428
0.0202399997 0.1173690465 0.0064495168
0.0661770737 0.1250493280 0.0049186791
0.1064218190 0.1316827515 0.0054922742
0.1403456010 0.1373213057 0.0046034848
0.1715741149 0.1419070645 0.0020473721
0.2020619001 0.1458107639 0.0004952245
0.2321519286 0.1496858244 0.0000000000
0.2617566220 0.1538794277 0.0000000000
0.2908597483 0.1581495453 0.0000000000
0.3197069940 0.1619522102 -0.0000000000
0.3479630617 0.1650883413 -0.0000000000
0.3755899664 0.1677227186 0.0000000000
0.4016555401 0.1701144722 0.0000000000
0.4256674644 0.1724419671 0.0000000000
0.4503219535 0.1749199966 0.0000000000
0.4763271350 0.1773078676 -0.0000000000
0.5039379086 0.1792383137 0.0000000000
0.5288608132 0.1804881752 0.0000000000
0.5504674433 0.1812272268 0.0000000000
0.5714612859 0.1816809257 -0.0000000000
0.5927016452 0.1820056317 -0.0000000000
0.6134591238 0.1822834153 0.0000000000
0.6331312763 0.1824529601 -0.0000000000
0.6531134755 0.1824921014 -0.0000000000
0.6744184132 0.1821579357 -0.0000000000
0.6965248460 0.1814733044 0.0000000000
0.7183188218 0.1804429464 0.0000000000
0.7391010601 0.1789860654 -0.0000000000
0.7581192582 0.1771193089 -0.0000000000
0.7751979416 0.1749515645 -0.0000000000
0.7912638792 0.1724907865 0.0000000000
0.8069492449 0.1696116753 -0.0000000000
-0.0000000000 0.1242860390 0.0149844366
0.0175904234 0.1358191530 0.0068882135
0.0624422359 0.1442923270 0.0046439942
0.1049223859 0.1516164008 0.0046725580
0.1403442082 0.1578914265 0.0038319756
0.1727949065 0.1629111139 0.0014767349
0.2044690309 0.1671259541 0.0002589522
0.2355117496 0.1711153084 -0.0000000000
0.2657874469 0.1752872484 -0.0000000000
0.2957605862 0.1795821327 -0.0000000000
0.3255299601 0.1836854793 -0.0000000000
0.3543814634 0.1873961477 -0.0000000000
0.3821241104 0.1907168935 0.0000000000
0.4083680828 0.1937414475 0.0000000000
0.4323009841 0.1964811541 0.0000000000
0.4570649345 0.1990440883 0.0000000000
0.4839488550 0.2013263808 -0.0000000000
0.5113747496 0.2031649046 0.0000000000
0.5360352685 0.2043968762 -0.0000000000
0.5577151213 0.2051314678 -0.0000000000
0.5788954800 0.2057210640 0.0000000000
0.6006792344 0.2064493348 0.0000000000
0.6223358998 0.2073431281 0.0000000000
0.6431824118 0.2082186064 -0.0000000000
0.6646476581 0.2090063428 -0.0000000000
0.6871895192 0.2092855650 0.0000000000
0.7091846465 0.2090193274 0.0000000000
0.7304815095 0.2083387504 0.0000000000
0.7507203017 0.2072683356 0.0000000000
0.7695376884 0.2058398760 -0.0000000000
0.7868676679 0.2040957876 -0.0000000000
0.8033756810 0.2020224713 0.0000000000
0.8194279886 0.1994857451 -0.0000000000
-0.0000000000 0.1432837945 0.0135919906
0.0147791109 0.1555982753 0.0068121674
0.0575513611 0.1647690924 0.0043052022
0.1029177115 0.1728154718 0.0035974799
0.1400948516 0.1797340134 0.0026158724
0.1737686609 0.1852789064 0.0010389914
0.2066039662 0.1898055277 0.0000082941
0.2385705169 0.1939428469 0.0000000000
0.2696071410 0.1979392886 -0.0000000000
0.3004853049 0.2020066130 -0.0000000000
0.3312385532 0.2061172847 -0.0000000000
0.3607408862 0.2102749880 -0.0000000000
0.3886824887 0.2143817568 0.0000000000
0.4149596813 0.2182020451 0.0000000000
0.4392141297 0.2214546639 0.0000000000
0.4640128850 0.2240978201 0.0000000000
0.4914729958 0.2262284060 -0.0000000000
0.5185775096 0.2279159050 -0.0000000000
0.5429897242 0.2290637360 -0.0000000000
0.5650047256 0.2297116590 -0.0000000000
0.5867066471 0.2302820558 -0.0000000000
0.6092000872 0.2312342929 -0.0000000000
0.6318938621 0.2326921496 0.0000000000
0.6540128872 0.2343962424 -0.0000000000
0.6768372294 0.2360938561 -0.0000000000
0.7003077761 0.2370829482 -0.0000000000
0.7219771048 0.2372434075 -0.0000000000
0.7424061502 0.2368310488 -0.0000000000
0.7620916147 0.2360080377 -0.0000000000
0.7808351210 0.2348659460 -0.0000000000
0.7985281065 0.2334749812 -0.0000000000
0.8156234383 0.2317856500 0.0000000000
0.8324205115 0.2296761435 -0.0000000000
-0.0000000000 0.1624922702 0.0125302537
0.0114678496 0.1755102323 0.0069209697
0.0516944425 0.1850693191 0.0041823700
0.1004852141 0.1934525376 0.0027219648
0.1395702858 0.2007112232 0.0013433537
0.1744468645 0.2067267982 0.0005015697
0.2083096387 0.2117525129 0.0000000000
0.2411781009 0.2162309888 0.0000000000
0.2730073521 0.2203775757 0.0000000000
0.3049353892 0.2243327983 0.0000000000
0.3365928674 0.2283461192 -0.0000000000
0.3666482650 0.2326305683 -0.0000000000
0.3947304681 0.2371529152 0.0000000000
0.4209709267 0.2415637401 0.0000000000
0.4456536230 0.2452873062 0.0000000000
0.4708316785 0.2481336338 0.0000000000
0.4987597946 0.2503851096 -0.0000000000
0.5257587940 0.2522187270 0.0000000000
0.5500915317 0.2535503264 0.0000000000
0.5726105786 0.2543567149 0.0000000000
0.5949146148 0.2550440835 0.0000000000
0.6179497285 0.2561231810 0.0000000000
0.6412665895 0.2578713086 0.0000000000
0.6642900523 0.2600582094 -0.0000000000
0.6880472224 0.2622640855 -0.0000000000
0.7117249567 0.2637054166 0.0000000000
0.7332434132 0.2642733523 0.0000000000
0.7533132810 0.2642058448 0.0000000000
0.7728501685 0.2636743845 -0.0000000000
0.7918161644 0.2628127291 -0.0000000000
0.8100504778 0.2617239875 -0.0000000000
0.8276906321 0.2603860550 0.0000000000
0.8450542702 0.2586570328 -0.0000000000
-0.0000000000 0.1803551341 0.0128074742
0.0084906978 0.1940235459 0.0077043137
0.0450064816 0.2035645178 0.0044870905
0.0979735343 0.2119061057 0.0022925654
0.1390397825 0.2193528432 0.0007530077
0.1749186915 0.2258176831 0.0000256258
0.2095944863 0.2313827390 -0.0000000000
0.2432242682 0.2363908918 0.0000000000
0.2758446712 0.2409937206 0.0000000000
0.3087624502 0.2452451539 -0.0000000000
0.3414255168 0.2493081317 -0.0000000000
0.3718918982 0.2535528944 -0.0000000000
0.3999001620 0.2580881659 0.0000000000
0.4259861917 0.2626131616 0.0000000000
0.4510859151 0.2665849160 0.0000000000
0.4770981620 0.2698007765 0.0000000000
0.5053983446 0.2725135170 -0.0000000000
0.5326144864 0.2748638509 -0.0000000000
0.5571695942 0.2767018820 0.0000000000
0.5803159117 0.2780263324 0.0000000000
0.6032690642 0.2790880449 0.0000000000
0.6266421190 0.2802702140 0.0000000000
0.6499985453 0.2819363855 0.0000000000
0.6730608147 0.2840126528 -0.0000000000
0.6969329838 0.2860579398 -0.0000000000
0.7201823465 0.2875056013 -0.0000000000
0.7416904232 0.2883634354 0.0000000000
0.7621689894 0.2887559821 0.0000000000
0.7823531733 0.2887002187 -0.0000000000
0.8019946591 0.2882575924 -0.0000000000
0.8207926966 0.2875402728 -0.0000000000
0.8389593476 0.2865579381 0.0000000000
0.8566750374 0.2852020316 -0.0000000000
-0.0000000000 0.1965486545 0.0134898790
0.0063259950 0.2109688226 0.0084904167
0.0404435471 0.2205055112 0.0047714556
0.0952424153 0.2285839222 0.0019637601
0.1384495802 0.2360993617 0.0004309071
0.1753036242 0.2429920896 -0.0000000000
0.2107096349 0.2491267437 -0.0000000000
0.2449027971 0.2547768017 -0.0000000000
0.2781048422 0.2599770731 -0.0000000000
0.3118520466 0.2647513607 -0.0000000000
0.3454241747 0.2691557365 0.0000000000
0.3764623352 0.2732927808 -0.0000000000
0.4043926758 0.2775968819 -0.0000000000
0.4302716213 0.2819808846 0.0000000000
0.4557428192 0.2860402204 0.0000000000
0.4827074402 0.2896931753 0.0000000000
0.5113260592 0.2930178861 -0.0000000000
0.5387440282 0.2960273273 -0.0000000000
0.5637898988 0.2985317956 -0.0000000000
0.5876029760 0.3005420026 -0.0000000000
0.6112643363 0.3022093462 -0.0000000000
0.6350660925 0.3036282128 -0.0000000000
0.6583124794 0.3050612065 0.0000000000
0.6809174234 0.3066555199 -0.0000000000
0.7043189632 0.3081569340 -0.0000000000
0.7269196852 0.3093683145 -0.0000000000
0.7484058816 0.3103611825 -0.0000000000
0.7694936778 0.3111352848 -0.0000000000
0.7906093539 0.3115792446 -0.0000000000
0.8111966403 0.3116270404 -0.0000000000
0.8306645245 0.3113374821 -0.0000000000
0.8492269290 0.3107509753 -0.0000000000
0.8673504063 0.3097765114 -0.0000000000
-0.0000000000 0.2117582979 0.0133192653
0.0038661924 0.2272378329 0.0081240142
0.0349057602 0.2370005245 0.0041852702
0.0916480647 0.2449387921 0.0013376068
0.1374119472 0.2524694587 0.0000537824
0.1755951862 0.2596669416 -0.0000000000
0.2119554365 0.2662438906 -0.0000000000
0.2466619058 0.2723600309 -0.0000000000
0.2801289290 0.2781407955 -0.0000000000
0.3143244502 0.2835381991 -0.0000000000
0.3484919554 0.2884429652 -0.0000000000
0.3801026035 0.2929080625 0.0000000000
0.4085034789 0.2971242993 -0.0000000000
0.4343455608 0.3012904649 -0.0000000000
0.4601601408 0.3053683458 0.0000000000
0.4879584144 0.3093472882 0.0000000000
0.5167494594 0.3131499176 -0.0000000000
0.5441820649 0.3166957223 -0.0000000000
0.5697748843 0.3198410615 -0.0000000000
0.5942649807 0.3225579367 -0.0000000000
0.6186467748 0.3249054670 -0.0000000000
0.6430753878 0.3267875895 -0.0000000000
0.6666064197 0.3281965039 -0.0000000000
0.6888844543 0.3293614091 -0.0000000000
0.7117084424 0.3303495062 0.0000000000
0.7337424903 0.3313166165 -0.0000000000
0.7551895655 0.3323239400 -0.0000000000
0.7767901221 0.3332860768 -0.0000000000
0.7986543138 0.3340276303 -0.0000000000
0.8199318141 0.3344174973 -0.0000000000
0.8398998951 0.3344546256 -0.0000000000
0.8588395108 0.3341902132 -0.0000000000
0.8774146455 0.3336069417 -0.0000000000
-0.0000000000 0.2264613676 0.0115711751
0.0014489177 0.2435271990 0.0058794123
0.0285281109 0.2537562489 0.0023522085
0.0866075857 0.2616617944 0.0003407073
0.1355274563 0.2691382172 -0.0000000000
0.1757052662 0.2765013246 0.0000000000
0.2135035341 0.2833536068 -0.0000000000
0.2488542880 0.2897972424 -0.0000000000
0.2823122913 0.2959594274 0.0000000000
0.3163175620 0.3018455166 0.0000000000
0.3506583318 0.3072882311 -0.0000000000
0.3827024969 0.3122162313 0.0000000000
0.4117670274 0.3168244377 -0.0000000000
0.4383700423 0.3212082605 -0.0000000000
0.4646354325 0.3253411291 0.0000000000
0.4930745136 0.3294761432 0.0000000000
0.5217164796 0.3334510155 0.0000000000
0.5489318970 0.3372892462 -0.0000000000
0.5749940001 0.3409533056 -0.0000000000
0.6001722686 0.3443195664 0.0000000000
0.6252772438 0.3473328565 0.0000000000
0.6504491029 0.3497684596 -0.0000000000
0.6747089011 0.3514667471 -0.0000000000
0.6972221583 0.3525700730 -0.0000000000
0.7196701810 0.3533777092 0.0000000000
0.7414470057 0.3542292938 0.0000000000
0.7629381346 0.3551451850 0.0000000000
0.7849346510 0.3560311923 0.0000000000
0.8072768855 0.3567665581 0.0000000000
0.8288831596 0.3572266301 0.0000000000
0.8489214667 0.3573832413 0.0000000000
0.8679148931 0.3572814158 0.0000000000
0.8868702498 0.3569501319 -0.0000000000
0.0000000000 0.2405363329 0.0084258776
0.0000000000 0.2595258089 0.0024854785
0.0230196146 0.2704842364 0.0003028069
0.0800583318 0.2785848116 -0.0000000000
0.1326973328 0.2860291275 0.0000000000
0.1754034922 0.2932691599 0.0000000000
0.2151204476 0.3000824282 0.0000000000
0.2513174461 0.3066800943 0.0000000000
0.2846136304 0.3131660577 0.0000000000
0.3180512349 0.3194820965 0.0000000000
0.3520742985 0.3253889231 0.0000000000
0.3844360084 0.3308272979 0.0000000000
0.4142949998 0.3359608545 -0.0000000000
0.4419483374 0.3407979836 0.0000000000
0.4690671876 0.3451994294 0.0000000000
0.4980166426 0.3493726334 0.0000000000
0.5262332024 0.3532935296 0.0000000000
0.5530539765 0.3572202106 0.0000000000
0.5794630883 0.3612786063 -0.0000000000
0.6053099966 0.3652484493 0.0000000000
0.6312289843 0.3689191564 0.0000000000
0.6571976175 0.3719213804 0.0000000000
0.6822645616 0.3740484738 -0.0000000000
0.7055174411 0.3754346261 -0.0000000000
0.7277702047 0.3763963719 0.0000000000
0.7495883815 0.3772857162 0.0000000000
0.7712957553 0.3780818021 0.0000000000
0.7936325006 0.3787280815 0.0000000000
0.8162484592 0.3792004260 0.0000000000
0.8378657207 0.3794716136 0.0000000000
0.8577343143 0.3795470665 0.0000000000
0.8766137343 0.3794549138 0.0000000000
0.8955282344 0.3792375028 0.0000000000
0.0000000000 0.2542789164 0.0046430073
0.0000000000 0.2750489039 0.0002059259
0.0193695227 0.2868513602 -0.0000000000
0.0721529537 0.2953165650 -0.0000000000
0.1288374875 0.3029207695 -0.0000000000
0.1744022134 0.3101142768 -0.0000000000
0.2159831828 0.3167560572 -0.0000000000
0.2531158519 0.3232983280 -0.0000000000
0.2863675036 0.3299694564 0.0000000000
0.3194122744 0.3366507442 -0.0000000000
0.3532436918 0.3430015332 -0.0000000000
0.3859654505 0.3489426564 -0.0000000000
0.4166663626 0.3546484641 -0.0000000000
0.4453850178 0.3600447780 -0.0000000000
0.4732743052 0.3647605886 0.0000000000
0.5028068141 0.3687558148 0.0000000000
0.5306071090 0.3724143808 -0.0000000000
0.5570959619 0.3762786397 -0.0000000000
0.5838813095 0.3806226463 -0.0000000000
0.6104042975 0.3851806259 -0.0000000000
0.6371928504 0.3895541902 0.0000000000
0.6640499645 0.3931772734 -0.0000000000
0.6897720363 0.3957334263 -0.0000000000
0.7136521663 0.3974633661 -0.0000000000
0.7356926760 0.3987161813 0.0000000000
0.7575272667 0.3997766035 -0.0000000000
0.7794393536 0.4005878761 -0.0000000000
0.8020805725 0.4011317234 0.0000000000
0.8248883283 0.4014506706 -0.0000000000
0.8464053087 0.4015834660 -0.0000000000
0.8661945046 0.4015571485 0.0000000000
0.8851455158 0.4013920418 -0.0000000000
0.9040483107 0.4011521068 0.0000000000
0.0000000000 0.2678075675 0.0008238923
0.0000000000 0.2891829515 0.0000235754
0.0149732088 0.3020182294 -0.0000000000
0.0634914646 0.3114352954 -0.0000000000
0.1246553317 0.3194248542 -0.0000000000
0.1722955126 0.3265158153 0.0000000000
0.2149422788 0.3329300814 -0.0000000000
0.2529514769 0.3394197668 -0.0000000000
0.2869022665 0.3463211005 0.0000000000
0.3205024007 0.3533968902 0.0000000000
0.3548604371 0.3600931750 -0.0000000000
0.3880594308 0.3663154439 -0.0000000000
0.4193012187 0.3723144715 -0.0000000000
0.4487917827 0.3780112326 -0.0000000000
0.4775739934 0.3829716639 0.0000000000
0.5073216217 0.3870011583 0.0000000000
0.5351101209 0.3904814532 0.0000000000
0.5614916649 0.3944877512 -0.0000000000
0.5888242857 0.3993756841 -0.0000000000
0.6160832991 0.4047045571 -0.0000000000
0.6437004907 0.4098535219 0.0000000000
0.6713546127 0.4140626891 0.0000000000
0.6974883709 0.4169181986 -0.0000000000
0.7211530656 0.4187294502 -0.0000000000
0.7425699163 0.4200026296 -0.0000000000
0.7642618550 0.4212076572 0.0000000000
0.7864606596 0.4222965547 0.0000000000
0.8094930727 0.4231534905 0.0000000000
0.8325217096 0.4237197940 -0.0000000000
0.8541613824 0.4239792271 -0.0000000000
0.8742352197 0.4239672306 -0.0000000000
0.8935884234 0.4237045247 0.0000000000
0.9128957045 0.4232404898 0.0000000000
0.0000000000 0.2814295025 0.0001044959
0.0000000000 0.3025803197 0.0000014877
0.0100801797 0.3165116855 0.0000000000
0.0541679792 0.3273329036 0.0000000000
0.1199161401 0.3360132395 0.0000000000
0.1686989382 0.3429700532 0.0000000000
0.2116906757 0.3490794209 -0.0000000000
0.2506904428 0.3554591455 0.0000000000
0.2861716252 0.3624480392 0.0000000000
0.3214157442 0.3697539998 0.0000000000
0.3569897601 0.3768155742 -0.0000000000
0.3907212585 0.3834984616 -0.0000000000
0.4222668464 0.3900504849 0.0000000000
0.4522821955 0.3963313609 0.0000000000
0.4817254055 0.4017229570 0.0000000000
0.5117205757 0.4058785560 0.0000000000
0.5395813973 0.4093375232 0.0000000000
0.5663644501 0.4133655686 0.0000000000
0.5944204175 0.4186294970 0.0000000000
0.6225097779 0.4246421506 0.0000000000
0.6509975798 0.4306137379 -0.0000000000
0.6792943519 0.4353788707 -0.0000000000
0.7052371802 0.4383792918 0.0000000000
0.7279776822 0.4400983684 -0.0000000000
0.7487714190 0.4412494198 -0.0000000000
0.7701622772 0.4426736744 0.0000000000
0.7926120471 0.4444601634 0.0000000000
0.8159976769 0.4461875053 -0.0000000000
0.8393340222 0.4474791503 -0.0000000000
0.8614254109 0.4481446332 -0.0000000000
0.8821493886 0.4482056110 -0.0000000000
0.9022585118 0.4476975180 0.0000000000
0.9223266083 0.4467717240 0.0000000000
0.0000000000 0.2949416359 0.0000057988
0.0000000000 0.3155513161 0.0000000000
0.0048308077 0.3304002952 0.0000000000
0.0440964495 0.3426126980 -0.0000000000
0.1146758581 0.3520530140 -0.0000000000
0.1647670814 0.3589152514 0.0000000000
0.2081452343 0.3646896243 -0.0000000000
0.2481248773 0.3709009448 0.0000000000
0.2851064007 0.3780218594 0.0000000000
0.3220788323 0.3856675478 0.0000000000
0.3589427609 0.3932381871 -0.0000000000
0.3931628675 0.4004897596 -0.0000000000
0.4248826094 0.4075836887 0.0000000000
0.4552890001 0.4143259866 0.0000000000
