2. reversing the negative/print paper LUTs/color/Beyond Print/Fuji gloss DPII_color only.cube
LUT_3D_SIZE 5
0.0000000000 0.0000057347 0.0001304367
0.2112283959 0.0141882183 0.0000000000
0.4042130247 0.0100049619 0.0000000000
0.5616597020 0.0000000000 0.0000000000
0.6998798072 0.0000000000 0.0000000000
-0.0000000000 0.1432837945 0.0135919906
0.2696071410 0.1979392886 -0.0000000000
0.4914729958 0.2262284060 -0.0000000000
0.6768372294 0.2360938561 -0.0000000000
0.8324205115 0.2296761435 -0.0000000000
0.0000000000 0.2678075675 0.0008238923
0.2869022665 0.3463211005 0.0000000000
0.5351101209 0.3904814532 0.0000000000
0.7425699163 0.4200026296 -0.0000000000
0.9128957045 0.4232404898 0.0000000000
0.0000000000 0.3679851307 0.0000000000
0.2870925739 0.4716692088 0.0000000000
0.5655270044 0.5329711031 0.0000000000
0.7855516683 0.5683945088 0.0000000000
0.9752139296 0.5876867452 0.0000000000
0.0000000000 0.4455099688 0.0000000000
0.2751581266 0.5767965386 0.0000000000
0.5848879938 0.6523135292 0.0000000000
0.8304634936 0.7139014013 0.0000000000
1.0000000000 0.7461035303 0.0000000000
-0.0000000000 0.0079293801 0.1968951977
0.2115041850 0.0284510404 0.2036015861
0.4135838481 0.0261173807 0.2050419994
0.5769895598 0.0079313604 0.2062142234
0.7222375966 -0.0000000000 0.1951687782
-0.0000000000 0.1928623463 0.2399282324
0.2499998516 0.2500001845 0.2500000060
0.4862757043 0.2755627748 0.2393282831
0.6817307115 0.2871839676 0.2310135353
0.8520067785 0.2834349487 0.2288562913
0.0000000000 0.3387566727 0.2570401670
0.2330841007 0.4191721464 0.2562006827
0.5178812594 0.4651552994 0.2491711399
0.7408076692 0.4943693265 0.2325237045
0.9329747802 0.5040410724 0.2218496483
-0.0000000000 0.4417171289 0.2598800322
0.1981762591 0.5549977019 0.2538212830
0.5305601072 0.6205855442 0.2396690876
0.7794251326 0.6642440008 0.2128826310
0.9936495679 0.6910040445 0.1927049560
-0.0000000000 0.5204165609 0.2696974841
0.1374559276 0.6575998548 0.2499510096
0.5368118105 0.7493885347 0.2236140106
0.8082101093 0.8157708336 0.1788695875
1.0000000000 0.8655731861 0.1410628248
0.0000000000 0.0000000000 0.3725799405
0.2215932520 0.0044449574 0.3934417083
0.4176104938 0.0041416832 0.4027142872
0.5808008327 -0.0000000000 0.4028116745
0.7291798012 0.0000000000 0.4104743545
0.0000000000 0.2079341685 0.4432544047
0.2320227518 0.2657385654 0.4687233193
0.4824110157 0.2929433313 0.4744308436
0.6820108417 0.3062156168 0.4711073095
0.8589443847 0.3018437446 0.4749514882
-0.0000000000 0.3668475994 0.4760599740
0.1798105178 0.4525275008 0.4982859068
0.5000001197 0.4999994008 0.5000005131
0.7344375976 0.5314425148 0.5035954418
0.9335309340 0.5444449565 0.5055548896
0.0000000000 0.4834227014 0.4930383302
0.0786674217 0.5984712670 0.5086083483
0.4985941019 0.6689126649 0.5112876515
0.7628668442 0.7210461868 0.5125474901
0.9873688495 0.7416311628 0.5005830608
0.0000000000 0.5613077221 0.5038563037
0.0081919844 0.7119496525 0.5179897067
0.4845848203 0.8089274794 0.5167292027
0.7737996713 0.8843986767 0.5145501998
1.0000000000 0.9301541769 0.4996573214
0.0333465199 0.0000000000 0.5128823729
0.2367043609 0.0000000000 0.5512713261
0.4282373377 0.0000000000 0.5676053759
0.5891100518 0.0000000000 0.5766750519
0.7399176445 0.0000000000 0.5810349106
-0.0000000000 0.2099322775 0.6161697232
0.2353191623 0.2665458401 0.6540388116
0.4887396372 0.2975223070 0.6678361607
0.6878556300 0.3094969955 0.6762935523
0.8647002514 0.3042881894 0.6779290475
-0.0000000000 0.3784697207 0.6603230876
0.1526607428 0.4695779122 0.6983753377
0.4957404681 0.5179861647 0.7134590123
0.7332052871 0.5523979690 0.7247260079
0.9301552226 0.5597966468 0.7230139850
-0.0000000000 0.5064078159 0.6905943940
0.0145770902 0.6278289045 0.7274936774
0.4740401756 0.7007189330 0.7435979715
0.7499998654 0.7500002330 0.7500002072
0.9799683717 0.7766031554 0.7558620048
0.0000000000 0.5824284602 0.7013399517
0.0000000000 0.7432085267 0.7482456036
0.4385259826 0.8481154237 0.7624551210
0.7543280445 0.9256433119 0.7611151501
1.0000000000 0.9799702212 0.7782532737
0.0675455938 0.0000000000 0.6200096904
0.2552709995 0.0000000000 0.6744339729
0.4409134037 0.0000000000 0.6942940171
0.6004796258 0.0000000000 0.7051103645
0.7517123532 0.0000000000 0.7131707374
-0.0000000000 0.2086698874 0.7361859834
0.2455222506 0.2615338889 0.7984679577
0.4972584901 0.2887933631 0.8256323710
0.7010041986 0.3042533538 0.8397231302
0.8720087928 0.2978773435 0.8437252845
0.0000000000 0.3931192008 0.8011058891
0.1449391905 0.4840936033 0.8660861878
0.4955201834 0.5315667107 0.8993100448
0.7373925301 0.5631526631 0.9136136197
0.9428635901 0.5754724439 0.9257767545
0.0000000000 0.5228728489 0.8369923610
0.0023008294 0.6463481473 0.9120847839
0.4665080582 0.7244775278 0.9481111095
0.7506092746 0.7778050689 0.9688537201
0.9822323195 0.8034262983 0.9759109146
0.0000000000 0.5953852812 0.8557858318
0.0000000000 0.7596822381 0.9403535558
0.4076902883 0.8680821347 0.9768397760
0.7369834803 0.9499562193 0.9940084185
0.9998806900 0.9999291759 1.0000000000
