2. reversing the negative/print paper LUTs/color/Beyond Print/Fuji Maxima Gloss_color only.cube
LUT_3D_SIZE 5
0.0000000000 0.0001094997 0.0000400663
0.2283544976 0.0007962431 0.0000000000
0.4216911309 0.0000000000 0.0000000000
0.5854049508 0.0000000000 0.0000000000
0.7102087127 0.0000000000 0.0000000000
0.0000000000 0.1616309108 0.0075649066
0.2807808315 0.2094355309 -0.0000000000
0.5106098082 0.2316725677 0.0000000000
0.7027254418 0.2323062452 0.0000000000
0.8598869721 0.2193440637 0.0000000000
0.0000000000 0.2813432196 0.0000000000
0.2812335732 0.3643089928 0.0000000000
0.5475896290 0.4027252749 0.0000000000
0.7680399424 0.4274854742 0.0000000000
0.9432846624 0.4290381293 0.0000000000
0.0000000000 0.3652361699 0.0000000000
0.2700214596 0.4827442409 0.0000000000
0.5704788344 0.5432145697 0.0000000000
0.8069704382 0.5808473689 -0.0000000000
0.9999749020 0.5980742551 0.0000000000
0.0000000000 0.4143846078 0.0000000000
0.2569350706 0.5638705411 0.0000000000
0.5790804116 0.6433591479 0.0000000000
0.8424942085 0.7054885130 0.0000000000
1.0000000000 0.7402912506 0.0000000000
0.0000000000 0.0000000000 0.1991070233
0.2229181618 0.0001987370 0.2085523909
0.4182554994 0.0000000000 0.2052618431
0.5887299798 -0.0000000000 0.2023295246
0.7200392148 0.0000000000 0.1981574043
-0.0000000000 0.1984027223 0.2471961397
0.2499999998 0.2500000116 0.2499999941
0.4998483878 0.2709265971 0.2438490979
0.7066826622 0.2777286555 0.2407614965
0.8708207863 0.2644019865 0.2300369191
-0.0000000000 0.3377716890 0.2657897700
0.2094208565 0.4245262299 0.2633205357
0.5233984003 0.4663390631 0.2511780400
0.7590604489 0.4885401237 0.2378104385
0.9531343268 0.4914517566 0.2215560285
0.0000000000 0.4311725097 0.2719103686
0.1208851362 0.5629291954 0.2605170025
0.5217545053 0.6274001798 0.2406167216
0.7931593271 0.6733343237 0.2135121580
1.0000000000 0.6919860737 0.1907245349
0.0000000000 0.4865508861 0.2761957239
0.0183773558 0.6511621167 0.2531482563
0.5096601992 0.7425499477 0.2219174263
0.8123008538 0.8142277433 0.1630204736
1.0000000000 0.8623770273 0.1136283523
0.0000149222 0.0000000000 0.3574606278
0.2307845939 -0.0000000000 0.3784242869
0.4212669905 0.0000000000 0.3833167260
0.5932807462 -0.0000000000 0.3856508165
0.7244492985 0.0000000000 0.3881662742
-0.0000000000 0.2071701092 0.4390091692
0.2308074933 0.2607711682 0.4622655328
0.4909464197 0.2831480033 0.4695025499
0.7042692329 0.2943705454 0.4716183956
0.8754967191 0.2818598970 0.4717787601
-0.0000000000 0.3620525526 0.4742294333
0.1297804822 0.4531872036 0.4973531510
0.5000000042 0.4999999820 0.5000000051
0.7496608090 0.5201324739 0.4960997281
0.9509612022 0.5250459058 0.4948569506
-0.0000000000 0.4662142540 0.4944401374
0.0000005910 0.6058191469 0.5135439446
0.4752260952 0.6742817370 0.5145770804
0.7703599825 0.7207789537 0.5032939282
0.9999606105 0.7407669051 0.4946347176
0.0000000000 0.5260970730 0.5078671800
-0.0000000000 0.7008577201 0.5221829958
0.4371927065 0.8009211031 0.5176564033
0.7718086091 0.8797657833 0.4994263649
1.0000000000 0.9312755687 0.4823264487
0.0212018323 0.0000000000 0.4671567878
0.2389510772 0.0000000000 0.5079721824
0.4302117378 0.0000000000 0.5226104620
0.5993768352 0.0000000000 0.5321591022
0.7304533142 0.0000000000 0.5333480815
0.0000000000 0.2057261410 0.5857817983
0.2276172496 0.2608985829 0.6372307927
0.4920713799 0.2823543484 0.6519780023
0.7035258400 0.2928409996 0.6632761141
0.8774510183 0.2760567779 0.6663864872
0.0000000000 0.3730369750 0.6397592103
0.0757909036 0.4711246252 0.6966481143
0.4896739345 0.5153306018 0.7148360603
0.7448859575 0.5377525705 0.7230308371
0.9504914766 0.5452396005 0.7245064648
0.0000000000 0.4877922617 0.6714259014
0.0000000000 0.6318695628 0.7303774375
0.4364142492 0.7032297785 0.7483865453
0.7499999997 0.7500000080 0.7499999955
0.9949103984 0.7717385753 0.7498543457
0.0000000000 0.5466750214 0.6894304544
0.0000000000 0.7303949488 0.7484508156
0.3654337601 0.8375790626 0.7633093250
0.7308348465 0.9224903350 0.7665052127
1.0000000000 0.9781618364 0.7584214841
0.0367587703 0.0000000000 0.5235180338
0.2469337734 0.0000000000 0.5817194207
0.4383035598 0.0000000000 0.6025182445
0.6078639401 0.0000000000 0.6146073652
0.7362344762 0.0000000000 0.6194426800
0.0000000000 0.2088212040 0.6717752169
0.2396132835 0.2591181964 0.7493486945
0.4986736356 0.2825875078 0.7784349505
0.7136653803 0.2818821572 0.7941746930
0.8851925520 0.2770439217 0.8059357877
0.0000000000 0.3847417230 0.7402938655
0.0453614321 0.4808323487 0.8343427608
0.4879842779 0.5291137329 0.8712151535
0.7469202891 0.5536772575 0.8914655474
0.9538662065 0.5606384409 0.9026868469
0.0000000000 0.4996703502 0.7810190447
0.0000000000 0.6468615640 0.8872064298
0.4168526860 0.7242049737 0.9306278642
0.7467760327 0.7750930105 0.9561299286
0.9901146624 0.7980609930 0.9680508836
0.0000000000 0.5542398670 0.7984691042
0.0000000000 0.7466717777 0.9149996364
0.3161922401 0.8580238223 0.9629088339
0.7143444716 0.9452536687 0.9899630613
0.9998917324 0.9998746765 1.0000000000
