2. reversing the negative/print paper LUTs/color/Beyond Print/Fuji Maxima Gloss_color only.cube
LUT_3D_SIZE 33
0.0000000000 0.0001094997 0.0000400663
0.0346703468 0.0021837069 0.0004351376
0.0660555316 0.0028451602 0.0001121106
0.0956962208 0.0037831733 0.0000000000
0.1241574313 0.0050646867 0.0000000000
0.1518581370 0.0047689665 0.0000000000
0.1779125962 0.0034753148 0.0000000000
0.2033060483 0.0020847698 0.0000000000
0.2283544976 0.0007962431 0.0000000000
0.2528092297 0.0000870086 0.0000000000
0.2777566866 0.0000000000 0.0000000000
0.3033023128 0.0000000000 0.0000000000
0.3279961487 0.0000000000 0.0000000000
0.3516842534 0.0000000000 0.0000000000
0.3751365595 0.0000000000 0.0000000000
0.3985416601 0.0000000000 0.0000000000
0.4216911309 0.0000000000 0.0000000000
0.4457539188 0.0000000000 0.0000000000
0.4691627560 0.0000000000 0.0000000000
0.4903877902 0.0000000000 0.0000000000
0.5095375147 0.0000000000 0.0000000000
0.5289013567 0.0000000000 0.0000000000
0.5480553313 0.0000000000 0.0000000000
0.5666441216 0.0000000000 0.0000000000
0.5854049508 0.0000000000 0.0000000000
0.6030612419 0.0000000000 0.0000000000
0.6195066542 0.0000000000 0.0000000000
0.6348528479 0.0000000000 0.0000000000
0.6499436999 0.0000000000 0.0000000000
0.6648641046 0.0000000000 0.0000000000
0.6794971718 0.0000000000 0.0000000000
0.6945212412 0.0000000000 0.0000000000
0.7102087127 0.0000000000 0.0000000000
0.0000000000 0.0227868315 0.0025865468
0.0421158766 0.0306468926 0.0018907191
0.0734041247 0.0327870458 0.0015757021
0.1029384070 0.0342252905 0.0004441584
0.1319333201 0.0353626832 0.0000526606
0.1603684109 0.0357479182 0.0000000000
0.1874486639 0.0353427643 -0.0000000000
0.2138269788 0.0349616966 -0.0000000000
0.2398528423 0.0345765626 0.0000000000
0.2653801501 0.0341387182 -0.0000000000
0.2917483981 0.0335987771 -0.0000000000
0.3189930824 0.0326520323 -0.0000000000
0.3448814426 0.0311801897 -0.0000000000
0.3686656716 0.0292287125 -0.0000000000
0.3918361787 0.0267473622 -0.0000000000
0.4153870313 0.0237387332 0.0000000000
0.4389321127 0.0204675155 0.0000000000
0.4630391602 0.0173982273 0.0000000000
0.4859641572 0.0149060908 0.0000000000
0.5076845795 0.0116715533 0.0000000000
0.5277504432 0.0078750939 0.0000000000
0.5482264409 0.0027272291 -0.0000000000
0.5690639277 -0.0000000000 -0.0000000000
0.5886919337 -0.0000000000 -0.0000000000
0.6077866803 0.0000000000 0.0000000000
0.6257556963 0.0000000000 0.0000000000
0.6425630140 0.0000000000 0.0000000000
0.6584799123 -0.0000000000 -0.0000000000
0.6745187234 -0.0000000000 -0.0000000000
0.6903416048 0.0000000000 0.0000000000
0.7054929643 0.0000000000 0.0000000000
0.7208998754 0.0000000000 0.0000000000
0.7369076173 0.0000000000 0.0000000000
0.0000000000 0.0458767364 0.0045388325
0.0353738381 0.0522077974 0.0038445682
0.0770853381 0.0579282646 0.0028650363
0.1078132773 0.0601510059 0.0018022725
0.1385249277 0.0621331415 0.0004612855
0.1682440188 0.0634631281 0.0000443233
0.1958723849 0.0643411688 0.0000000000
0.2227946043 0.0651761161 -0.0000000000
0.2495520928 0.0659392713 -0.0000000000
0.2762452482 0.0664529530 -0.0000000000
0.3041191495 0.0667831041 -0.0000000000
0.3327035138 0.0668270259 -0.0000000000
0.3593952065 0.0663534020 0.0000000000
0.3837325091 0.0651371451 -0.0000000000
0.4073619784 0.0631910054 0.0000000000
0.4313151258 0.0606682218 -0.0000000000
0.4553794789 0.0577655910 -0.0000000000
0.4788557859 0.0549441208 -0.0000000000
0.5016420734 0.0524180592 -0.0000000000
0.5236731131 0.0495942093 -0.0000000000
0.5444413753 0.0457509032 0.0000000000
0.5660916860 0.0401305111 -0.0000000000
0.5880090456 0.0328824912 -0.0000000000
0.6084142996 0.0252262342 -0.0000000000
0.6285497917 0.0183057893 0.0000000000
0.6470807205 0.0125974746 -0.0000000000
0.6642665085 0.0069737688 -0.0000000000
0.6804533404 0.0047327497 0.0000000000
0.6968997231 0.0037515302 -0.0000000000
0.7133977598 0.0027636667 -0.0000000000
0.7294173831 0.0014851212 -0.0000000000
0.7455315706 0.0004114810 -0.0000000000
0.7620891970 0.0000000000 0.0000000000
0.0000000000 0.0673358600 0.0068123696
0.0279378971 0.0733881396 0.0053589313
0.0724335433 0.0792071045 0.0036613193
0.1105967741 0.0838889879 0.0018824747
0.1425429270 0.0865218546 0.0007869840
0.1736335507 0.0885144853 0.0001193749
0.2021706930 0.0900321564 0.0000000005
0.2296330281 0.0915960098 0.0000000000
0.2569339599 0.0931918587 0.0000000000
0.2843839397 0.0945791128 -0.0000000000
0.3135888508 0.0957182089 -0.0000000000
0.3435148649 0.0967061241 -0.0000000000
0.3708283672 0.0973604396 -0.0000000000
0.3956146993 0.0972898761 0.0000000000
0.4200891376 0.0963784824 0.0000000000
0.4448223823 0.0946580301 0.0000000000
0.4690751491 0.0924446815 -0.0000000000
0.4923079740 0.0903859806 0.0000000000
0.5151701513 0.0885996829 -0.0000000000
0.5375614504 0.0870695913 -0.0000000000
0.5587928074 0.0848413999 -0.0000000000
0.5812862785 0.0811221951 -0.0000000000
0.6033526464 0.0759264202 -0.0000000000
0.6246569296 0.0694798230 0.0000000000
0.6457727262 0.0623376845 0.0000000000
0.6651304558 0.0561799451 0.0000000000
0.6827905812 0.0510859289 -0.0000000000
0.6993134045 0.0461387738 0.0000000000
0.7161975874 0.0417339557 0.0000000000
0.7332213025 0.0363175339 -0.0000000000
0.7497436341 0.0293231742 0.0000000000
0.7664355264 0.0209568067 0.0000000000
0.7835178806 0.0145600106 0.0000000000
0.0000000000 0.0869773477 0.0079598336
0.0200883434 0.0940853933 0.0065519660
0.0663675541 0.1005864928 0.0041047950
0.1084847814 0.1058792151 0.0017456988
0.1448792396 0.1099103853 0.0004627112
0.1770621685 0.1123359155 0.0001144841
0.2066671747 0.1141483377 0.0000000014
0.2347923712 0.1159399774 0.0000000000
0.2626129843 0.1178945953 0.0000000000
0.2905818467 0.1198799053 0.0000000000
0.3204738576 0.1217531184 0.0000000000
0.3514263494 0.1234684542 -0.0000000000
0.3795686511 0.1249552585 -0.0000000000
0.4050086926 0.1258583463 0.0000000000
0.4302664114 0.1260270054 0.0000000000
0.4558008773 0.1252731116 0.0000000000
0.4800151785 0.1237283190 0.0000000000
0.5035263510 0.1221201273 0.0000000000
0.5267165826 0.1208390324 0.0000000000
0.5495595130 0.1200274033 0.0000000000
0.5714640842 0.1188783827 0.0000000000
0.5941022268 0.1166756741 -0.0000000000
0.6163649855 0.1133609974 -0.0000000000
0.6379873328 0.1090406198 -0.0000000000
0.6597227858 0.1037997126 0.0000000000
0.6799687992 0.0988532343 0.0000000000
0.6982862471 0.0949871782 0.0000000000
0.7153916896 0.0917591955 0.0000000000
0.7328429940 0.0881511561 0.0000000000
0.7503573114 0.0832849629 0.0000000000
0.7672319446 0.0768164659 0.0000000000
0.7841691043 0.0680630432 0.0000000000
0.8015697085 0.0574067607 0.0000000000
0.0000000000 0.1061318066 0.0081402361
0.0113030021 0.1143092532 0.0067450812
0.0585510949 0.1216175029 0.0041911976
0.1049192728 0.1273816405 0.0015213566
0.1441374764 0.1320045999 0.0003334224
0.1799262128 0.1356344722 0.0000000114
0.2108007020 0.1377211979 0.0000000013
0.2397038879 0.1396664392 0.0000000000
0.2678476895 0.1417579418 0.0000000000
0.2961203795 0.1439928797 0.0000000000
0.3263587612 0.1463757196 0.0000000000
0.3577496167 0.1487351482 0.0000000000
0.3865954215 0.1508818791 -0.0000000000
0.4129164568 0.1526044976 0.0000000000
0.4389309793 0.1537687630 0.0000000000
0.4650032240 0.1541578385 0.0000000000
0.4892244024 0.1536408240 0.0000000000
0.5131624801 0.1525918284 0.0000000000
0.5369499002 0.1515831739 0.0000000000
0.5604221318 0.1510383291 0.0000000000
0.5829665763 0.1503745116 0.0000000000
0.6055408291 0.1490458866 -0.0000000000
0.6280353129 0.1469708251 -0.0000000000
0.6498944366 0.1441554056 -0.0000000000
0.6719023705 0.1405821428 0.0000000000
0.6925577824 0.1367847894 0.0000000000
0.7116838628 0.1333331300 0.0000000000
0.7296408331 0.1304980790 0.0000000000
0.7476788464 0.1277809648 0.0000000000
0.7657388215 0.1245435942 0.0000000000
0.7830322588 0.1202651059 0.0000000000
0.8002011850 0.1141014744 0.0000000000
0.8177851475 0.1051820699 0.0000000000
0.0000000000 0.1251809468 0.0081196460
0.0026149174 0.1335402652 0.0061247654
0.0492848699 0.1413944083 0.0035822863
0.0999804678 0.1476217192 0.0011454589
0.1424631464 0.1527201409 0.0002131983
0.1801164202 0.1570857531 0.0000000058
0.2146550514 0.1605101781 0.0000000000
0.2446242735 0.1626532863 0.0000000000
0.2731786911 0.1648575125 0.0000000000
0.3014932762 0.1671862520 0.0000000000
0.3318534659 0.1697513720 0.0000000000
0.3634343413 0.1725156321 -0.0000000000
0.3926344183 0.1751578268 -0.0000000000
0.4197017850 0.1774817884 0.0000000000
0.4463922339 0.1794949302 0.0000000000
0.4727764283 0.1809646955 0.0000000000
0.4972186993 0.1816224588 0.0000000000
0.5215659936 0.1813989096 0.0000000000
0.5460272177 0.1807553318 0.0000000000
0.5703361820 0.1802494687 0.0000000000
0.5932091104 0.1797836803 0.0000000000
0.6159054751 0.1789590319 0.0000000000
0.6386290023 0.1776809664 -0.0000000000
0.6607567923 0.1759286678 0.0000000000
0.6829632988 0.1735895357 -0.0000000000
0.7038299707 0.1709065144 0.0000000000
0.7234543187 0.1681421948 0.0000000000
0.7421049636 0.1654634083 0.0000000000
0.7609292660 0.1630261781 0.0000000000
0.7794887134 0.1605529431 0.0000000000
0.7972368183 0.1576483928 0.0000000000
0.8149245050 0.1535630946 -0.0000000000
0.8328245672 0.1470866246 0.0000000000
0.0000000000 0.1439610693 0.0080496108
0.0000000000 0.1521575240 0.0052205729
0.0396263657 0.1601198575 0.0024352421
0.0940030946 0.1667950916 0.0007203854
0.1396278266 0.1724778793 0.0000558775
0.1792528726 0.1775628606 0.0000000015
0.2150850983 0.1818364566 0.0000000000
0.2485140137 0.1851853176 0.0000000000
0.2776836281 0.1875249772 0.0000000000
0.3062340041 0.1899543292 0.0000000000
0.3366024228 0.1926315631 -0.0000000000
0.3683864109 0.1955387415 -0.0000000000
0.3979752833 0.1984525844 -0.0000000000
0.4256356637 0.2011505312 0.0000000000
0.4529006435 0.2037071327 0.0000000000
0.4794730847 0.2060395085 0.0000000000
0.5043788747 0.2077759184 0.0000000000
0.5292432367 0.2085055489 0.0000000000
0.5543788992 0.2084914642 0.0000000000
0.5796160353 0.2082041378 0.0000000000
0.6026833470 0.2078387223 -0.0000000000
0.6256035919 0.2073892556 -0.0000000000
0.6485369166 0.2066622526 -0.0000000000
0.6708329249 0.2056168299 0.0000000000
0.6932980089 0.2041189642 -0.0000000000
0.7144288065 0.2022147865 -0.0000000000
0.7344248984 0.2001444821 0.0000000000
0.7534204095 0.1979728093 0.0000000000
0.7728630480 0.1957286454 0.0000000000
0.7920107915 0.1937401768 0.0000000000
0.8102732244 0.1917876106 0.0000000000
0.8284638723 0.1893244963 0.0000000000
0.8469579933 0.1852611251 0.0000000000
0.0000000000 0.1616309108 0.0075649066
0.0000000000 0.1700608214 0.0041674034
0.0320943181 0.1780623056 0.0013496717
0.0876449723 0.1850846856 0.0003107934
0.1360498449 0.1912966456 0.0000000068
0.1773478513 0.1970598074 0.0000000000
0.2143885525 0.2020999048 -0.0000000000
0.2489092435 0.2062606990 0.0000000000
0.2807808315 0.2094355309 -0.0000000000
0.3097303469 0.2119687152 0.0000000000
0.3402625996 0.2147756159 0.0000000000
0.3722865591 0.2177898371 -0.0000000000
0.4024119656 0.2207509843 -0.0000000000
0.4307271959 0.2236153287 0.0000000000
0.4585067392 0.2264329130 0.0000000000
0.4851958904 0.2291863606 0.0000000000
0.5106098082 0.2316725677 0.0000000000
0.5361881074 0.2333446296 0.0000000000
0.5620892071 0.2341432351 0.0000000000
0.5881459472 0.2344051894 0.0000000000
0.6114800707 0.2343652252 -0.0000000000
0.6347412826 0.2341754433 -0.0000000000
0.6578169510 0.2338438513 -0.0000000000
0.6802021001 0.2332816147 0.0000000000
0.7027254418 0.2323062452 0.0000000000
0.7243148790 0.2309605646 0.0000000000
0.7446248465 0.2293811805 0.0000000000
0.7639372057 0.2277016925 -0.0000000000
0.7835959785 0.2259173660 0.0000000000
0.8033279571 0.2242123527 0.0000000000
0.8220818408 0.2228370216 0.0000000000
0.8408138246 0.2214812605 0.0000000000
0.8598869721 0.2193440637 0.0000000000
0.0000000000 0.1780515157 0.0066855041
-0.0000000000 0.1871356790 0.0027749608
0.0230954531 0.1955228078 0.0006981258
0.0809461111 0.2028910988 0.0000371958
0.1323881644 0.2095547833 0.0000000019
0.1750161685 0.2158176118 0.0000000000
0.2130194197 0.2214859394 -0.0000000000
0.2485226099 0.2263427173 -0.0000000000
0.2814332692 0.2302071460 -0.0000000000
0.3122537183 0.2332356248 -0.0000000000
0.3431070052 0.2361287201 -0.0000000000
0.3753989741 0.2392380866 -0.0000000000
0.4060822902 0.2422025875 -0.0000000000
0.4350731094 0.2450340245 -0.0000000000
0.4633686327 0.2479485642 0.0000000000
0.4901512130 0.2508649089 0.0000000000
0.5159454691 0.2536500414 0.0000000000
0.5422780311 0.2560725689 -0.0000000000
0.5690989073 0.2577695078 -0.0000000000
0.5957876523 0.2587925913 -0.0000000000
0.6195818599 0.2593432974 -0.0000000000
0.6433316096 0.2595373335 -0.0000000000
0.6666279426 0.2594776500 -0.0000000000
0.6890429168 0.2592458204 0.0000000000
0.7115607554 0.2586226829 0.0000000000
0.7334188027 0.2576601951 0.0000000000
0.7541006272 0.2564420481 0.0000000000
0.7737156580 0.2551302394 -0.0000000000
0.7936177768 0.2537059612 -0.0000000000
0.8135859664 0.2523604188 0.0000000000
0.8328875767 0.2513415068 -0.0000000000
0.8521737121 0.2505524271 -0.0000000000
0.8718199618 0.2495383857 0.0000000000
0.0000000000 0.1945107095 0.0060724333
-0.0000000000 0.2044233084 0.0016749522
0.0125579693 0.2135027786 0.0002532491
0.0728967318 0.2214332279 0.0000000013
0.1284469044 0.2285509496 0.0000000007
0.1726855058 0.2352229172 0.0000000000
0.2114209734 0.2413942251 -0.0000000000
0.2477943100 0.2468718641 -0.0000000000
0.2817210329 0.2513633122 0.0000000000
0.3135961310 0.2549701840 0.0000000000
0.3457082740 0.2582124445 0.0000000000
0.3783705645 0.2613693497 -0.0000000000
0.4095945544 0.2643484074 -0.0000000000
0.4391175087 0.2671594554 -0.0000000000
0.4679359997 0.2700453591 0.0000000000
0.4948765220 0.2730757523 0.0000000000
0.5210130606 0.2760719025 0.0000000000
0.5479830309 0.2789513507 0.0000000000
0.5757755187 0.2814666688 -0.0000000000
0.6030554318 0.2833729844 -0.0000000000
0.6275156984 0.2846442547 0.0000000000
0.6518989225 0.2854628409 -0.0000000000
0.6756250325 0.2858376959 -0.0000000000
0.6981516650 0.2858729485 0.0000000000
0.7207572915 0.2855505429 0.0000000000
0.7427759632 0.2849030463 0.0000000000
0.7636345880 0.2840015575 0.0000000000
0.7834876204 0.2829221240 -0.0000000000
0.8036939306 0.2817268330 -0.0000000000
0.8239181909 0.2806004215 0.0000000000
0.8435049797 0.2797909813 0.0000000000
0.8634481674 0.2794990751 -0.0000000000
0.8838498347 0.2791775240 0.0000000000
0.0000000000 0.2108995999 0.0053424488
0.0000000000 0.2222313942 0.0011768735
0.0060480817 0.2321457831 0.0001204501
0.0641734556 0.2407689232 0.0000000000
0.1239842773 0.2484166319 0.0000000000
0.1702951143 0.2554670259 0.0000000000
0.2100990093 0.2620039332 0.0000000000
0.2473424755 0.2680077524 0.0000000000
0.2823607630 0.2731263119 0.0000000000
0.3153026661 0.2773074716 0.0000000000
0.3484290635 0.2810866654 -0.0000000000
0.3817075404 0.2846358771 0.0000000000
0.4133939468 0.2876430918 0.0000000000
0.4432913819 0.2904757678 0.0000000000
0.4723999970 0.2933877793 0.0000000000
0.4995652160 0.2964975305 0.0000000000
0.5260531197 0.2997576301 0.0000000000
0.5536095682 0.3030794435 0.0000000000
0.5822287822 0.3062117231 0.0000000000
0.6100836659 0.3089493308 0.0000000000
0.6353256888 0.3109960593 0.0000000000
0.6604003805 0.3125077150 -0.0000000000
0.6847132995 0.3134854535 0.0000000000
0.7075707114 0.3139412247 0.0000000000
0.7305481490 0.3139296074 0.0000000000
0.7527354103 0.3136036492 0.0000000000
0.7737405525 0.3130159668 0.0000000000
0.7936968944 0.3122089441 0.0000000000
0.8141041677 0.3111177236 0.0000000000
0.8345227077 0.3099164688 0.0000000000
0.8543465377 0.3089268310 0.0000000000
0.8744034940 0.3083526937 -0.0000000000
0.8955481870 0.3085332433 0.0000000000
0.0000000000 0.2256957733 0.0034651166
0.0000000000 0.2389918415 0.0006591903
0.0045581313 0.2500794822 0.0000056400
0.0584518737 0.2594037302 0.0000000000
0.1193306629 0.2675747912 0.0000000000
0.1676832691 0.2750007788 0.0000000000
0.2088741110 0.2818150332 -0.0000000000
0.2472768297 0.2881503748 0.0000000000
0.2835210882 0.2937770975 -0.0000000000
0.3176526455 0.2985534324 0.0000000000
0.3517463924 0.3028641097 -0.0000000000
0.3857651792 0.3069506745 -0.0000000000
0.4175530525 0.3104485977 0.0000000000
0.4475776606 0.3133048829 0.0000000000
0.4766474541 0.3162336929 -0.0000000000
0.5039876213 0.3193638739 0.0000000000
0.5307247662 0.3227782724 -0.0000000000
0.5587890180 0.3264692625 -0.0000000000
0.5880586200 0.3300785693 -0.0000000000
0.6162808376 0.3333410707 0.0000000000
0.6421932545 0.3359657742 -0.0000000000
0.6679135348 0.3380267411 -0.0000000000
0.6928283387 0.3395341306 -0.0000000000
0.7162070844 0.3404801328 0.0000000000
0.7398461494 0.3408954622 0.0000000000
0.7623719399 0.3408937745 0.0000000000
0.7835459712 0.3406101381 0.0000000000
0.8036607442 0.3400915823 0.0000000000
0.8242150373 0.3392501493 0.0000000000
0.8448256267 0.3380486049 0.0000000000
0.8647594371 0.3366426768 -0.0000000000
0.8847617360 0.3352604816 0.0000000000
0.9055526345 0.3344649556 0.0000000000
0.0000000000 0.2395902830 0.0013834980
0.0000000000 0.2543275070 0.0003291193
0.0028233165 0.2667685937 0.0000000053
0.0510319343 0.2768514886 0.0000000000
0.1133106238 0.2855029620 0.0000000000
0.1643840977 0.2932876820 0.0000000000
0.2070586232 0.3003606954 -0.0000000000
0.2467103853 0.3069392187 -0.0000000000
0.2842780839 0.3128959133 -0.0000000000
0.3197002927 0.3181385658 -0.0000000000
0.3547652092 0.3229189155 -0.0000000000
0.3894194340 0.3274300857 -0.0000000000
0.4216784478 0.3314160982 -0.0000000000
0.4516766148 0.3346853947 -0.0000000000
0.4806222840 0.3375207476 -0.0000000000
0.5081030690 0.3405761618 0.0000000000
0.5349901405 0.3438739370 0.0000000000
0.5633523686 0.3475730349 -0.0000000000
0.5931129675 0.3513495695 -0.0000000000
0.6215632703 0.3548586131 -0.0000000000
0.6478471215 0.3577198565 -0.0000000000
0.6740732741 0.3601099591 -0.0000000000
0.6995661080 0.3620142088 -0.0000000000
0.7236152921 0.3633808620 -0.0000000000
0.7479847984 0.3642513488 0.0000000000
0.7710254342 0.3646279636 0.0000000000
0.7924732944 0.3646213769 0.0000000000
0.8127850492 0.3643498901 -0.0000000000
0.8335157451 0.3637949378 -0.0000000000
0.8544159489 0.3628922106 0.0000000000
0.8746046588 0.3615952077 -0.0000000000
0.8946234906 0.3597953778 -0.0000000000
0.9148496692 0.3579353290 0.0000000000
0.0000000000 0.2536238730 0.0000000454
0.0000000000 0.2692399190 0.0000000174
0.0008456146 0.2829783549 0.0000000026
0.0404309141 0.2939996236 0.0000000000
0.1052104374 0.3030958793 0.0000000000
0.1600699990 0.3111577615 0.0000000000
0.2045143912 0.3183853401 -0.0000000000
0.2454478462 0.3250783886 0.0000000000
0.2843256568 0.3312062527 0.0000000000
0.3212053165 0.3366949224 -0.0000000000
0.3574982409 0.3418217384 -0.0000000000
0.3928303134 0.3466130243 -0.0000000000
0.4254675619 0.3508920322 0.0000000000
0.4557497907 0.3545113409 0.0000000000
0.4845615510 0.3576818605 0.0000000000
0.5121592104 0.3605594837 0.0000000000
0.5393069424 0.3637889316 0.0000000000
0.5678202275 0.3674390323 -0.0000000000
0.5977940498 0.3713564115 -0.0000000000
0.6264171998 0.3751267073 0.0000000000
0.6529868869 0.3782472874 -0.0000000000
0.6795430160 0.3809140637 -0.0000000000
0.7054943949 0.3831503801 -0.0000000000
0.7303001360 0.3849241125 0.0000000000
0.7553486925 0.3862483368 0.0000000000
0.7789611624 0.3870362892 0.0000000000
0.8008387203 0.3873472984 0.0000000000
0.8214471920 0.3872964594 -0.0000000000
0.8424294734 0.3869626665 0.0000000000
0.8636762730 0.3863393430 0.0000000000
0.8842078501 0.3853752918 0.0000000000
0.9044011455 0.3838698366 0.0000000000
0.9243902977 0.3815262081 0.0000000000
0.0000000000 0.2679465694 0.0000000000
0.0000000000 0.2842033099 0.0000000000
0.0000037776 0.2989071872 0.0000000000
0.0283772585 0.3109622383 0.0000000000
0.0939670298 0.3205759883 0.0000000000
0.1545104397 0.3286925450 0.0000000000
0.2011118512 0.3358393742 -0.0000000000
0.2432925035 0.3423796033 -0.0000000000
0.2833399595 0.3484093098 0.0000000000
0.3215847681 0.3539388198 -0.0000000000
0.3594163231 0.3592976494 -0.0000000000
0.3957339679 0.3645524627 -0.0000000000
0.4287921463 0.3692698566 -0.0000000000
0.4594097222 0.3733221702 0.0000000000
0.4882169761 0.3769653061 0.0000000000
0.5161309301 0.3803286562 0.0000000000
0.5436207616 0.3836406147 0.0000000000
0.5724175496 0.3872931785 0.0000000000
0.6022996968 0.3911627055 -0.0000000000
0.6310556332 0.3949909310 0.0000000000
0.6578210146 0.3982630667 -0.0000000000
0.6846273830 0.4011313467 -0.0000000000
0.7108799030 0.4035931173 -0.0000000000
0.7363440035 0.4056640797 -0.0000000000
0.7620738903 0.4074182056 0.0000000000
0.7863029804 0.4086400096 0.0000000000
0.8087062547 0.4093013796 0.0000000000
0.8296954886 0.4094957602 0.0000000000
0.8510504630 0.4093845671 -0.0000000000
0.8726851920 0.4090342058 0.0000000000
0.8935220311 0.4084151329 -0.0000000000
0.9138381498 0.4074139937 0.0000000000
0.9341778149 0.4058775967 0.0000000000
0.0000000000 0.2813432196 0.0000000000
0.0000000000 0.2983557764 0.0000000000
0.0000027652 0.3139980880 0.0000000000
0.0211649022 0.3270158396 -0.0000000000
0.0844664789 0.3371676474 -0.0000000000
0.1482668787 0.3450905452 -0.0000000000
0.1971532947 0.3518211784 0.0000000000
0.2403949694 0.3581928595 0.0000000000
0.2812335732 0.3643089928 0.0000000000
0.3203703112 0.3701139830 0.0000000000
0.3594965259 0.3758617780 0.0000000000
0.3972811109 0.3815782225 -0.0000000000
0.4311158149 0.3867904426 0.0000000000
0.4622310297 0.3912222254 0.0000000000
0.4912651657 0.3952709502 0.0000000000
0.5195445959 0.3990292349 0.0000000000
0.5475896290 0.4027252749 0.0000000000
0.5767961981 0.4065016320 0.0000000000
0.6066927896 0.4104739703 0.0000000000
0.6355431181 0.4143684854 0.0000000000
0.6624095939 0.4176763472 -0.0000000000
0.6893824522 0.4206054127 -0.0000000000
0.7158661936 0.4231951625 -0.0000000000
0.7417393215 0.4254267190 0.0000000000
0.7680399424 0.4274854742 0.0000000000
0.7929238302 0.4291318669 -0.0000000000
0.8158894694 0.4301719157 -0.0000000000
0.8372913572 0.4306195711 0.0000000000
0.8591341220 0.4307305208 0.0000000000
0.8812434017 0.4306733283 0.0000000000
0.9023647586 0.4304279658 0.0000000000
0.9228102710 0.4299065910 -0.0000000000
0.9432846624 0.4290381293 0.0000000000
0.0000000000 0.2942887468 0.0000000000
-0.0000000000 0.3121959616 -0.0000000000
0.0000022014 0.3285503696 -0.0000000000
0.0170657462 0.3419963558 -0.0000000000
0.0761011842 0.3525918320 -0.0000000000
0.1414010366 0.3608722119 -0.0000000000
0.1929949916 0.3677411444 -0.0000000000
0.2373878093 0.3741847658 -0.0000000000
0.2788358826 0.3804181380 -0.0000000000
0.3185036862 0.3864289285 -0.0000000000
0.3584725072 0.3925283801 0.0000000000
0.3975226410 0.3987026402 -0.0000000000
0.4326549691 0.4044152786 -0.0000000000
0.4644486241 0.4093913429 0.0000000000
0.4938106803 0.4138254384 0.0000000000
0.5225060419 0.4179644192 0.0000000000
0.5511083464 0.4219325160 0.0000000000
0.5810524632 0.4261580283 0.0000000000
0.6111177249 0.4303399425 0.0000000000
0.6401878105 0.4344640070 -0.0000000000
0.6671453814 0.4378341290 -0.0000000000
0.6941431500 0.4406728352 0.0000000000
0.7207494821 0.4432866767 -0.0000000000
0.7469484518 0.4456281361 -0.0000000000
0.7734560091 0.4478160804 -0.0000000000
0.7988122722 0.4497713995 -0.0000000000
0.8224194402 0.4512269738 -0.0000000000
0.8443766634 0.4520202824 -0.0000000000
0.8668389882 0.4524348906 -0.0000000000
0.8894569689 0.4527361040 -0.0000000000
0.9108835045 0.4529368979 -0.0000000000
0.9316310144 0.4529108020 -0.0000000000
0.9523523718 0.4525937343 0.0000000000
0.0000000000 0.3065459999 0.0000000000
-0.0000000000 0.3254360028 -0.0000000000
0.0000015739 0.3418685985 -0.0000000000
0.0124241949 0.3555735039 -0.0000000000
0.0668846704 0.3668817689 -0.0000000000
0.1340877239 0.3760103741 0.0000000000
0.1888749152 0.3834339073 0.0000000000
0.2346531650 0.3901693000 0.0000000000
0.2767664815 0.3966415305 -0.0000000000
0.3167706851 0.4029000571 -0.0000000000
0.3571686242 0.4093181703 0.0000000000
0.3970464709 0.4159073880 0.0000000000
0.4333282299 0.4220344146 -0.0000000000
0.4660520399 0.4274279165 -0.0000000000
0.4959047047 0.4323846462 0.0000000000
