2. reversing the negative/print paper LUTs/color/Beyond Print/FujiFlex_color only.cube
LUT_3D_SIZE 33
0.0001133963 0.0000000000 0.0001131370
0.0332977152 0.0019797032 0.0071191565
0.0629871365 0.0045717557 0.0144995708
0.0876288754 0.0081189714 0.0191531975
0.1134705081 0.0087506644 0.0230445100
0.1435017789 0.0085110223 0.0233286842
0.1744514983 0.0072203820 0.0232912949
0.2072316176 0.0050265828 0.0223695091
0.2375251701 0.0022256037 0.0208751973
0.2648646409 0.0000219690 0.0192734648
0.2903885226 0.0000000000 0.0162747524
0.3177655166 0.0000000000 0.0128498888
0.3453922634 0.0000000000 0.0090257840
0.3720395544 0.0000000000 0.0055029591
0.3979808706 0.0000000000 0.0020918511
0.4232269894 0.0000000000 0.0000000000
0.4476080942 0.0000000000 0.0000000000
0.4712801399 0.0000000000 0.0000000000
0.4944145424 0.0000000000 0.0000000000
0.5167452986 0.0000000000 0.0000000000
0.5378974021 0.0000000000 0.0000000000
0.5576628183 0.0000000000 0.0000000000
0.5758037318 0.0000000000 0.0000000000
0.5919859735 0.0000000000 0.0000000000
0.6085182550 0.0000000000 0.0000000000
0.6246456476 0.0000000000 0.0000000000
0.6406851285 0.0000000000 0.0000000000
0.6553426382 0.0000000000 0.0000000000
0.6689536995 0.0000000000 0.0000000000
0.6815318700 0.0000000000 0.0000000000
0.6933733109 0.0000000000 0.0000000000
0.7048108312 0.0000000000 0.0000000000
0.7162875989 0.0000000000 0.0000000000
0.0000146621 0.0260686620 0.0131322321
0.0324205189 0.0291193901 0.0109603315
0.0633146428 0.0313160873 0.0183587040
0.0936727907 0.0338169414 0.0229918199
0.1211756532 0.0349231236 0.0268179431
0.1517130269 0.0355122744 0.0261781904
0.1835834536 0.0363339092 0.0260833385
0.2170973445 0.0367796924 0.0250242772
0.2473434973 0.0352143457 0.0229189574
0.2755247355 0.0348206500 0.0213138586
0.3032064313 0.0334201705 0.0186931020
0.3317376476 0.0313331704 0.0154361066
0.3601005471 0.0281715475 0.0117629536
0.3861296656 0.0244191318 0.0079897617
0.4121948147 0.0202645220 0.0041884084
0.4381148696 0.0150467781 0.0010778006
0.4636908844 0.0093216989 0.0000000000
0.4889773602 0.0031660806 0.0000000000
0.5124417151 0.0000000000 0.0000000000
0.5352523226 0.0000000000 0.0000000000
0.5569827966 0.0000000000 0.0000000000
0.5774244059 0.0000000000 0.0000000000
0.5962023641 0.0000000000 0.0000000000
0.6132708847 0.0000000000 0.0000000000
0.6300270365 0.0000000000 0.0000000000
0.6474289850 0.0000000000 0.0000000000
0.6635316997 0.0000000000 0.0000000000
0.6788132798 0.0000000000 0.0000000000
0.6924667174 0.0000000000 0.0000000000
0.7051162596 0.0000000000 0.0000000000
0.7171686245 0.0000000000 0.0000000000
0.7288166934 0.0000000000 0.0000000000
0.7402229986 0.0000000000 0.0000000000
0.0000000000 0.0501291540 0.0266063118
0.0256135447 0.0536797163 0.0229307843
0.0637875405 0.0580119608 0.0230793963
0.0980630169 0.0618325197 0.0275398440
0.1299219271 0.0646663493 0.0310976959
0.1614505618 0.0663454558 0.0299727423
0.1941141346 0.0682506320 0.0291540782
0.2284824378 0.0700649155 0.0277272059
0.2593166168 0.0705462179 0.0253396616
0.2873159496 0.0707316669 0.0230402311
0.3166969977 0.0711182772 0.0204085850
0.3469192017 0.0707945207 0.0171202856
0.3765652823 0.0694097165 0.0134260604
0.4023186353 0.0666602189 0.0094431486
0.4276151293 0.0634058687 0.0052924751
0.4541058613 0.0598925768 0.0016142858
0.4804489315 0.0560183113 0.0000000000
0.5073075146 0.0516379627 0.0000000000
0.5320588262 0.0468714680 0.0000000000
0.5553156666 0.0421914055 0.0000000000
0.5775581090 0.0374613661 0.0000000000
0.5987756939 0.0325785689 0.0000000000
0.6180881259 0.0271967138 0.0000000000
0.6358887930 0.0214299964 0.0000000000
0.6534758298 0.0139707992 0.0000000000
0.6712251080 0.0047316207 0.0000000000
0.6886833107 0.0000000000 0.0000000000
0.7038884688 0.0000000000 0.0000000000
0.7180810225 0.0000000000 0.0000000000
0.7309432438 0.0000000000 0.0000000000
0.7431935133 0.0000000000 0.0000000000
0.7551890443 0.0000000000 0.0000000000
0.7670251143 0.0000000000 0.0000000000
0.0000000000 0.0702978543 0.0352032122
0.0166607244 0.0755320981 0.0324208042
0.0601429201 0.0818671815 0.0288801199
0.0997621351 0.0869638197 0.0302450804
0.1355252294 0.0914254588 0.0335728041
0.1690936104 0.0942008823 0.0321497878
0.2024380721 0.0967306744 0.0306800190
0.2374596185 0.0995351517 0.0288068869
0.2694980454 0.1014928004 0.0264596020
0.2975911356 0.1024162007 0.0235614604
0.3272001911 0.1040077939 0.0207059489
0.3588157578 0.1050682337 0.0172651390
0.3894394214 0.1052435647 0.0133758757
0.4163852716 0.1040566594 0.0092849771
0.4417242405 0.1017883353 0.0046237971
0.4684710187 0.0993444292 0.0010056726
0.4951040269 0.0968556563 0.0000000000
0.5226301886 0.0944113421 0.0000000000
0.5489548698 0.0920605592 0.0000000000
0.5728420138 0.0892400231 0.0000000000
0.5956443964 0.0862011841 0.0000000000
0.6171366660 0.0831250537 0.0000000000
0.6368721027 0.0794552168 0.0000000000
0.6547848909 0.0755714809 0.0000000000
0.6730977491 0.0711186420 0.0000000000
0.6908832937 0.0650501670 0.0000000000
0.7085620768 0.0589529469 0.0000000000
0.7245785244 0.0515649398 0.0000000000
0.7390227685 0.0437965199 0.0000000000
0.7525477767 0.0359378530 0.0000000000
0.7654128995 0.0271947837 0.0000000000
0.7778071663 0.0168781745 0.0000000000
0.7900598670 0.0047089243 0.0000000000
0.0000000000 0.0893162359 0.0398322362
0.0056186119 0.0962636362 0.0377603921
0.0532976930 0.1040694912 0.0348655608
0.0988348959 0.1099245286 0.0328181857
0.1377595710 0.1154136546 0.0345660295
0.1738385765 0.1191303054 0.0328490056
0.2085037123 0.1224033535 0.0309727478
0.2438741510 0.1255045080 0.0284528854
0.2768295016 0.1284051534 0.0259873271
0.3057990760 0.1303616627 0.0229739706
0.3353366098 0.1324950164 0.0200780463
0.3672705591 0.1344984446 0.0162246663
0.3983611904 0.1352707564 0.0121807788
0.4263448917 0.1351953721 0.0076954554
0.4531723639 0.1340847037 0.0032068963
0.4806099724 0.1325063000 0.0000000000
0.5076554338 0.1307469707 0.0000000000
0.5352373990 0.1287028021 0.0000000000
0.5620654674 0.1276482122 0.0000000000
0.5873344927 0.1266512888 0.0000000000
0.6103516489 0.1248055423 0.0000000000
0.6324866130 0.1228279321 0.0000000000
0.6523060664 0.1203057309 0.0000000000
0.6703262193 0.1168556837 0.0000000000
0.6886714336 0.1136818196 0.0000000000
0.7066250472 0.1088898995 0.0000000000
0.7245485335 0.1043241298 0.0000000000
0.7408065694 0.0993923789 0.0000000000
0.7557273992 0.0942672446 0.0000000000
0.7696063873 0.0893961520 0.0000000000
0.7830308937 0.0845669450 0.0000000000
0.7963156690 0.0795017785 0.0000000000
0.8088068044 0.0731960580 0.0000000000
0.0000000000 0.1090123763 0.0437168339
0.0000000000 0.1168772924 0.0411902668
0.0457508532 0.1257610987 0.0390886284
0.0948121364 0.1326916881 0.0372371489
0.1385582999 0.1383725228 0.0352613604
0.1765923902 0.1429075149 0.0330066894
0.2133967325 0.1464638962 0.0304861053
0.2492301348 0.1496933353 0.0271657023
0.2825451214 0.1533104138 0.0245093353
0.3124818314 0.1561458072 0.0215879019
0.3419968908 0.1589767312 0.0182378490
0.3739034333 0.1613419671 0.0141992495
0.4054997473 0.1630444223 0.0096937181
0.4345216456 0.1637388712 0.0051535032
0.4626504008 0.1636406388 0.0017284214
0.4909573489 0.1628872774 0.0000000000
0.5186699774 0.1616977590 0.0000000000
0.5465189696 0.1603730275 0.0000000000
0.5736078799 0.1594557886 0.0000000000
0.5991535039 0.1593464303 0.0000000000
0.6233905131 0.1588442459 0.0000000000
0.6457342604 0.1576852857 0.0000000000
0.6660166138 0.1557913267 0.0000000000
0.6842148211 0.1533352743 0.0000000000
0.7026177188 0.1503914389 0.0000000000
0.7203832060 0.1462570779 0.0000000000
0.7385168723 0.1425129148 0.0000000000
0.7549739424 0.1385281758 0.0000000000
0.7701190059 0.1346603824 0.0000000000
0.7844218295 0.1312174511 0.0000000000
0.7983756313 0.1280442680 0.0000000000
0.8118906022 0.1244970239 0.0000000000
0.8253281722 0.1206974028 0.0000000000
0.0000000000 0.1289033738 0.0459177589
0.0000000000 0.1366103526 0.0425195163
0.0375500686 0.1456501144 0.0396418349
0.0906241296 0.1534689214 0.0378584823
0.1368007046 0.1601436685 0.0358155073
0.1773463235 0.1646149685 0.0319398380
0.2155191996 0.1686208064 0.0285075971
0.2524415200 0.1712927662 0.0239635235
0.2863847325 0.1759908560 0.0215788085
0.3167229466 0.1797860202 0.0187868834
0.3456887988 0.1827110117 0.0152650963
0.3774849904 0.1855244858 0.0107515166
0.4093324928 0.1877293473 0.0058661485
0.4400047403 0.1897929560 0.0026859185
0.4694482844 0.1907462072 0.0000000000
0.4990216820 0.1910625923 0.0000000000
0.5271812324 0.1905587776 0.0000000000
0.5552109055 0.1898505673 0.0000000000
0.5826427601 0.1896236926 0.0000000000
0.6089555181 0.1903084772 0.0000000000
0.6336224894 0.1906589483 0.0000000000
0.6566900116 0.1905689290 0.0000000000
0.6773769074 0.1893586889 0.0000000000
0.6955582708 0.1871367185 0.0000000000
0.7140913739 0.1847592708 0.0000000000
0.7310184591 0.1799252956 0.0000000000
0.7485434158 0.1758087112 0.0000000000
0.7650825808 0.1723131753 0.0000000000
0.7803247822 0.1689099018 0.0000000000
0.7947833283 0.1660732678 0.0000000000
0.8090643687 0.1639132596 0.0000000000
0.8233101014 0.1619251146 0.0000000000
0.8370661991 0.1594413713 0.0000000000
0.0000000000 0.1485564449 0.0475134176
0.0000000000 0.1572469878 0.0443653524
0.0265532096 0.1665086586 0.0405686554
0.0849760267 0.1752014050 0.0383635966
0.1343336063 0.1825401079 0.0361582737
0.1768389036 0.1878653580 0.0320505693
0.2170775281 0.1920567273 0.0275023165
0.2552777431 0.1950993615 0.0221248229
0.2897037126 0.1990816949 0.0186049924
0.3204559293 0.2037391880 0.0160070906
0.3495636854 0.2067129773 0.0118910962
0.3811358336 0.2097698562 0.0069505466
0.4132931409 0.2125023362 0.0024194390
0.4442608172 0.2151325389 0.0001889530
0.4751529737 0.2174446538 0.0000000000
0.5054895670 0.2186672857 0.0000000000
0.5346649164 0.2191954010 0.0000000000
0.5630734627 0.2192433047 0.0000000000
0.5907314046 0.2194275586 0.0000000000
0.6174400832 0.2205289246 0.0000000000
0.6426601149 0.2213244506 0.0000000000
0.6661908699 0.2217849480 0.0000000000
0.6873951917 0.2213163129 0.0000000000
0.7057004067 0.2194947801 0.0000000000
0.7243616267 0.2174189299 0.0000000000
0.7416307210 0.2134634385 0.0000000000
0.7587223403 0.2090682486 0.0000000000
0.7751511245 0.2056585975 0.0000000000
0.7905734706 0.2027815887 0.0000000000
0.8051246795 0.2001402143 0.0000000000
0.8194767945 0.1980941328 0.0000000000
0.8339402744 0.1966663566 0.0000000000
0.8483911033 0.1953772874 0.0000000000
0.0000000000 0.1669106515 0.0482577324
0.0000000000 0.1762704186 0.0452272734
0.0121974277 0.1863746438 0.0416937098
0.0776612939 0.1957253103 0.0389471075
0.1309548484 0.2037396104 0.0360986872
0.1757360510 0.2099484299 0.0318041637
0.2176536226 0.2149856318 0.0269743259
0.2573831615 0.2188336960 0.0214441217
0.2924974410 0.2228847946 0.0170686353
0.3234079723 0.2268496651 0.0135294844
0.3528019829 0.2298074759 0.0087855240
0.3845735831 0.2328717644 0.0034147578
0.4170763229 0.2359317479 0.0002060780
0.4484262022 0.2390549275 0.0000000000
0.4796321045 0.2419388767 0.0000000000
0.5105682427 0.2441628078 0.0000000000
0.5403559596 0.2456212079 0.0000000000
0.5693432184 0.2467108077 0.0000000000
0.5975819411 0.2476449112 0.0000000000
0.6246941639 0.2489848836 0.0000000000
0.6502601505 0.2499907901 0.0000000000
0.6740077857 0.2504137333 0.0000000000
0.6954018824 0.2501576016 0.0000000000
0.7138152050 0.2486323975 0.0000000000
0.7326020840 0.2468012222 0.0000000000
0.7501987834 0.2434676814 0.0000000000
0.7676724462 0.2399270607 0.0000000000
0.7843492856 0.2369811302 0.0000000000
0.7999395578 0.2344003287 0.0000000000
0.8147005664 0.2322386767 0.0000000000
0.8292527501 0.2304302282 0.0000000000
0.8439140715 0.2289812449 0.0000000000
0.8586537606 0.2277680669 0.0000000000
0.0000000000 0.1820996016 0.0479252173
0.0000000000 0.1930579047 0.0458138952
0.0000000000 0.2039850998 0.0423204274
0.0715311303 0.2145233898 0.0394211352
0.1282068368 0.2232914827 0.0362516336
0.1750217991 0.2307162550 0.0325369259
0.2183804476 0.2364367086 0.0276841467
0.2591225558 0.2410735397 0.0222102918
0.2949499291 0.2444169754 0.0164200509
0.3262128394 0.2480892679 0.0118990955
0.3562177871 0.2503731839 0.0056599382
0.3882486467 0.2533943738 0.0002596661
0.4209686848 0.2566089519 0.0000000000
0.4523439035 0.2600949105 0.0000000000
0.4836770023 0.2635845053 0.0000000000
0.5148244712 0.2666352772 0.0000000000
0.5450753971 0.2689002976 0.0000000000
0.5747260340 0.2708462789 0.0000000000
0.6032946621 0.2723082808 0.0000000000
0.6305770845 0.2737101379 0.0000000000
0.6562551033 0.2746008917 0.0000000000
0.6800742540 0.2749792005 0.0000000000
0.7016706392 0.2748400840 0.0000000000
0.7203125313 0.2735651537 0.0000000000
0.7393781610 0.2721360681 0.0000000000
0.7578193854 0.2698297812 0.0000000000
0.7756596477 0.2667057835 0.0000000000
0.7927690149 0.2643613446 0.0000000000
0.8087559460 0.2623077020 0.0000000000
0.8236762054 0.2602840795 0.0000000000
0.8382366019 0.2584226785 0.0000000000
0.8529363882 0.2568833950 0.0000000000
0.8680052476 0.2557788777 0.0000000000
0.0000000000 0.1965929919 0.0471450530
0.0000000000 0.2085896484 0.0452394165
0.0000000000 0.2212853069 0.0424590092
0.0641711429 0.2326823785 0.0393763865
0.1252020899 0.2424941460 0.0360255494
0.1737399368 0.2507379609 0.0324238640
0.2186624016 0.2576465207 0.0281801588
0.2604938539 0.2631403611 0.0230540830
0.2969394508 0.2667210400 0.0166334809
0.3287029255 0.2693803354 0.0102744223
0.3593039592 0.2713127972 0.0032048209
0.3918405530 0.2737553170 0.0000000000
0.4248352793 0.2769039011 0.0000000000
0.4562580460 0.2805846198 0.0000000000
0.4874116669 0.2845155980 0.0000000000
0.5187465135 0.2882843085 0.0000000000
0.5494251939 0.2915655466 0.0000000000
0.5796486007 0.2943594356 0.0000000000
0.6087992313 0.2964716000 0.0000000000
0.6361802280 0.2979612350 0.0000000000
0.6619913785 0.2988505577 0.0000000000
0.6857309312 0.2989113103 0.0000000000
0.7073638783 0.2986864859 0.0000000000
0.7262701214 0.2976159726 0.0000000000
0.7455627721 0.2964144244 0.0000000000
0.7644950651 0.2946570617 0.0000000000
0.7833929055 0.2927816421 0.0000000000
0.8009936774 0.2909056994 0.0000000000
0.8174259625 0.2893009563 0.0000000000
0.8327411616 0.2877318449 0.0000000000
0.8475732371 0.2860479962 0.0000000000
0.8623684201 0.2843180657 0.0000000000
0.8772982847 0.2827665576 0.0000000000
0.0000000000 0.2117429414 0.0456938060
0.0000000000 0.2255570290 0.0443443464
0.0000000000 0.2394918263 0.0417690543
0.0556247914 0.2517490929 0.0387304814
0.1210327739 0.2622703579 0.0350544430
0.1717270108 0.2719151089 0.0322877051
0.2180938634 0.2795007007 0.0279279275
0.2613454394 0.2858186766 0.0229773539
0.2985658349 0.2892540615 0.0151493993
0.3307489197 0.2916834984 0.0073227550
0.3622884052 0.2929707677 0.0000000000
0.3954175284 0.2950891723 0.0000000000
0.4286943736 0.2982324321 0.0000000000
0.4602028933 0.3022737271 0.0000000000
0.4914445000 0.3067006741 0.0000000000
0.5229755864 0.3112102799 0.0000000000
0.5540778284 0.3151986650 0.0000000000
0.5848692661 0.3186642323 0.0000000000
0.6142552739 0.3211652606 0.0000000000
0.6417278461 0.3227453093 0.0000000000
0.6675646912 0.3236176470 0.0000000000
0.6914271677 0.3237020096 0.0000000000
0.7132516285 0.3235092995 0.0000000000
0.7325008283 0.3227044849 0.0000000000
0.7522710083 0.3218477744 0.0000000000
0.7719861466 0.3207786009 0.0000000000
0.7913550998 0.3194114494 0.0000000000
0.8096164397 0.3183550120 0.0000000000
0.8265405325 0.3173097165 0.0000000000
0.8422355814 0.3160392297 0.0000000000
0.8572600378 0.3144074692 0.0000000000
0.8721013385 0.3125720531 0.0000000000
0.8871351981 0.3110812475 0.0000000000
0.0000000000 0.2275452751 0.0440248313
0.0000000000 0.2418195558 0.0426256018
0.0000000000 0.2573720822 0.0403558306
0.0429250878 0.2704718875 0.0372205129
0.1146872168 0.2817909104 0.0332872558
0.1680801546 0.2919869384 0.0300237052
0.2163320250 0.3006346858 0.0258785136
0.2608432543 0.3075798111 0.0207063386
0.2993219611 0.3115182974 0.0124775891
0.3320533381 0.3136488990 0.0032416452
0.3643088270 0.3150893953 0.0000000000
0.3982310912 0.3168396768 0.0000000000
0.4320992467 0.3198276198 0.0000000000
0.4639035359 0.3239756613 0.0000000000
0.4952419745 0.3288058475 0.0000000000
0.5270146557 0.3338576279 0.0000000000
0.5581529918 0.3383407877 0.0000000000
0.5893489899 0.3423620195 0.0000000000
0.6192608656 0.3454308439 0.0000000000
0.6469244427 0.3472325541 0.0000000000
0.6730790067 0.3483095226 0.0000000000
0.6970847332 0.3484669338 0.0000000000
0.7190970069 0.3483923976 0.0000000000
0.7387989808 0.3479250901 0.0000000000
0.7590046189 0.3473856278 0.0000000000
0.7790906295 0.3467449062 0.0000000000
0.7992481463 0.3460022174 0.0000000000
0.8178921355 0.3452866358 0.0000000000
0.8352198433 0.3447168771 0.0000000000
0.8515222829 0.3439897180 0.0000000000
0.8672165275 0.3428252652 0.0000000000
0.8822252706 0.3410667198 0.0000000000
0.8971222376 0.3393896690 0.0000000000
0.0000000000 0.2438181838 0.0426535228
0.0000000000 0.2580431314 0.0410517982
0.0000000000 0.2738856048 0.0385807381
0.0212900431 0.2879160329 0.0354031604
0.1038683468 0.2999200345 0.0311222696
0.1623795778 0.3103559404 0.0266192708
0.2123399926 0.3193248865 0.0215475510
0.2587776267 0.3263494842 0.0147766190
0.2986089515 0.3308040240 0.0060698145
0.3323379614 0.3333612750 0.0000909113
0.3653157018 0.3355057261 0.0000000000
0.3999616846 0.3376395030 0.0000000000
0.4345065792 0.3410143634 0.0000000000
0.4669869347 0.3450006574 0.0000000000
0.4986838558 0.3499959978 0.0000000000
0.5304944299 0.3549672977 0.0000000000
0.5617442179 0.3598135941 0.0000000000
0.5924968608 0.3638162240 0.0000000000
0.6227173328 0.3672856901 0.0000000000
0.6509026173 0.3694900187 0.0000000000
0.6776338129 0.3709767936 0.0000000000
0.7024282997 0.3716552350 0.0000000000
0.7248891122 0.3719843767 0.0000000000
0.7450535336 0.3719792773 0.0000000000
0.7657073991 0.3718220927 0.0000000000
0.7859812678 0.3716244599 0.0000000000
0.8063985878 0.3712861769 0.0000000000
0.8252852320 0.3707550487 0.0000000000
0.8428767453 0.3702882791 0.0000000000
0.8595267121 0.3697706945 0.0000000000
0.8757644485 0.3690617440 0.0000000000
0.8917020720 0.3679345317 0.0000000000
0.9069712753 0.3665091657 0.0000000000
0.0000000000 0.2596133351 0.0410110195
0.0000000000 0.2740370523 0.0390365035
0.0000000000 0.2898317563 0.0361753767
0.0023236421 0.3042838598 0.0325382856
0.0921223651 0.3170893134 0.0279276779
0.1546301549 0.3276536703 0.0223087785
0.2079135887 0.3367157985 0.0154283551
0.2556946855 0.3438676388 0.0076727510
0.2969013752 0.3487167289 0.0009065839
0.3319464848 0.3517974986 0.0000003677
0.3656285546 0.3545931722 0.0000000000
0.4010889345 0.3575203158 0.0000000000
0.4364002201 0.3613715734 0.0000000000
0.4695405966 0.3657164321 0.0000000000
0.5017471573 0.3705428648 0.0000000000
0.5338980231 0.3757301623 0.0000000000
0.5651789157 0.3804249682 0.0000000000
0.5960124323 0.3847433253 0.0000000000
0.6260710699 0.3883143910 0.0000000000
0.6546580854 0.3909538610 0.0000000000
0.6819230830 0.3928914827 0.0000000000
0.7073076209 0.3940052472 0.0000000000
0.7304555059 0.3947702317 0.0000000000
0.7510254173 0.3951373153 0.0000000000
0.7721413621 0.3954408441 0.0000000000
0.7927758684 0.3955394707 0.0000000000
0.8133654499 0.3955784206 0.0000000000
0.8325153000 0.3953904780 0.0000000000
0.8504362532 0.3951067581 0.0000000000
0.8673756163 0.3947098402 0.0000000000
0.8838017388 0.3940820663 0.0000000000
0.9000593798 0.3932673334 0.0000000000
0.9161842291 0.3924409393 0.0000000000
0.0000000000 0.2747806461 0.0390265334
0.0000000000 0.2894893153 0.0365807169
0.0000000000 0.3055673013 0.0331290143
0.0000101896 0.3203678262 0.0288442052
0.0802757630 0.3333957968 0.0233404630
0.1479029091 0.3438593496 0.0157994663
0.2030500644 0.3529844484 0.0085442475
0.2525468690 0.3601137407 0.0019420491
0.2949725945 0.3656048212 0.0000000000
0.3309978476 0.3693078561 0.0000000000
0.3657806217 0.3730203270 0.0000000000
0.4019374005 0.3766299698 0.0000000000
0.4380285632 0.3811779068 0.0000000000
0.4718315256 0.3858588562 0.0000000000
0.5045625454 0.3909592773 0.0000000000
0.5370619671 0.3960877725 0.0000000000
0.5686358763 0.4010327754 0.0000000000
0.5995865853 0.4051936576 0.0000000000
0.6299231865 0.4091174876 0.0000000000
0.6588684598 0.4120437535 0.0000000000
0.6865375730 0.4144094286 0.0000000000
0.7123349238 0.4159581527 0.0000000000
0.7359215434 0.4170570813 0.0000000000
0.7569014409 0.4177425827 0.0000000000
0.7784114577 0.4183440588 0.0000000000
0.7993470624 0.4187376539 0.0000000000
0.8202455905 0.4190535906 0.0000000000
0.8397995507 0.4192139430 0.0000000000
0.8581152352 0.4191856971 0.0000000000
0.8752471138 0.4189241518 0.0000000000
0.8919116763 0.4184852131 0.0000000000
0.9083173051 0.4177652823 0.0000000000
0.9246340012 0.4170705070 0.0000000000
0.0000000000 0.2887768101 0.0369053548
0.0000000000 0.3039723410 0.0337502005
0.0000000000 0.3203678814 0.0296501306
0.0000084006 0.3353575639 0.0246355553
0.0685700391 0.3486335853 0.0181432598
0.1404729477 0.3590371750 0.0097746060
0.1982316825 0.3680376818 0.0033913377
0.2490239143 0.3752107266 0.0000000000
0.2926490667 0.3813180995 0.0000000000
0.3299395426 0.3858598135 0.0000000000
0.3655067110 0.3901249048 0.0000000000
0.4027139056 0.3945981515 0.0000000000
0.4392704335 0.3996925144 0.0000000000
0.4736907498 0.4049700411 0.0000000000
0.5069599954 0.4103059538 0.0000000000
0.5399116787 0.4157051457 0.0000000000
0.5719302715 0.4204600631 0.0000000000
0.6031824918 0.4248990936 0.0000000000
0.6336899330 0.4288245586 0.0000000000
0.6629156963 0.4320765018 0.0000000000
0.6908874656 0.4346995168 0.0000000000
0.7170146155 0.4365849339 0.0000000000
0.7409907520 0.4379919620 0.0000000000
0.7623536560 0.4389200755 0.0000000000
0.7842586756 0.4397941154 0.0000000000
0.8055765865 0.4404122327 0.0000000000
0.8267425089 0.4409723591 0.0000000000
0.8467326111 0.4415346399 0.0000000000
0.8654804393 0.4418926601 0.0000000000
0.8827411018 0.4416968412 0.0000000000
0.8991812742 0.4410039134 0.0000000000
0.9157197996 0.4403993810 0.0000000000
0.9322124347 0.4397179178 0.0000000000
0.0000000000 0.3020002441 0.0348575042
0.0000000000 0.3178298287 0.0308758908
0.0000000000 0.3347600000 0.0257901972
0.0000061567 0.3499720352 0.0199253108
0.0574706331 0.3633767972 0.0125212992
0.1339326819 0.3736397260 0.0042176050
0.1936106254 0.3827169097 0.0000000000
0.2457571796 0.3898233806 0.0000000000
0.2905823535 0.3967462313 0.0000000000
0.3287978067 0.4021530030 0.0000000000
0.3655149506 0.4071071076 0.0000000000
0.4033599854 0.4120676007 0.0000000000
0.4407658809 0.4176730046 0.0000000000
0.4753974976 0.4235046386 0.0000000000
0.5091755190 0.4293288327 0.0000000000
0.5425660640 0.4348553172 0.0000000000
0.5749691235 0.4398668442 0.0000000000
0.6068679402 0.4439697021 0.0000000000
0.6376426056 0.4481951829 0.0000000000
0.6670836758 0.4516036072 0.0000000000
0.6952622230 0.4545347096 0.0000000000
0.7216514254 0.4566616573 0.0000000000
0.7459050540 0.4583672411 0.0000000000
0.7676101461 0.4594892634 0.0000000000
0.7898766664 0.4605875230 0.0000000000
0.8116189709 0.4613690504 0.0000000000
0.8330644182 0.4620764091 0.0000000000
0.8534743022 0.4629207374 0.0000000000
0.8726444099 0.4637212412 0.0000000000
0.8902582283 0.4639492929 0.0000000000
0.9067786938 0.4632548751 0.0000000000
0.9228014783 0.4620255361 0.0000000000
0.9393123869 0.4612744133 0.0000000000
0.0000000000 0.3153232604 0.0332398904
0.0000000000 0.3312818232 0.0283712222
0.0000000000 0.3488006100 0.0220863139
0.0000030157 0.3642538756 0.0145700580
0.0433783099 0.3779463281 0.0068214964
0.1269111001 0.3885098019 0.0000000000
0.1887922920 0.3976751458 0.0000000000
0.2425884333 0.4051462732 0.0000000000
0.2884300524 0.4123898176 0.0000000000
0.3278057937 0.4187339106 0.0000000000
0.3652037117 0.4242809254 0.0000000000
0.4041877657 0.4299285058 0.0000000000
0.4419414697 0.4358850407 0.0000000000
0.4771646139 0.4419409465 0.0000000000
0.5111173083 0.4481807433 0.0000000000
0.5449448729 0.4539332231 0.0000000000
0.5777403374 0.4591036705 0.0000000000
0.6098991030 0.4634909822 0.0000000000
0.6412765975 0.4674905113 0.0000000000
0.6709855982 0.4712337147 0.0000000000
0.6994978327 0.4743246517 0.0000000000
