2. reversing the negative/print paper LUTs/color/Beyond Print/FujiFlex_color only.cube
LUT_3D_SIZE 5
0.0001133963 0.0000000000 0.0001131370
0.2375251701 0.0022256037 0.0208751973
0.4476080942 0.0000000000 0.0000000000
0.6085182550 0.0000000000 0.0000000000
0.7162875989 0.0000000000 0.0000000000
0.0000000000 0.1669106515 0.0482577324
0.2924974410 0.2228847946 0.0170686353
0.5403559596 0.2456212079 0.0000000000
0.7326020840 0.2468012222 0.0000000000
0.8586537606 0.2277680669 0.0000000000
0.0000000000 0.2887768101 0.0369053548
0.2926490667 0.3813180995 0.0000000000
0.5719302715 0.4204600631 0.0000000000
0.7842586756 0.4397941154 0.0000000000
0.9322124347 0.4397179178 0.0000000000
0.0000000000 0.3850732449 0.0219851940
0.2747103307 0.5067215187 0.0000000000
0.5910123846 0.5683798155 0.0000000000
0.8244213257 0.5979637892 0.0000000000
0.9875544498 0.6054193622 0.0000000000
0.0000000000 0.4636855347 0.0000000000
0.2299612877 0.6240695679 0.0000000000
0.6053769329 0.7071089095 0.0000000000
0.8614510523 0.7624111305 0.0000000000
1.0000000000 0.7878758733 0.0000000000
0.0000000000 0.0000000000 0.2021540215
0.2202539821 0.0000000000 0.2110972494
0.4289230019 0.0000000000 0.2077602260
0.6027089085 0.0000000000 0.2031711003
0.7297974363 0.0000000000 0.1984802927
0.0000000000 0.1988260828 0.2558135473
0.2499997317 0.2499993164 0.2500003962
0.5124418397 0.2748122034 0.2514666797
0.7169735315 0.2789082832 0.2463226016
0.8715339854 0.2642923311 0.2373687447
0.0000000000 0.3391000567 0.2738541121
0.2139448959 0.4312736092 0.2737115149
0.5302945521 0.4746286793 0.2620951070
0.7664571802 0.4998378131 0.2538655813
0.9414439510 0.4980867607 0.2358015623
0.0000000000 0.4429867580 0.2826726332
0.1192890624 0.5730271567 0.2731175176
0.5250396718 0.6361060263 0.2501967239
0.7961975630 0.6761062458 0.2278575616
0.9978092232 0.6877330233 0.1996748380
0.0000000000 0.5266196964 0.2913016169
0.0000000000 0.6919373328 0.2657696730
0.5189870274 0.7800577303 0.2275548470
0.8172339232 0.8467815288 0.1760933345
1.0000000000 0.8859481926 0.1211161150
0.0000000000 0.0000000000 0.3646549839
0.2212931822 0.0000000000 0.3810262430
0.4258350626 0.0000000000 0.3843695786
0.6028630244 0.0000000000 0.3877520247
0.7345714291 0.0000000000 0.3898302738
0.0000000000 0.2055058431 0.4479094308
0.2351424544 0.2604555152 0.4660318220
0.4985414921 0.2822375233 0.4672690161
0.7135209933 0.2880775058 0.4672955905
0.8725083217 0.2705746505 0.4621826764
0.0000000000 0.3610763193 0.4806869905
0.1599381978 0.4524855793 0.4973228667
0.4999999695 0.4999999652 0.4999999919
0.7530539526 0.5195227458 0.4952951042
0.9417478067 0.5248357515 0.4940689131
0.0000000000 0.4787900971 0.4989533565
0.0000000000 0.6087907698 0.5160200796
0.4873469266 0.6751369279 0.5123398732
0.7712360441 0.7169287756 0.5044067774
0.9956699145 0.7368797887 0.4995745348
0.0000000000 0.5609681741 0.5129292272
0.0000000000 0.7272174230 0.5190917580
0.4475007945 0.8211453236 0.5167368139
0.7813918021 0.8944164209 0.5005015650
1.0000000000 0.9402728158 0.4806266593
0.0068311831 0.0000000000 0.4846792410
0.2264439022 0.0000000000 0.5165538133
0.4277294761 0.0000000000 0.5302307691
0.6059236884 0.0000000000 0.5378213432
0.7377485046 0.0000000000 0.5381260471
0.0000000000 0.2009834716 0.6050471815
0.2235453106 0.2499235556 0.6373010079
0.4953534784 0.2763627655 0.6521974036
0.7160323698 0.2851540801 0.6633309968
0.8750414182 0.2669393078 0.6636995087
0.0000000000 0.3676909726 0.6469311898
0.1178405267 0.4617655029 0.6899878120
0.4954464994 0.5098078307 0.7052987804
0.7478426845 0.5336553653 0.7133241938
0.9400057510 0.5361326567 0.7127000382
0.0000000000 0.4892016536 0.6785589414
0.0000000000 0.6278899920 0.7242041551
0.4599933542 0.7006191601 0.7363000002
0.7500001208 0.7500003877 0.7499996492
0.9900967705 0.7670800860 0.7438772572
0.0000000000 0.5746851424 0.6962796231
0.0000000000 0.7495096056 0.7412777969
0.3947252975 0.8525209902 0.7575442147
0.7452424878 0.9306724573 0.7592156074
1.0000000000 0.9810511326 0.7518695827
0.0352870709 0.0000000000 0.5671741384
0.2335072189 0.0000000000 0.6255994295
0.4356330371 0.0000000000 0.6450004557
0.6100680870 0.0000000000 0.6552568623
0.7388253651 0.0000000000 0.6576059249
0.0000000000 0.1940441946 0.7136974349
0.2294008522 0.2494644292 0.7836900201
0.5002523388 0.2729187123 0.8088363490
0.7192311419 0.2753813736 0.8211443284
0.8819995813 0.2603753109 0.8260210725
0.0000000000 0.3753888749 0.7742637326
0.0825363971 0.4691002734 0.8525238282
0.4847002523 0.5164396931 0.8818655951
0.7495437982 0.5465681798 0.9002185765
0.9474376997 0.5569826251 0.9119602410
0.0000000000 0.5007111495 0.8109509589
0.0000000000 0.6391959086 0.8993965507
0.4388653289 0.7195446705 0.9394928789
0.7480510829 0.7667575290 0.9591872425
0.9871184796 0.7836767276 0.9692705902
0.0000000000 0.5809074169 0.8311354789
0.0000000000 0.7621065379 0.9293812970
0.3354084149 0.8678603605 0.9693384321
0.7157107364 0.9501449894 0.9937355419
1.0000000000 0.9999152223 0.9999238150
