2. reversing the negative/print paper LUTs/color/Beyond Print/Kodak endura lustre_color only.cube
LUT_3D_SIZE 5
0.0000000000 0.0000291860 0.0000300538
0.2417418598 0.0274370417 0.0000000000
0.4455171582 0.0288491279 0.0000000000
0.5979204821 0.0008197707 0.0000000000
0.6994534417 0.0000000000 0.0000000000
0.0000000000 0.1553556630 0.0020186731
0.2758921853 0.2123841117 0.0000000000
0.5012162420 0.2429983073 0.0000000000
0.6901355953 0.2553408903 0.0000000000
0.8165125149 0.2504099939 0.0000000000
0.0000000000 0.2816645684 0.0000000000
0.2896149542 0.3685772614 0.0000000000
0.5386893157 0.4132473851 0.0000000000
0.7501956538 0.4425934667 0.0000000000
0.9016624531 0.4482738187 0.0000000000
0.0000000000 0.3818780869 0.0000000000
0.2843025491 0.4936698919 0.0000000000
0.5703492673 0.5619317831 0.0000000000
0.8006287376 0.6031286316 0.0000000000
0.9764941716 0.6207929848 0.0000000000
0.0000000000 0.4554486692 0.0000000000
0.2697599375 0.6021322100 0.0000000000
0.5925263699 0.6911134203 0.0000000000
0.8501349118 0.7492561946 0.0000000000
1.0000000000 0.7833168400 0.0000000000
0.0000000000 0.0053119530 0.2044370357
0.2298725396 0.0337225824 0.2197327545
0.4398086892 0.0360705776 0.2210962625
0.5998311910 0.0073355193 0.2192036391
0.7102839428 0.0000000000 0.2153422808
0.0000000000 0.1907642209 0.2421967181
0.2498894840 0.2498894840 0.2498894840
0.4873875019 0.2768225913 0.2460204841
0.6860121016 0.2915589927 0.2402908431
0.8321498470 0.2870275844 0.2366192161
0.0000000000 0.3326933105 0.2551094431
0.2266881475 0.4230606146 0.2627008357
0.5174296215 0.4692747966 0.2514247062
0.7377357808 0.4972326246 0.2406583766
0.9121786439 0.5072221840 0.2313435760
0.0000000000 0.4450692771 0.2664126603
0.1883888153 0.5622446577 0.2587157116
0.5310980291 0.6296159853 0.2407262796
0.7834022568 0.6771267123 0.2306077221
0.9878326010 0.6954691140 0.1951681594
0.0000000000 0.5192920014 0.2645519940
0.1185809525 0.6711992358 0.2512119545
0.5402557837 0.7626631862 0.2147984030
0.8194823461 0.8340831456 0.1942939831
1.0000000000 0.8786278634 0.1359374955
0.0002771560 0.0000000000 0.3830575944
0.2358308183 0.0020083219 0.4041337881
0.4415833098 0.0066941467 0.4044743881
0.6027324073 0.0000000000 0.4121677286
0.7154782090 0.0000000000 0.4030684201
0.0000000000 0.2025833639 0.4396077833
0.2284327711 0.2587480771 0.4575001130
0.4853789694 0.2921390033 0.4652075840
0.6816891728 0.3031499612 0.4731438211
0.8336429082 0.2985633920 0.4704935356
0.0000000000 0.3618613168 0.4743808096
0.1819805272 0.4491777376 0.4905180379
0.4999790355 0.4999790355 0.4999790355
0.7308306897 0.5306009236 0.5004156804
0.9127269403 0.5386705883 0.4894843843
0.0000000000 0.4778956387 0.4968013981
0.0517893866 0.6016228035 0.5146049106
0.4958399435 0.6727258836 0.5191742855
0.7648968668 0.7231762309 0.5201074893
0.9799311442 0.7402793314 0.5055448120
0.0000000000 0.5646491119 0.5144643049
0.0000000000 0.7191521399 0.5239440469
0.4870622789 0.8192366328 0.5262958770
0.7847141954 0.8921327990 0.5054734560
1.0000000000 0.9364339756 0.5005392134
0.0346369870 0.0000000000 0.5280812074
0.2496913176 0.0000000000 0.5616190121
0.4467649451 0.0000000000 0.5738453226
0.6092563036 0.0000000000 0.5784510643
0.7264453918 0.0000000000 0.5812364271
0.0000000000 0.1989132853 0.6008739307
0.2297043623 0.2585078678 0.6490262572
0.4868079632 0.2907427311 0.6615388883
0.6864872504 0.3029271649 0.6671625156
0.8378026019 0.2985159237 0.6665590983
0.0000000000 0.3690444430 0.6523397788
0.1458398913 0.4636886180 0.7002043915
0.4915896838 0.5162216964 0.7152561998
0.7267010851 0.5483930624 0.7258824505
0.9091512053 0.5582135614 0.7195379807
0.0000000000 0.4989960327 0.6824011531
0.0000000000 0.6273269166 0.7310204917
0.4756917235 0.7032280428 0.7507689249
0.7500685872 0.7500685872 0.7500685872
0.9752479279 0.7743814706 0.7496182477
0.0000000000 0.5875530201 0.7105529125
0.0000000000 0.7523926991 0.7604956629
0.4398036356 0.8558615858 0.7634663116
0.7586479301 0.9325212313 0.7706106202
1.0000000000 0.9777431808 0.7551783805
0.0686916329 0.0000000000 0.6279996042
0.2653870424 0.0000000000 0.6773553802
0.4582244494 0.0000000000 0.6998651181
0.6171420700 0.0000000000 0.7106302924
0.7384651578 0.0000000000 0.7202671881
0.0000000000 0.1900841911 0.7374795044
0.2362161457 0.2477503757 0.7918331006
0.4917843619 0.2827932886 0.8200117955
0.6950370824 0.2991523506 0.8313422786
0.8466874648 0.2917623402 0.8331189317
0.0000000000 0.3833448189 0.8003907356
0.1329073570 0.4709498300 0.8662122204
0.4896565244 0.5268826656 0.8998931131
0.7329747473 0.5650628704 0.9142665055
0.9225331666 0.5735210268 0.9203221651
0.0000000000 0.5132214359 0.8445206665
0.0000000000 0.6472816121 0.9224026290
0.4654563315 0.7289383476 0.9549712804
0.7461833006 0.7776482941 0.9714365546
0.9714911117 0.8016268994 0.9726855446
0.0000000000 0.5994963800 0.8688936056
0.0000000000 0.7701571516 0.9573393673
0.3976809943 0.8800612770 0.9867516340
0.7393252559 0.9555529016 0.9967364611
0.9999939978 0.9999499987 1.0000000000
