2. reversing the negative/print paper LUTs/color/Beyond Print/Kodak endura lustre_color only.cube
LUT_3D_SIZE 33
0.0000000000 0.0000291860 0.0000300538
0.0410617969 0.0080365719 0.0000115298
0.0746462876 0.0132339083 0.0000660092
0.1059249632 0.0163100861 0.0004158297
0.1362660976 0.0182881593 0.0004694075
0.1623175072 0.0202539416 0.0000412641
0.1871254929 0.0221397932 0.0000000000
0.2142940493 0.0244081762 0.0000000000
0.2417418598 0.0274370417 0.0000000000
0.2683264971 0.0309740292 0.0003962440
0.2960582699 0.0334935814 0.0008670621
0.3222964396 0.0340987300 0.0000000000
0.3470296256 0.0337785462 0.0000000000
0.3712191543 0.0331413837 0.0000000000
0.3958839373 0.0322619383 0.0000000000
0.4218288793 0.0307762787 0.0000000000
0.4455171582 0.0288491279 0.0000000000
0.4662024899 0.0267244053 0.0000000000
0.4842021936 0.0245127210 0.0000000000
0.5044843655 0.0217924593 0.0000000000
0.5255051255 0.0184586449 0.0000000000
0.5463394644 0.0144165446 0.0000000000
0.5662437782 0.0096062860 0.0000000000
0.5832186138 0.0038747167 0.0000000000
0.5979204821 0.0008197707 0.0000000000
0.6112597539 0.0000000000 0.0000000000
0.6254845538 0.0000000000 0.0000000000
0.6415138091 0.0000000000 0.0000000000
0.6565309081 0.0000000000 0.0000000000
0.6691474804 0.0000000000 0.0000000000
0.6801349256 0.0000000000 0.0000000000
0.6901813630 0.0000000000 0.0000000000
0.6994534417 0.0000000000 0.0000000000
0.0000000000 0.0223982748 0.0020864422
0.0352271685 0.0289422388 0.0000954957
0.0710268517 0.0352582470 0.0005679450
0.1058389621 0.0403732858 0.0033070628
0.1393763934 0.0443674114 0.0052985507
0.1672699820 0.0475448984 0.0043122513
0.1938220949 0.0501974289 0.0015643204
0.2228608939 0.0527427082 0.0000000000
0.2514552074 0.0553485840 0.0000000000
0.2776923006 0.0580759609 0.0000000000
0.3053289305 0.0604965697 0.0000000000
0.3324832103 0.0619569165 0.0000000000
0.3586486434 0.0627120780 0.0000000000
0.3833444412 0.0630022089 0.0000000000
0.4070264974 0.0627935043 0.0000000000
0.4323273252 0.0621292195 0.0000000000
0.4554463882 0.0611371419 0.0000000000
0.4760345771 0.0600372848 0.0000000000
0.4954300200 0.0589260837 0.0000000000
0.5175488569 0.0575810983 0.0000000000
0.5404926646 0.0558451020 0.0000000000
0.5627788751 0.0535981771 0.0000000000
0.5823855109 0.0506033872 0.0000000000
0.5987006192 0.0471149296 0.0000000000
0.6129743628 0.0437679369 0.0000000000
0.6260959337 0.0405130447 0.0000000000
0.6404643134 0.0369723306 0.0000000000
0.6569633981 0.0331336920 0.0000000000
0.6726923914 0.0289202430 0.0000000000
0.6860112293 0.0243599796 0.0000000000
0.6973953974 0.0196601247 0.0000000000
0.7076989479 0.0148540506 0.0000000000
0.7173735708 0.0102706644 0.0000000000
0.0000000000 0.0428909976 0.0050207043
0.0301861536 0.0497488352 0.0038433020
0.0702692481 0.0563057467 0.0031826537
0.1073038247 0.0619905386 0.0040135214
0.1422306341 0.0668785979 0.0046357831
0.1707410518 0.0709797773 0.0040442199
0.1981655786 0.0745816557 0.0022224545
0.2282290708 0.0777869804 0.0002167551
0.2570265777 0.0802588197 0.0000000000
0.2835109494 0.0824767458 0.0000000000
0.3115403112 0.0848190910 0.0000000000
0.3397260032 0.0867875265 0.0000000000
0.3672553818 0.0882258904 0.0000000000
0.3925964125 0.0891805915 0.0000000000
0.4154976881 0.0897941745 0.0000000000
0.4401977296 0.0900965775 0.0000000000
0.4631885971 0.0900240907 0.0000000000
0.4840077889 0.0897620076 0.0000000000
0.5045639247 0.0895697856 0.0000000000
0.5283232074 0.0892348068 0.0000000000
0.5524798508 0.0884612649 0.0000000000
0.5756221548 0.0872115667 0.0000000000
0.5955145379 0.0853437005 0.0000000000
0.6124550493 0.0832104699 0.0000000000
0.6270256602 0.0809069177 0.0000000000
0.6404002606 0.0786260933 0.0000000000
0.6548729283 0.0762666718 0.0000000000
0.6715075262 0.0735411657 0.0000000000
0.6875744303 0.0706424654 0.0000000000
0.7009445396 0.0675305492 0.0000000000
0.7123095454 0.0642192878 0.0000000000
0.7227231884 0.0606408630 0.0000000000
0.7327416304 0.0567753241 0.0000000000
0.0000000000 0.0615530896 0.0078852664
0.0249453370 0.0698981459 0.0094748153
0.0699531536 0.0768199112 0.0079037176
0.1096045613 0.0824422099 0.0036735214
0.1448681795 0.0875389657 0.0008047206
0.1732606086 0.0923567473 0.0003581292
0.2007542536 0.0969871432 0.0007013182
0.2312527930 0.1010514473 0.0003745512
0.2603607090 0.1037354279 0.0000000000
0.2871161939 0.1056303874 0.0000000000
0.3158896662 0.1078286534 0.0000000000
0.3451490879 0.1101667969 0.0000000000
0.3738861150 0.1121183996 0.0000000000
0.3999767004 0.1136643946 0.0000000000
0.4225547788 0.1148690375 0.0000000000
0.4468427049 0.1160528961 0.0000000000
0.4697739914 0.1169896908 0.0000000000
0.4910068227 0.1176971192 0.0000000000
0.5120760691 0.1182410476 0.0000000000
0.5367475674 0.1187159701 0.0000000000
0.5619373881 0.1188414591 0.0000000000
0.5857642139 0.1184056953 0.0000000000
0.6065255746 0.1171433769 0.0000000000
0.6244810050 0.1153303402 0.0000000000
0.6400123033 0.1134808071 0.0000000000
0.6540512478 0.1116303802 0.0000000000
0.6686116366 0.1097302366 0.0000000000
0.6855122111 0.1077474681 0.0000000000
0.7013950980 0.1056886737 0.0000000000
0.7145595358 0.1035185747 0.0000000000
0.7259011420 0.1013618163 0.0000000000
0.7365116441 0.0991157125 0.0000000000
0.7472862321 0.0967204445 0.0000000000
0.0000000000 0.0803872510 0.0085918612
0.0176679496 0.0895027512 0.0116620258
0.0680768776 0.0970058341 0.0100863088
0.1101518633 0.1032852562 0.0046025923
0.1464070874 0.1090443815 0.0000244713
0.1750155381 0.1142896376 0.0000000000
0.2027994769 0.1193771521 0.0000000000
0.2337700260 0.1239088832 0.0000729666
0.2632793560 0.1269802683 0.0000000000
0.2905035436 0.1291407228 0.0000000000
0.3200672892 0.1317713834 0.0000000000
0.3504307856 0.1346386366 0.0000000000
0.3797724330 0.1371381535 0.0000000000
0.4063171846 0.1391660424 0.0000000000
0.4290742998 0.1409351220 0.0000000000
0.4535332558 0.1427486513 0.0000000000
0.4771048678 0.1443311334 0.0000000000
0.4988490318 0.1456102146 0.0000000000
0.5200561818 0.1466609950 0.0000000000
0.5447427112 0.1477403139 0.0000000000
0.5698827065 0.1485205443 0.0000000000
0.5939680277 0.1486800246 0.0000000000
0.6155903626 0.1479860163 0.0000000000
0.6348643034 0.1467230378 0.0000000000
0.6513809493 0.1453787820 0.0000000000
0.6659410998 0.1438340301 0.0000000000
0.6811836964 0.1423861275 0.0000000000
0.6983533160 0.1409236415 0.0000000000
0.7144048814 0.1393777847 0.0000000000
0.7280402030 0.1377165453 0.0000000000
0.7396364149 0.1359613777 0.0000000000
0.7510382329 0.1342317022 0.0000000000
0.7614324736 0.1324412104 0.0000000000
0.0000000000 0.0986740501 0.0067584038
0.0088515488 0.1076233763 0.0095566475
0.0638067547 0.1158440461 0.0090601397
0.1085053737 0.1233355878 0.0056243498
0.1465085344 0.1301766553 0.0018709553
0.1759864134 0.1356236750 0.0000000000
0.2042911758 0.1406028461 0.0000000000
0.2358497888 0.1452222903 0.0000000000
0.2659138292 0.1487524811 0.0000000000
0.2937632666 0.1516365261 0.0000000000
0.3239803053 0.1549987546 0.0000000000
0.3549450738 0.1584691185 0.0000000000
0.3845262928 0.1614166535 0.0000000000
0.4111104293 0.1638332871 0.0000000000
0.4347971570 0.1658746990 0.0000000000
0.4600391146 0.1678957007 0.0000000000
0.4845924206 0.1696558566 0.0000000000
0.5070862019 0.1711379629 0.0000000000
0.5284008210 0.1724171743 0.0000000000
0.5522878084 0.1737263642 0.0000000000
0.5764412477 0.1748497709 0.0000000000
0.6000103113 0.1754816597 0.0000000000
0.6222549892 0.1754352323 0.0000000000
0.6427059515 0.1749163468 0.0000000000
0.6603621205 0.1742589379 0.0000000000
0.6757046099 0.1732567522 0.0000000000
0.6917175460 0.1723505802 0.0000000000
0.7094017007 0.1713776972 0.0000000000
0.7262244227 0.1702164368 0.0000000000
0.7403509412 0.1687289220 0.0000000000
0.7530799825 0.1671150312 0.0000000000
0.7642876616 0.1653456805 0.0000000000
0.7744070040 0.1634961666 0.0000000000
0.0000000000 0.1167874848 0.0043640655
0.0019711092 0.1254913035 0.0061406816
0.0582747897 0.1343506869 0.0064651516
0.1058053535 0.1431150385 0.0055229276
0.1457348583 0.1509170854 0.0033037364
0.1764439619 0.1565916151 0.0010524627
0.2056327093 0.1612509415 0.0000000000
0.2379530211 0.1656360263 0.0000000000
0.2685625494 0.1694566723 0.0000000000
0.2969538249 0.1730116923 0.0000000000
0.3278342930 0.1770739408 0.0000000000
0.3594926117 0.1811205127 0.0000000000
0.3891412389 0.1846030008 0.0000000000
0.4156214217 0.1873236687 0.0000000000
0.4399288247 0.1895506386 0.0000000000
0.4658703939 0.1917004482 0.0000000000
0.4912298078 0.1935336012 0.0000000000
0.5146480497 0.1950488076 0.0000000000
0.5361361102 0.1963728298 0.0000000000
0.5594717317 0.1977289080 0.0000000000
0.5830057566 0.1989695747 0.0000000000
0.6058663722 0.1999191545 0.0000000000
0.6286240189 0.2004312837 0.0000000000
0.6500330508 0.2006963717 0.0000000000
0.6686975479 0.2007239899 0.0000000000
0.6849946477 0.2003137131 0.0000000000
0.7014695625 0.1998221340 0.0000000000
0.7195769885 0.1990909352 0.0000000000
0.7371099942 0.1980347547 0.0000000000
0.7525563639 0.1966994680 0.0000000000
0.7655370982 0.1952069158 0.0000000000
0.7769668068 0.1935791731 0.0000000000
0.7872108541 0.1917572713 0.0000000000
0.0000000000 0.1359429241 0.0028295209
0.0011600779 0.1450082758 0.0029815909
0.0518994570 0.1543451726 0.0027759150
0.1026221742 0.1638162379 0.0025548969
0.1444209831 0.1720490065 0.0017784276
0.1766744651 0.1778743253 0.0004687785
0.2072372879 0.1824993881 0.0000000000
0.2408827088 0.1868718004 0.0000000000
0.2719816255 0.1908574871 0.0000000000
0.3007166482 0.1947440491 0.0000000000
0.3322282083 0.1993088981 0.0000000000
0.3649351943 0.2039869314 0.0000000000
0.3949151926 0.2080017671 0.0000000000
0.4211252951 0.2112319843 0.0000000000
0.4451232448 0.2137495123 0.0000000000
0.4710249346 0.2160887139 0.0000000000
0.4966256103 0.2180587921 0.0000000000
0.5207450369 0.2196641542 0.0000000000
0.5427697301 0.2210205570 0.0000000000
0.5664460110 0.2223085675 0.0000000000
0.5901431812 0.2235848087 0.0000000000
0.6133334240 0.2247542924 0.0000000000
0.6370983248 0.2258447690 0.0000000000
0.6594922649 0.2271452087 0.0000000000
0.6788252932 0.2279155684 0.0000000000
0.6959872134 0.2281526885 0.0000000000
0.7124449532 0.2277081391 0.0000000000
0.7303022391 0.2265214859 0.0000000000
0.7484367848 0.2249982018 0.0000000000
0.7641841590 0.2237637448 0.0000000000
0.7777852543 0.2227274519 0.0000000000
0.7901446632 0.2217601143 0.0000000000
0.8015686547 0.2207951374 0.0000000000
0.0000000000 0.1553556630 0.0020186731
0.0005416254 0.1651735593 0.0004995479
0.0446048576 0.1747701458 0.0002910550
0.0988422491 0.1843321845 0.0000887284
0.1425311259 0.1927176896 0.0000000000
0.1765188155 0.1987808608 0.0000000000
0.2088342476 0.2036348333 0.0000000000
0.2441172309 0.2082177619 0.0000000000
0.2758921853 0.2123841117 0.0000000000
0.3048130138 0.2164936491 0.0000000000
0.3369268524 0.2215245287 0.0000000000
0.3708982252 0.2269585576 0.0000000000
0.4014608750 0.2317266275 0.0000000000
0.4273202802 0.2355296303 0.0000000000
0.4504893485 0.2383326595 0.0000000000
0.4758991174 0.2408960343 0.0000000000
0.5012162420 0.2429983073 0.0000000000
0.5254581471 0.2447157154 0.0000000000
0.5483502909 0.2461035230 0.0000000000
0.5729515914 0.2473453424 0.0000000000
0.5976436955 0.2485551359 0.0000000000
0.6220572788 0.2498550401 0.0000000000
0.6470273441 0.2515331093 0.0000000000
0.6702816180 0.2538181616 0.0000000000
0.6901355953 0.2553408903 0.0000000000
0.7078062670 0.2563467771 0.0000000000
0.7240495076 0.2558195981 0.0000000000
0.7418627089 0.2537108466 0.0000000000
0.7593168690 0.2513688453 0.0000000000
0.7750889370 0.2501362953 0.0000000000
0.7895625465 0.2497364922 0.0000000000
0.8033528591 0.2498558600 0.0000000000
0.8165125149 0.2504099939 0.0000000000
0.0000000000 0.1747830506 0.0016478699
0.0000000000 0.1851046002 0.0000000000
0.0344909837 0.1948604523 0.0000000000
0.0941364552 0.2042732831 0.0000000000
0.1399079432 0.2127067767 0.0000000000
0.1756043323 0.2192605745 0.0000000000
0.2094933439 0.2247926982 0.0000000000
0.2463660162 0.2300341187 0.0000000000
0.2790653176 0.2346059531 0.0000000000
0.3085949170 0.2389493435 0.0000000000
0.3414329034 0.2442715215 0.0000000000
0.3763975690 0.2501137856 0.0000000000
0.4074779973 0.2553059788 0.0000000000
0.4330313211 0.2594429723 0.0000000000
0.4558176398 0.2623998834 0.0000000000
0.4811866223 0.2651644223 0.0000000000
0.5065361894 0.2674954342 0.0000000000
0.5309352150 0.2694205918 0.0000000000
0.5546085843 0.2710010556 0.0000000000
0.5798725176 0.2724041833 0.0000000000
0.6055905469 0.2737423915 0.0000000000
0.6311118231 0.2751755880 0.0000000000
0.6564421080 0.2771068420 0.0000000000
0.6797282724 0.2795867275 0.0000000000
0.6996663909 0.2815194747 0.0000000000
0.7173304326 0.2828994468 0.0000000000
0.7342660021 0.2825697362 0.0000000000
0.7526957230 0.2803275186 0.0000000000
0.7701323607 0.2778199439 0.0000000000
0.7863199398 0.2766712120 0.0000000000
0.8017692466 0.2766637866 0.0000000000
0.8167274990 0.2774068703 0.0000000000
0.8305283532 0.2788040319 0.0000000000
0.0000000000 0.1924391632 0.0018489763
0.0000000000 0.2038908754 0.0011788936
0.0267868514 0.2138854986 0.0000000000
0.0888068635 0.2229189418 0.0000000000
0.1369940704 0.2313768942 0.0000000000
0.1741009113 0.2386570000 0.0000000000
0.2090396244 0.2452570709 0.0000000000
0.2470525806 0.2514760613 0.0000000000
0.2808134483 0.2566696610 0.0000000000
0.3113124892 0.2614041875 0.0000000000
0.3454331071 0.2667262655 0.0000000000
0.3806938723 0.2722468810 0.0000000000
0.4119344197 0.2771780145 0.0000000000
0.4374018936 0.2812290527 0.0000000000
0.4604495238 0.2843795963 0.0000000000
0.4867067788 0.2875440540 0.0000000000
0.5131461868 0.2903415316 0.0000000000
0.5383571433 0.2927759101 0.0000000000
0.5624420962 0.2947841333 0.0000000000
0.5881511731 0.2968894304 0.0000000000
0.6142754744 0.2988110741 0.0000000000
0.6398307822 0.3004747771 0.0000000000
0.6644329240 0.3022811454 0.0000000000
0.6863240716 0.3041094522 0.0000000000
0.7051933904 0.3055025030 0.0000000000
0.7223147264 0.3066075959 0.0000000000
0.7401244753 0.3066369387 0.0000000000
0.7605476984 0.3056332167 0.0000000000
0.7803910395 0.3044076193 0.0000000000
0.7981288863 0.3036988161 0.0000000000
0.8141690215 0.3036485222 0.0000000000
0.8289754464 0.3040856003 0.0000000000
0.8430725017 0.3050155833 0.0000000000
0.0000000000 0.2083264107 0.0019224526
0.0000000000 0.2207490640 0.0025861298
0.0194235510 0.2311077881 0.0004932522
0.0834117807 0.2400087000 0.0000000000
0.1341985908 0.2484409824 0.0000000000
0.1727000285 0.2562798201 0.0000000000
0.2086293547 0.2637866492 0.0000000000
0.2476097658 0.2708886696 0.0000000000
0.2823089886 0.2766636875 0.0000000000
0.3137155496 0.2817826652 0.0000000000
0.3488099646 0.2872571385 0.0000000000
0.3842028788 0.2924601969 0.0000000000
0.4152622054 0.2971814329 0.0000000000
0.4409043210 0.3011677824 0.0000000000
0.4642254325 0.3046055044 0.0000000000
0.4914343864 0.3082439303 0.0000000000
0.5190085150 0.3115714831 0.0000000000
0.5450639512 0.3144414896 0.0000000000
0.5695625840 0.3170532192 0.0000000000
0.5957869893 0.3199061596 0.0000000000
0.6223335332 0.3225147374 0.0000000000
0.6480361166 0.3245740630 0.0000000000
0.6717364332 0.3261838403 0.0000000000
0.6923515646 0.3272570244 0.0000000000
0.7102605414 0.3280124153 0.0000000000
0.7267683382 0.3286762784 0.0000000000
0.7455569073 0.3290488963 0.0000000000
0.7676913175 0.3292661105 0.0000000000
0.7896306204 0.3293586957 0.0000000000
0.8086433358 0.3292900672 0.0000000000
0.8252921400 0.3292444078 0.0000000000
0.8398952968 0.3292780039 0.0000000000
0.8536878526 0.3294258581 0.0000000000
0.0000000000 0.2235565595 0.0012781618
0.0000000000 0.2367907484 0.0022232283
0.0123912074 0.2475950241 0.0005275568
0.0779150171 0.2567020200 0.0000000000
0.1313877597 0.2653987819 0.0000000000
0.1716412250 0.2735555157 0.0000000000
0.2088792132 0.2815870878 0.0000000000
0.2489734611 0.2893396921 0.0000000000
0.2844541099 0.2958346094 0.0000000000
0.3165297875 0.3015952650 0.0000000000
0.3523953593 0.3073754421 0.0000000000
0.3877009005 0.3123806836 0.0000000000
0.4183141728 0.3167409928 0.0000000000
0.4440235339 0.3207329203 0.0000000000
0.4673744307 0.3244326678 0.0000000000
0.4951245658 0.3285370055 0.0000000000
0.5234992800 0.3324266268 0.0000000000
0.5503756271 0.3358937409 0.0000000000
0.5752613819 0.3390130773 0.0000000000
0.6022465697 0.3425140279 0.0000000000
0.6295159079 0.3457581036 0.0000000000
0.6558519519 0.3482934049 0.0000000000
0.6793616562 0.3498819715 0.0000000000
0.6997184532 0.3506042815 0.0000000000
0.7177169011 0.3510179416 0.0000000000
0.7339607809 0.3513234672 0.0000000000
0.7536364997 0.3518379186 0.0000000000
0.7765518331 0.3526824937 0.0000000000
0.7991587551 0.3534453999 0.0000000000
0.8187313334 0.3538071130 0.0000000000
0.8350212097 0.3539077115 0.0000000000
0.8498794525 0.3538338438 0.0000000000
0.8635103929 0.3536364786 0.0000000000
0.0000000000 0.2382547278 0.0002248956
0.0000000000 0.2520896144 0.0005603324
0.0059890949 0.2633748808 0.0000000000
0.0724169094 0.2729119589 0.0000000000
0.1283495745 0.2819225898 0.0000000000
0.1706654113 0.2905474882 0.0000000000
0.2095137683 0.2990906012 0.0000000000
0.2510183361 0.3073934435 0.0000000000
0.2871676043 0.3145540603 0.0000000000
0.3196905830 0.3210702180 0.0000000000
0.3562057789 0.3272457378 0.0000000000
0.3913783542 0.3321098548 0.0000000000
0.4212913400 0.3361240220 0.0000000000
0.4467573341 0.3397923300 0.0000000000
0.4700138965 0.3436405760 0.0000000000
0.4980353026 0.3480654371 0.0000000000
0.5269257320 0.3523749194 0.0000000000
0.5544546123 0.3563463803 0.0000000000
0.5798801915 0.3600062527 0.0000000000
0.6076620658 0.3641155125 0.0000000000
0.6357967260 0.3680181416 0.0000000000
0.6628743861 0.3712251366 0.0000000000
0.6871474792 0.3731307588 0.0000000000
0.7078914345 0.3738367793 0.0000000000
0.7265101868 0.3741966645 0.0000000000
0.7439138855 0.3744006397 0.0000000000
0.7639368270 0.3749293804 0.0000000000
0.7868659953 0.3758860674 0.0000000000
0.8093022777 0.3768099709 0.0000000000
0.8282775880 0.3773329497 0.0000000000
0.8443203540 0.3775755865 0.0000000000
0.8587983635 0.3776073377 0.0000000000
0.8726795445 0.3775025125 0.0000000000
0.0000000000 0.2523018598 0.0000000000
0.0000000000 0.2665642877 0.0000590640
0.0000000000 0.2784175094 0.0000000000
0.0658891119 0.2886532683 0.0000000000
0.1255433790 0.2983980669 0.0000000000
0.1699369274 0.3074805800 0.0000000000
0.2102803727 0.3164152653 0.0000000000
0.2528672104 0.3251506072 0.0000000000
0.2893851333 0.3327276892 0.0000000000
0.3221927113 0.3395903894 0.0000000000
0.3592395195 0.3458808022 0.0000000000
0.3944497886 0.3506047486 0.0000000000
0.4240611536 0.3544670669 0.0000000000
0.4493483701 0.3580967250 0.0000000000
0.4725810551 0.3621994707 0.0000000000
0.5009111874 0.3670112863 0.0000000000
0.5302263926 0.3717498178 0.0000000000
0.5581812944 0.3761466517 0.0000000000
0.5841316482 0.3804369463 0.0000000000
0.6127911526 0.3851609021 0.0000000000
0.6416164770 0.3895983826 0.0000000000
0.6692888605 0.3932697075 0.0000000000
0.6942400554 0.3955418119 0.0000000000
0.7158117342 0.3964476370 0.0000000000
0.7355417469 0.3969082626 0.0000000000
0.7540898587 0.3971949806 0.0000000000
0.7743473566 0.3977691936 0.0000000000
0.7971923859 0.3987148975 0.0000000000
0.8189730015 0.3996351117 0.0000000000
0.8371506472 0.4002101693 0.0000000000
0.8529249352 0.4005198121 0.0000000000
0.8674037445 0.4006740800 0.0000000000
0.8815894297 0.4006775857 0.0000000000
0.0000000000 0.2672728314 0.0000000000
0.0000000000 0.2822492331 0.0000000000
0.0000000000 0.2949602810 0.0000000000
0.0574676795 0.3059827189 0.0000000000
0.1222948233 0.3165142054 0.0000000000
0.1687481290 0.3258900875 0.0000000000
0.2101035320 0.3348435802 0.0000000000
0.2534264714 0.3435966284 0.0000000000
0.2902316301 0.3513368305 0.0000000000
0.3232493129 0.3585017501 0.0000000000
0.3611903349 0.3653440233 0.0000000000
0.3974161559 0.3706655040 0.0000000000
0.4274243523 0.3749308795 0.0000000000
0.4528732089 0.3788313137 0.0000000000
0.4763087692 0.3830544652 0.0000000000
0.5046580124 0.3879156172 0.0000000000
0.5342967757 0.3928648743 0.0000000000
0.5625905347 0.3975191494 0.0000000000
0.5887396074 0.4020064357 0.0000000000
0.6181306917 0.4071616423 0.0000000000
0.6475128838 0.4120312339 0.0000000000
0.6756173447 0.4160915338 0.0000000000
0.7009402754 0.4186568483 0.0000000000
0.7231915198 0.4198955365 0.0000000000
0.7437193858 0.4206034529 0.0000000000
0.7632329051 0.4210745759 0.0000000000
0.7840829454 0.4219307523 0.0000000000
0.8073851804 0.4231654604 0.0000000000
0.8287906069 0.4243265881 0.0000000000
0.8467622190 0.4249797258 0.0000000000
0.8624769055 0.4252673016 0.0000000000
0.8771728856 0.4253521151 0.0000000000
0.8915654585 0.4252311922 0.0000000000
0.0000000000 0.2816645684 0.0000000000
0.0000000000 0.2974905129 0.0000000000
0.0000000000 0.3111538499 0.0000000000
0.0475482188 0.3229614718 0.0000000000
0.1190285642 0.3338614504 0.0000000000
0.1672621728 0.3433848152 0.0000000000
0.2090676872 0.3522521706 0.0000000000
0.2526859438 0.3609002677 0.0000000000
0.2896149542 0.3685772614 0.0000000000
0.3227304716 0.3758691738 0.0000000000
0.3617370096 0.3834566014 0.0000000000
0.3999251870 0.3900207246 0.0000000000
0.4310923799 0.3951992774 0.0000000000
0.4570877727 0.3996327355 0.0000000000
0.4808937443 0.4039183682 0.0000000000
0.5091719016 0.4085711941 0.0000000000
0.5386893157 0.4132473851 0.0000000000
0.5671489628 0.4179460397 0.0000000000
0.5933273444 0.4224695092 0.0000000000
0.6230119461 0.4277125467 0.0000000000
0.6528278250 0.4327788446 0.0000000000
0.6811318826 0.4370949794 0.0000000000
0.7065860827 0.4399054832 0.0000000000
0.7293174421 0.4414514816 0.0000000000
0.7501956538 0.4425934667 0.0000000000
0.7703079115 0.4433125083 0.0000000000
0.7918093666 0.4445534920 0.0000000000
0.8160219259 0.4463837914 0.0000000000
0.8377667204 0.4480050336 0.0000000000
0.8560853201 0.4487297467 0.0000000000
0.8719526395 0.4489064336 0.0000000000
0.8870070463 0.4487469686 0.0000000000
0.9016624531 0.4482738187 0.0000000000
0.0000000000 0.2949864139 0.0000000000
0.0000000000 0.3116915442 0.0000000000
0.0000000000 0.3261960693 0.0000000000
0.0367966302 0.3387430890 0.0000000000
0.1154987128 0.3498475383 0.0000000000
0.1656087552 0.3593329319 0.0000000000
0.2077547085 0.3680680250 0.0000000000
0.2512981269 0.3766233143 0.0000000000
0.2883186041 0.3842333536 0.0000000000
0.3214309569 0.3915104445 0.0000000000
0.3613371145 0.3997204179 0.0000000000
0.4013930293 0.4074611436 0.0000000000
0.4344093623 0.4139858436 0.0000000000
0.4613631304 0.4192177657 0.0000000000
0.4855953728 0.4235611134 0.0000000000
0.5140214500 0.4280349750 0.0000000000
0.5433593376 0.4323970376 0.0000000000
0.5715732135 0.4366633648 0.0000000000
0.5976757559 0.4411278151 0.0000000000
0.6274679905 0.4463065382 0.0000000000
0.6575083883 0.4514172241 0.0000000000
0.6858878921 0.4558321658 0.0000000000
0.7113104929 0.4588467177 0.0000000000
0.7344256424 0.4606905584 0.0000000000
0.7556326954 0.4621445535 0.0000000000
0.7758722280 0.4633393000 0.0000000000
0.7979591025 0.4649831585 0.0000000000
0.8230869342 0.4675119252 0.0000000000
0.8457498040 0.4696854501 0.0000000000
0.8644314486 0.4705621038 0.0000000000
0.8808698140 0.4706215515 0.0000000000
0.8962929400 0.4701549423 0.0000000000
0.9113139635 0.4692140682 0.0000000000
0.0000000000 0.3072192182 0.0000000000
0.0000000000 0.3248870686 0.0000000000
0.0000000000 0.3399571673 0.0000000000
0.0248964185 0.3529360949 0.0000000000
0.1113777885 0.3643819065 0.0000000000
0.1636413723 0.3739708393 0.0000000000
0.2060711593 0.3826212249 0.0000000000
0.2496479162 0.3910673600 0.0000000000
0.2869752072 0.3986342544 0.0000000000
0.3202945364 0.4059085462 0.0000000000
0.3606921634 0.4144464461 0.0000000000
0.4025284517 0.4232720564 0.0000000000
0.4370297242 0.4308714753 0.0000000000
0.4648971453 0.4369460152 0.0000000000
0.4897813799 0.4414626249 0.0000000000
0.5183959400 0.4457340382 0.0000000000
0.5477186046 0.4498507924 0.0000000000
0.5757986209 0.4538858904 0.0000000000
0.6016629846 0.4580450535 0.0000000000
0.6315654649 0.4630721731 0.0000000000
0.6616583854 0.4681108243 0.0000000000
