2. reversing the negative_/print paper LUTs/color/LOGO GmbH, Steinfurt/305 pearl fuji digital DPII 16_1_color only.cube
LUT_3D_SIZE 5
0.0001144230 0.0000000000 0.0000735423
0.2209402171 0.0205307716 0.0000000000
0.4051256318 0.0213496261 0.0000000000
0.5792545226 0.0002736206 0.0000000000
0.7121895077 0.0000000000 0.0000000000
0.0000000000 0.1671806398 0.0170294993
0.2623001637 0.2209107062 0.0096718485
0.4900524442 0.2469855618 0.0000000000
0.6887697243 0.2592565294 0.0000000000
0.8379388653 0.2530188935 0.0000000000
0.0000000000 0.3080677891 0.0172664942
0.2750720112 0.3828107419 0.0000000000
0.5249966714 0.4134734594 0.0000000000
0.7434519274 0.4442684246 0.0000000000
0.9140287656 0.4552777541 0.0000000000
0.0000000000 0.4333913065 0.0022770066
0.2573040953 0.5184308360 0.0000000000
0.5503302977 0.5800532211 0.0000000000
0.7933624459 0.6194654146 0.0000000000
0.9701728424 0.6360704820 0.0000000000
0.0000000000 0.5190860761 0.0000000000
0.2575472568 0.6325722970 0.0000000000
0.5575066333 0.6991317364 0.0000000000
0.8252327316 0.7564236923 0.0000000000
1.0000000000 0.7858736533 0.0000000000
0.0000000000 0.0082602498 0.2079477006
0.2110348886 0.0317613540 0.2104788669
0.4073563911 0.0335974672 0.2120050971
0.5903105151 0.0138127858 0.2182305856
0.7303732888 0.0000000000 0.2108772211
0.0000000000 0.2059721623 0.2559603010
0.2499995945 0.2500003489 0.2499987976
0.4783593871 0.2759653372 0.2571483645
0.6921306873 0.2921613086 0.2528532343
0.8582839515 0.2924900917 0.2506196787
0.0000000000 0.3619927481 0.2699503502
0.2416395509 0.4336024221 0.2768118499
0.5121457011 0.4723442699 0.2704492007
0.7427541668 0.4935367726 0.2581090556
0.9354228518 0.5047255762 0.2455163093
0.0000000000 0.4884911090 0.2804597149
0.2075245836 0.5834319517 0.2689334600
0.5292564716 0.6436746139 0.2596181744
0.7851094344 0.6850649943 0.2484600241
0.9893795557 0.7002025284 0.2341258136
0.0000000000 0.5762488454 0.2820737870
0.1467626141 0.6856944442 0.2694942708
0.5252914821 0.7730443188 0.2289079400
0.7969860719 0.8312500916 0.2214817338
1.0000000000 0.8650700958 0.1720288304
0.0000000000 0.0000000000 0.3876528273
0.2077018126 0.0207312740 0.3933801676
0.4035518164 0.0186556268 0.4052954684
0.5968295205 0.0011582089 0.4143259260
0.7420681475 0.0000000000 0.4150040821
0.0000000000 0.2207086699 0.4499927660
0.2383718769 0.2656389192 0.4614490772
0.4757770298 0.2959586547 0.4695956636
0.6927175748 0.3073123490 0.4754986094
0.8769239791 0.2958398409 0.4673656586
0.0000000000 0.3866137738 0.4791042619
0.2142486045 0.4573511518 0.4918521860
0.4999998339 0.5000035413 0.5000007736
0.7445467714 0.5310868863 0.5035618596
0.9365943454 0.5318052151 0.4990246008
0.0000000000 0.5265838716 0.4992300430
0.1377016062 0.6249198992 0.5194813527
0.4984520724 0.6854852520 0.5152465394
0.7701157709 0.7254258083 0.5073001062
0.9896235362 0.7476283012 0.5046767411
0.0000000000 0.6183258720 0.5065663236
0.0470535742 0.7385213753 0.5255689783
0.4698337405 0.8236886618 0.5027695836
0.7709702102 0.8818619423 0.5078868022
1.0000000000 0.9297902941 0.4940420524
0.0000000000 0.0000000000 0.5202216973
0.2142321924 0.0000000000 0.5461373244
0.4135568002 0.0000000000 0.5643403147
0.5926753453 0.0000000000 0.5700769342
0.7150662345 0.3100417549 0.5956343898
0.0000000000 0.2287986992 0.6149204519
0.2300274091 0.2696137997 0.6420750953
0.4755912376 0.2969140898 0.6582395658
0.6854117794 0.3087102675 0.6675025846
0.8719233832 0.2992964354 0.6677483610
0.0000000000 0.4005274276 0.6633485290
0.1819331458 0.4738780102 0.6884954552
0.4885235237 0.5166579256 0.7048879931
0.7318151556 0.5395132820 0.7088611874
0.9365047420 0.5476004371 0.7130771819
0.0000000000 0.5432085022 0.6827591572
0.0556025642 0.6510679086 0.7273082889
0.4697516130 0.7158437336 0.7410522986
0.7499994302 0.7500004836 0.7500025528
0.9849546813 0.7692935582 0.7467634249
0.0000000000 0.6440693019 0.7135306828
0.0000000000 0.7727836963 0.7433469842
0.4118600041 0.8593228430 0.7547584489
0.7569104162 0.9323950779 0.7710999096
0.9950959682 0.9586441780 0.7575238082
0.0000000000 0.0000000000 0.6122305492
0.2187169330 0.0000000000 0.6539861703
0.4126806978 0.0000000000 0.6708090864
0.6064293438 0.0000000000 0.6857735434
0.7398433772 0.0000000000 0.6890369768
0.0000000000 0.2157021039 0.7246651242
0.2177072266 0.2542600918 0.7681400613
0.4805692344 0.2935637205 0.7992214021
0.6943646105 0.3122872435 0.8152949314
0.8871900751 0.2908395691 0.8238459198
0.0000000000 0.4069405939 0.7957733778
0.1648602297 0.4816951658 0.8387974127
0.4833383401 0.5244207859 0.8662102163
0.7244496493 0.5466700683 0.8792078839
0.9317157651 0.5594341508 0.8891984859
0.0000000000 0.5645551326 0.8448491351
0.0315419776 0.6618860552 0.8988846026
0.4395147221 0.7240458247 0.9339646532
0.7297413499 0.7600636197 0.9395667500
0.9830326091 0.7898152572 0.9634589625
0.0000000000 0.6571663789 0.8657225560
0.0000000000 0.7821388641 0.9283644312
0.3795445897 0.8715145506 0.9632039840
0.7259765665 0.9555691952 0.9997580108
1.0000000000 0.9999472903 0.9998782015
