2. reversing the negative_/print paper LUTs/color/LOGO GmbH, Steinfurt/305 lustre fuji supreme 16_1_color only.cube
LUT_3D_SIZE 33
0.0000956732 0.0000000000 0.0000656049
0.0310493280 0.0069868820 0.0016514479
0.0666390132 0.0128796520 0.0004788759
0.1043619016 0.0203106037 0.0025400466
0.1309298428 0.0247492543 0.0040252029
0.1536203752 0.0279092723 0.0044600082
0.1783996513 0.0306790093 0.0041536916
0.2089620419 0.0329079428 0.0032743275
0.2307325194 0.0336100518 0.0024551886
0.2473239793 0.0334410902 0.0016517167
0.2599506062 0.0324570088 0.0008398364
0.2793646021 0.0338855231 0.0005671861
0.3028570653 0.0365314198 0.0006547383
0.3266825856 0.0386845114 0.0008109389
0.3546393348 0.0401774064 0.0009513915
0.3816691284 0.0408648301 0.0008911133
0.4053946853 0.0406720580 0.0003319030
0.4277572134 0.0398249646 0.0000000000
0.4498858973 0.0385119563 0.0000000000
0.4721981921 0.0368457114 0.0000000000
0.4961399305 0.0350203253 0.0000000000
0.5217415110 0.0346248812 0.0000000000
0.5443326975 0.0330560092 0.0000000000
0.5640088154 0.0308597162 0.0000000000
0.5820881405 0.0284898949 0.0000000000
0.5997378138 0.0259672422 0.0000000000
0.6168494854 0.0237147615 0.0000000000
0.6354987745 0.0221944929 0.0000000000
0.6561408976 0.0217959394 0.0000000000
0.6789164188 0.0190670795 0.0000000000
0.6989207959 0.0147847976 0.0000000000
0.7112382750 0.0111618582 0.0000000000
0.7189583545 0.0063946230 0.0000000000
0.0024744818 0.0209411889 0.0041420660
0.0420749613 0.0290297892 0.0017179802
0.0788204409 0.0258117045 0.0001030689
0.1127165055 0.0269989991 0.0000433088
0.1346322332 0.0285156708 0.0000076112
0.1514150730 0.0315599286 0.0000015059
0.1734384277 0.0350869608 0.0000000000
0.2088273183 0.0391434118 0.0000000000
0.2371275179 0.0435384726 0.0000000000
0.2574736232 0.0460644861 0.0000000000
0.2735806055 0.0475190991 0.0000000000
0.2934332037 0.0490728227 0.0000000000
0.3170821992 0.0509375548 0.0000000000
0.3419453779 0.0527966781 0.0000000000
0.3690035059 0.0541273141 0.0000000000
0.3953111140 0.0545597069 0.0000000000
0.4199094755 0.0549148740 0.0000000000
0.4437958887 0.0550528897 0.0000000000
0.4682537071 0.0552819572 0.0000000000
0.4931705910 0.0551908945 0.0000000000
0.5204423935 0.0553906681 0.0000000000
0.5469977659 0.0538152857 0.0000000000
0.5699676173 0.0521428037 0.0000000000
0.5900429576 0.0504249243 0.0000000000
0.6071463415 0.0488507106 0.0000000000
0.6265242378 0.0467319248 0.0000000000
0.6460034913 0.0439250536 0.0000000000
0.6665718598 0.0410816316 0.0000000000
0.6842676135 0.0382615757 0.0000000000
0.7008420547 0.0361536057 0.0000000000
0.7174699591 0.0338889460 0.0000000000
0.7310777236 0.0326805867 0.0000000000
0.7430543223 0.0327272737 0.0000000000
0.0073507725 0.0407051654 0.0076489633
0.0375143904 0.0464499880 0.0101342270
0.0831611544 0.0561662519 0.0096758500
0.1157697302 0.0547174850 0.0075720119
0.1349400475 0.0549472835 0.0068315426
0.1497606718 0.0565333705 0.0065577439
0.1700547607 0.0591761580 0.0063293319
0.2075970298 0.0642836087 0.0066254492
0.2385894242 0.0688110834 0.0070839882
0.2617124964 0.0728099389 0.0075288525
0.2806572435 0.0763666495 0.0082101877
0.3021979273 0.0786963363 0.0073000494
0.3264511952 0.0801992254 0.0061106249
0.3524358929 0.0814464488 0.0052122839
0.3791017216 0.0822474372 0.0042125199
0.4048285653 0.0827005483 0.0032761008
0.4300812757 0.0835935373 0.0024486490
0.4546837433 0.0844277273 0.0017637408
0.4808558333 0.0851545235 0.0011362374
0.5082141922 0.0857129356 0.0007090894
0.5358527397 0.0860978982 0.0005142724
0.5629137006 0.0861239442 0.0000734418
0.5863849117 0.0854082527 0.0000000000
0.6063625794 0.0842492341 0.0000000000
0.6277375273 0.0829995086 0.0000000000
0.6496319086 0.0813059811 0.0000000000
0.6694939412 0.0793910484 0.0000000000
0.6865251477 0.0768492141 0.0000000000
0.7037995806 0.0733827192 0.0000000000
0.7201828923 0.0702042377 0.0000000000
0.7354577298 0.0685816959 0.0000000000
0.7510001176 0.0667152493 0.0000000000
0.7649424836 0.0646676639 0.0000000000
0.0011599169 0.0566741250 0.0126190627
0.0259041860 0.0664856168 0.0137438761
0.0736660023 0.0768711050 0.0140374986
0.1148466222 0.0792055341 0.0137855908
0.1362173635 0.0788137466 0.0129524437
0.1531765200 0.0807441656 0.0128132877
0.1761791001 0.0839317036 0.0130501543
0.2164187145 0.0891749764 0.0134234142
0.2464617240 0.0934168369 0.0135314867
0.2695539241 0.0969537377 0.0138035605
0.2888347977 0.1006460326 0.0143775028
0.3108189567 0.1029285934 0.0137633556
0.3359149827 0.1045790591 0.0118755519
0.3633155249 0.1059336362 0.0100748108
0.3899558722 0.1066888921 0.0082208060
0.4157497596 0.1073786247 0.0068143228
0.4411274529 0.1085873677 0.0056880734
0.4669547940 0.1101077958 0.0047886843
0.4935688991 0.1111646108 0.0038671455
0.5221917341 0.1121833020 0.0030050234
0.5497654696 0.1133368326 0.0022418823
0.5761220561 0.1133307511 0.0011421839
0.5981238357 0.1130678348 0.0005553752
0.6180074495 0.1123178627 0.0000000000
0.6422096505 0.1117117717 0.0000000000
0.6638900312 0.1104748658 0.0000000000
0.6844215348 0.1087698959 0.0000000000
0.7018539718 0.1066328115 0.0000000000
0.7190364406 0.1041266115 0.0000000000
0.7359676633 0.1014163207 0.0000000000
0.7521408264 0.0996072329 0.0000000000
0.7678110340 0.0981057377 0.0000000000
0.7815358189 0.0968006073 0.0000000000
0.0000000000 0.0728412267 0.0153024336
0.0195663155 0.0822988092 0.0157060564
0.0698252859 0.0918288924 0.0157054970
0.1111833056 0.0949397501 0.0161658462
0.1393635859 0.0990876565 0.0158537159
0.1578902458 0.1009569358 0.0154976206
0.1825040715 0.1043722882 0.0157251154
0.2234844195 0.1091794723 0.0163924576
0.2530842441 0.1140767153 0.0164314364
0.2766077169 0.1181428342 0.0163025303
0.2961786417 0.1215385204 0.0160870125
0.3190438039 0.1238213432 0.0153791127
0.3444215574 0.1252893460 0.0138081987
0.3721571986 0.1269027211 0.0119771902
0.3989685423 0.1281723833 0.0099330014
0.4249343980 0.1286807942 0.0075385136
0.4502875786 0.1301411001 0.0063762484
0.4770171718 0.1318081859 0.0054320557
0.5045074326 0.1336030487 0.0046631243
0.5331460753 0.1350783929 0.0036460618
0.5605727372 0.1365780153 0.0025008255
0.5863150793 0.1368235868 0.0016181488
0.6076240455 0.1367683520 0.0009541218
0.6303887497 0.1364885073 0.0003259403
0.6534935724 0.1359635498 0.0000000000
0.6759873253 0.1351253622 0.0000000000
0.6956856162 0.1337111140 0.0000000000
0.7140979319 0.1320042601 0.0000000000
0.7323351955 0.1297428152 0.0000000000
0.7491447461 0.1273795874 0.0000000000
0.7651200007 0.1251882753 0.0000000000
0.7801541015 0.1236820754 0.0000000000
0.7936433641 0.1225435671 0.0000000000
0.0000000000 0.0895472949 0.0162971293
0.0189980449 0.0961237777 0.0174678944
0.0690835087 0.1046043191 0.0165974020
0.1114177914 0.1090154423 0.0172982635
0.1398478849 0.1139624656 0.0173672508
0.1627612130 0.1188746185 0.0170953069
0.1886489675 0.1225151865 0.0169173697
0.2300307675 0.1274211290 0.0172344148
0.2590136769 0.1321160270 0.0172604753
0.2828067101 0.1367315026 0.0169938548
0.3026241841 0.1405868686 0.0165867871
0.3264751340 0.1428911273 0.0153318080
0.3524143279 0.1443670676 0.0136364603
0.3799748944 0.1458640944 0.0117695182
0.4068251575 0.1473109898 0.0096094033
0.4328603827 0.1481932861 0.0070740917
0.4583070753 0.1498100067 0.0057668355
0.4859520540 0.1517826988 0.0048954670
0.5142230435 0.1536889952 0.0040951508
0.5425488834 0.1556085728 0.0033297408
0.5695041465 0.1573248697 0.0020426788
0.5945189928 0.1579996074 0.0012401376
0.6157663615 0.1581999710 0.0006097104
0.6417979062 0.1581415276 0.0002727708
0.6647406074 0.1579434185 0.0000906980
0.6860067427 0.1573308175 0.0000000000
0.7056366733 0.1562587801 0.0000000000
0.7246814249 0.1547328569 0.0000000000
0.7443302796 0.1526879543 0.0000000000
0.7609649635 0.1505798265 0.0000000000
0.7761794864 0.1482955865 0.0000000000
0.7906010608 0.1462771884 0.0000000000
0.8032025476 0.1447062614 0.0000000000
0.0000000000 0.1092642544 0.0184845989
0.0187478710 0.1139238174 0.0192952521
0.0685238311 0.1202702049 0.0183799510
0.1121827335 0.1259749644 0.0190852882
0.1412935866 0.1317365629 0.0193528054
0.1649274959 0.1372791334 0.0193527390
0.1933551351 0.1424627091 0.0187611174
0.2355798336 0.1474904998 0.0185258849
0.2641918873 0.1522165839 0.0182036802
0.2878192200 0.1566876789 0.0178315103
0.3078798471 0.1608489835 0.0174029494
0.3325437169 0.1637087643 0.0160541290
0.3595562991 0.1653720260 0.0141265818
0.3870752060 0.1669176460 0.0119986555
0.4139687921 0.1683373991 0.0097722346
0.4401811863 0.1696636685 0.0075214591
0.4659053609 0.1713007934 0.0057948441
0.4936352772 0.1733723901 0.0047140956
0.5228963234 0.1753621891 0.0039261106
0.5510955829 0.1772728502 0.0030612005
0.5773502185 0.1791006217 0.0020496743
0.6018413615 0.1803501112 0.0011345203
0.6240316819 0.1809150791 0.0003990168
0.6518990559 0.1811801773 0.0000784121
0.6754445388 0.1813849416 0.0000000000
0.6963219389 0.1811793784 0.0000000000
0.7155504205 0.1804874671 0.0000000000
0.7348045616 0.1793757112 0.0000000000
0.7555651001 0.1776823885 0.0000000000
0.7729338006 0.1756113315 0.0000000000
0.7871706588 0.1735876935 0.0000000000
0.8008758705 0.1712120158 0.0000000000
0.8123814574 0.1691568508 0.0000000000
0.0000000000 0.1344060499 0.0252273036
0.0149550047 0.1393276415 0.0239810746
0.0663650536 0.1463065282 0.0231737256
0.1119823627 0.1523780916 0.0231566884
0.1413009799 0.1577709059 0.0233580490
0.1661129117 0.1632339521 0.0234009575
0.1951964010 0.1685829205 0.0231769206
0.2381126558 0.1734114874 0.0216700357
0.2667352370 0.1775771543 0.0210472918
0.2905406526 0.1817538872 0.0205425155
0.3109126974 0.1857097943 0.0199915153
0.3364146113 0.1888758494 0.0188807447
0.3649167484 0.1915510797 0.0171617116
0.3927265319 0.1932711560 0.0151065510
0.4199890855 0.1950611305 0.0130521965
0.4467575405 0.1971140366 0.0113835911
0.4732526406 0.1987140870 0.0093812695
0.5009993676 0.2001366267 0.0072411844
0.5299760640 0.2018432783 0.0052779770
0.5578399653 0.2034383370 0.0043749010
0.5834582957 0.2049355707 0.0034618023
0.6083862419 0.2069149898 0.0021842746
0.6339508795 0.2082875642 0.0011943368
0.6610991254 0.2091705996 0.0003286847
0.6847169112 0.2100980941 0.0000683166
0.7061084557 0.2104775754 0.0000000000
0.7266907112 0.2104352317 0.0000000000
0.7464323954 0.2098107767 0.0000000000
0.7677120993 0.2088545141 0.0000000000
0.7852884263 0.2071432842 0.0000000000
0.7990063788 0.2051493700 0.0000000000
0.8118902343 0.2031680920 0.0000000000
0.8229749724 0.2013656773 0.0000000000
0.0000000000 0.1543140146 0.0296635398
0.0138861442 0.1603805595 0.0273081557
0.0653229399 0.1671452830 0.0258366838
0.1114897839 0.1738403389 0.0261487988
0.1427136382 0.1795607613 0.0259765556
0.1681366642 0.1846373935 0.0257008992
0.1981289273 0.1897465241 0.0253077852
0.2400303110 0.1942700789 0.0241041512
0.2695130941 0.1984420496 0.0225495946
0.2934069825 0.2019578605 0.0215591714
0.3139764862 0.2055772552 0.0205926767
0.3399238856 0.2087745492 0.0195471801
0.3689243792 0.2117389577 0.0182596098
0.3978981253 0.2150190644 0.0168993311
0.4255723450 0.2173442859 0.0148452541
0.4527865928 0.2198723198 0.0131054963
0.4799044010 0.2216422419 0.0111503066
0.5078012852 0.2229176178 0.0089519180
0.5359646743 0.2240302848 0.0067324985
0.5632222479 0.2254016712 0.0046855480
0.5887950922 0.2267525861 0.0036362451
0.6134907831 0.2293404651 0.0024076718
0.6425754436 0.2318070264 0.0013243333
0.6692626505 0.2334415608 0.0003474353
0.6927568985 0.2348592474 0.0000489128
0.7143818417 0.2356487517 0.0000000000
0.7354555047 0.2359452517 0.0000000000
0.7566138951 0.2359321748 0.0000000000
0.7784466521 0.2352848811 0.0000000000
0.7960717754 0.2338348755 0.0000000000
0.8089725991 0.2316487132 0.0000000000
0.8213445282 0.2295228173 0.0000000000
0.8323174118 0.2276206671 0.0000000000
0.0000000000 0.1713026233 0.0327665101
0.0125342680 0.1783769638 0.0298763663
0.0647853854 0.1848535265 0.0272357006
0.1109487469 0.1914824190 0.0278037779
0.1435406522 0.1973889123 0.0275911562
0.1706867530 0.2025056687 0.0269970734
0.2016230417 0.2072906921 0.0261556450
0.2426129555 0.2119889091 0.0248543466
0.2716943994 0.2162672766 0.0232876966
0.2963580804 0.2203067282 0.0215907602
0.3171152856 0.2238016930 0.0200649469
0.3434808159 0.2271860090 0.0188839310
0.3730322975 0.2305944953 0.0178447680
0.4021847713 0.2342408749 0.0167504020
0.4308101014 0.2380844688 0.0155428541
0.4584988877 0.2410403616 0.0135727394
0.4861640950 0.2428366084 0.0114091019
0.5142993682 0.2440091990 0.0090840762
0.5420662023 0.2449255387 0.0067351435
0.5683427421 0.2457421936 0.0046171258
0.5934059754 0.2467389957 0.0030422083
0.6182887127 0.2499211155 0.0017770822
0.6501348753 0.2529027984 0.0005967796
0.6767116155 0.2556891807 0.0001060220
0.7002760831 0.2576758265 0.0000035242
0.7222405101 0.2587977893 0.0000000000
0.7438050484 0.2593647782 0.0000000000
0.7656096218 0.2597215256 0.0000000000
0.7883384081 0.2596471159 0.0000000000
0.8059034837 0.2583352088 0.0000000000
0.8183595599 0.2561165918 0.0000000000
0.8299670849 0.2537555755 0.0000000000
0.8410869712 0.2516919449 0.0000000000
0.0000000000 0.1850364075 0.0348682869
0.0097844667 0.1922454394 0.0308071194
0.0651070394 0.1993077004 0.0274229416
0.1120740497 0.2066078677 0.0276803148
0.1445147908 0.2129560376 0.0273666769
0.1734657080 0.2185863124 0.0266948706
0.2053166949 0.2236978142 0.0256125616
0.2457668721 0.2284853434 0.0238212664
0.2746256564 0.2327346498 0.0219300823
0.2991302180 0.2367043645 0.0200241263
0.3209310919 0.2405176186 0.0181206613
0.3475611536 0.2444317216 0.0170033698
0.3774118835 0.2483680986 0.0160343730
0.4068546821 0.2524872908 0.0149788047
0.4358359014 0.2567919971 0.0137744683
0.4640343280 0.2609606297 0.0123696373
0.4923023600 0.2626007929 0.0099671352
0.5203435323 0.2635842599 0.0074192529
0.5478450168 0.2643025488 0.0052037854
0.5736607684 0.2648693236 0.0033343239
0.5980024802 0.2656002412 0.0016739219
0.6235415394 0.2692000093 0.0004977462
0.6567685580 0.2726521881 0.0002323558
0.6837003692 0.2759102918 0.0000846299
0.7074720547 0.2789206933 0.0000000000
0.7299611290 0.2803276700 0.0000000000
0.7520369893 0.2811592853 0.0000000000
0.7745123752 0.2817804289 0.0000000000
0.7975455065 0.2822527041 0.0000000000
0.8148673130 0.2810475147 0.0000000000
0.8271461208 0.2786924709 0.0000000000
0.8388734693 0.2762117258 0.0000000000
0.8494331171 0.2740335552 0.0000000000
0.0000000000 0.2016200420 0.0363628539
0.0048612236 0.2091247059 0.0328882317
0.0621423403 0.2169737548 0.0292988922
0.1103324536 0.2245825874 0.0291247201
0.1435383223 0.2313753453 0.0286093160
0.1726423175 0.2375804116 0.0278029427
0.2064563476 0.2431856913 0.0266117394
0.2474380411 0.2482102637 0.0246324768
0.2764435092 0.2525384565 0.0226343483
0.3011197412 0.2565599235 0.0207041370
0.3237436144 0.2604810651 0.0190692837
0.3516698649 0.2646163671 0.0168823628
0.3817114285 0.2688748748 0.0157866147
0.4113716799 0.2732795112 0.0145742602
0.4406123242 0.2777789439 0.0131275903
0.4695468922 0.2822127051 0.0114788080
0.4992870534 0.2850954396 0.0091257831
0.5276222961 0.2863902507 0.0066440369
0.5548912351 0.2873428865 0.0043859652
0.5804407875 0.2881625688 0.0028056704
0.6044274792 0.2890825309 0.0012117343
0.6322004493 0.2929362145 0.0000128755
0.6643209119 0.2966639582 0.0000000000
0.6908537376 0.3000615435 0.0000000000
0.7144425765 0.3030828680 0.0000000000
0.7371977259 0.3045626925 0.0000000000
0.7592792772 0.3055484144 0.0000000000
0.7816833250 0.3062249844 0.0000000000
0.8046171258 0.3065712861 0.0000000000
0.8225406045 0.3057187447 0.0000000000
0.8349253276 0.3034803866 0.0000000000
0.8469077925 0.3010997928 0.0000000000
0.8577061048 0.2990486056 0.0000000000
0.0000000000 0.2202047956 0.0371431567
0.0021091493 0.2279880695 0.0351029488
0.0558089998 0.2364310586 0.0327025571
0.1069443799 0.2450334603 0.0313478275
0.1408368096 0.2519543418 0.0305417450
0.1704893471 0.2584884823 0.0294879059
0.2049326129 0.2646114139 0.0283053255
0.2481935052 0.2701490531 0.0263844181
0.2776009060 0.2746092370 0.0244304779
0.3027300001 0.2787870862 0.0226171936
0.3262010502 0.2828765340 0.0211606804
0.3546969152 0.2871383613 0.0190194396
0.3861775565 0.2915291922 0.0163505269
0.4159555050 0.2959714895 0.0147430859
0.4454509402 0.3005410855 0.0128464021
0.4753730696 0.3049978355 0.0107182296
0.5057286549 0.3082272497 0.0083403390
0.5353769150 0.3107138462 0.0061180858
0.5627548919 0.3122699379 0.0039945425
0.5881533325 0.3137229478 0.0025181903
0.6120680311 0.3152364237 0.0011399640
0.6430202568 0.3190789361 0.0000142440
0.6727623514 0.3226569748 0.0000000000
0.6984083219 0.3260217396 0.0000000000
0.7217465797 0.3289142451 0.0000000000
0.7443837359 0.3303121408 0.0000000000
0.7663216829 0.3306318447 0.0000000000
0.7882212059 0.3313386212 0.0000000000
0.8107705538 0.3315292373 0.0000000000
0.8286555837 0.3306291176 0.0000000000
0.8421357452 0.3287505722 0.0000000000
0.8545834779 0.3267264513 0.0000000000
0.8664773425 0.3249719623 0.0000000000
0.0000000000 0.2392886110 0.0371487834
0.0000000000 0.2473946170 0.0373712359
0.0487384402 0.2561189835 0.0355830271
0.1024353767 0.2657597628 0.0336751036
0.1384655529 0.2734052538 0.0320525609
0.1684038895 0.2801397092 0.0306296872
0.2031170847 0.2865594981 0.0291764802
0.2474964570 0.2922833648 0.0276095433
0.2790441694 0.2972707381 0.0261207011
0.3045973324 0.3016001213 0.0242656167
0.3288812869 0.3058319337 0.0228526180
0.3579366645 0.3102169503 0.0206202210
0.3896500777 0.3146948445 0.0176988668
0.4208443149 0.3191638052 0.0143626619
0.4506225323 0.3237274881 0.0118169846
0.4817634920 0.3280570897 0.0090250892
0.5126017448 0.3313509820 0.0066779223
0.5423917478 0.3343486867 0.0049262127
0.5703537433 0.3370990687 0.0035258234
0.5961560939 0.3390945456 0.0019790664
0.6201193415 0.3412182367 0.0007026763
0.6540591742 0.3447201806 0.0000080933
0.6811993062 0.3476715173 0.0000000000
0.7058744133 0.3507782886 0.0000000000
0.7291639216 0.3535005768 0.0000000000
0.7518556511 0.3548005762 0.0000000000
0.7736430230 0.3549149705 0.0000000000
0.7947165541 0.3547981724 0.0000000000
0.8167262976 0.3548705183 0.0000000000
0.8347249498 0.3540258625 0.0000000000
0.8493366713 0.3526435926 0.0000000000
0.8626767069 0.3510562733 0.0000000000
0.8762552247 0.3496044998 0.0000000000
0.0000000000 0.2587329856 0.0361667679
0.0000000000 0.2673047464 0.0387807312
0.0407575531 0.2761700972 0.0376985516
0.0965821983 0.2865516184 0.0354399471
0.1354342784 0.2952267673 0.0330217582
0.1662850359 0.3025426477 0.0308946337
0.2012546949 0.3092285771 0.0290898343
0.2470742483 0.3151097026 0.0278261581
0.2793831817 0.3201916224 0.0266183127
0.3067406277 0.3246495600 0.0253546647
0.3319177729 0.3285487326 0.0237257635
0.3614504640 0.3326444241 0.0211457621
0.3935328743 0.3368461546 0.0178020632
0.4251241847 0.3410694245 0.0140357378
0.4561329952 0.3452262511 0.0097814979
0.4887578811 0.3494937155 0.0062288801
0.5199174734 0.3531445238 0.0045074578
0.5496851709 0.3565990008 0.0032612673
0.5776727862 0.3601826539 0.0021451615
0.6039422969 0.3635110189 0.0010158036
0.6300361300 0.3664538763 0.0000836860
0.6639493085 0.3700190204 0.0000080933
0.6903586847 0.3730856984 0.0000000000
0.7133902221 0.3757893168 0.0000000000
0.7368105709 0.3786367086 0.0000000000
0.7594147618 0.3799240744 0.0000000000
0.7811523322 0.3799618580 0.0000000000
0.8016901468 0.3793782459 0.0000000000
0.8228004391 0.3787484090 0.0000000000
0.8410923230 0.3779558271 0.0000000000
0.8562938177 0.3767905596 0.0000000000
0.8721371326 0.3755632976 0.0000000000
0.8863692613 0.3742167823 0.0000000000
0.0000000000 0.2780304780 0.0343007140
0.0000000000 0.2870502640 0.0387237872
0.0318116447 0.2964681038 0.0388413201
0.0909069212 0.3075842443 0.0358738413
0.1312923771 0.3166571549 0.0329412171
0.1632647131 0.3241063777 0.0301445190
0.1993170253 0.3307212027 0.0279758173
0.2470302171 0.3364065202 0.0268877091
0.2801019210 0.3413504122 0.0258026154
0.3080963977 0.3458054309 0.0246825980
0.3349773580 0.3499289416 0.0234494008
0.3651228309 0.3540163762 0.0203120389
0.3977254310 0.3582825639 0.0162950678
0.4298754798 0.3626573893 0.0118404002
0.4615189957 0.3671112202 0.0068132726
0.4960072181 0.3715595654 0.0036998265
0.5275268233 0.3759220463 0.0019126246
0.5573693047 0.3801704418 0.0010943702
0.5853829564 0.3844885812 0.0005831118
0.6126683612 0.3887522588 0.0002660978
0.6419694672 0.3926524705 0.0000000000
0.6734098671 0.3960970572 0.0000000000
0.6990735970 0.3992257587 0.0000000000
0.7224072267 0.4020618476 0.0000000000
0.7449862077 0.4047128294 0.0000000000
0.7671646875 0.4057269342 0.0000000000
0.7884000694 0.4054794803 0.0000000000
0.8088062067 0.4046688283 0.0000000000
0.8294649420 0.4034643316 0.0000000000
0.8479180965 0.4025603019 0.0000000000
0.8644571608 0.4015685572 0.0000000000
0.8815727812 0.4004958939 0.0000000000
0.8982943780 0.3995103198 0.0000000000
0.0000000000 0.2956170215 0.0346956469
0.0000000000 0.3052120605 0.0379946250
0.0225217017 0.3148415557 0.0383598646
0.0840747263 0.3254064524 0.0353378709
0.1266013442 0.3340972641 0.0324899063
0.1586736050 0.3416203735 0.0298415974
0.1958776348 0.3485431229 0.0272328584
0.2456479534 0.3547249767 0.0256980940
0.2794374625 0.3598661656 0.0244733682
0.3079622234 0.3646680368 0.0232399036
0.3355694444 0.3694149189 0.0218794469
0.3669652882 0.3737743911 0.0187890213
0.3999345177 0.3781266523 0.0144851435
0.4323173030 0.3826016878 0.0098443631
0.4642124631 0.3870685625 0.0053096869
0.4993550024 0.3914445488 0.0022107854
0.5323818321 0.3965618164 0.0007296957
0.5620661746 0.4012690942 0.0002758254
0.5899534367 0.4060890741 0.0000000000
0.6175911406 0.4108383934 0.0000000000
0.6492363784 0.4153590569 0.0000000000
0.6804013269 0.4191572836 0.0000000000
0.7058124020 0.4224975780 0.0000000000
0.7296579068 0.4254481730 0.0000000000
0.7527710626 0.4280852862 0.0000000000
0.7753985745 0.4294439994 0.0000000000
0.7962766231 0.4293570499 0.0000000000
0.8164895836 0.4287079241 0.0000000000
0.8373610929 0.4276295688 0.0000000000
0.8560531818 0.4268838611 0.0000000000
0.8733147780 0.4261501698 0.0000000000
0.8916584381 0.4252672005 0.0000000000
0.9095136593 0.4244500903 0.0000000000
0.0000000000 0.3125284534 0.0358589478
0.0000000000 0.3223178149 0.0370338116
0.0138396752 0.3318567457 0.0369074484
0.0769505419 0.3421261262 0.0344066682
0.1209716635 0.3503679266 0.0316213323
0.1544347307 0.3577607485 0.0292496667
0.1915947474 0.3648935868 0.0268972009
0.2436251999 0.3723119028 0.0245164934
0.2782673541 0.3779802688 0.0228511760
0.3073042082 0.3832172330 0.0213377381
0.3354724823 0.3884102707 0.0197449057
0.3674646874 0.3930841601 0.0166873976
0.4012235421 0.3975567691 0.0125042457
0.4337963390 0.4020561356 0.0080610458
0.4658486407 0.4066307022 0.0042154886
0.5015744065 0.4110403990 0.0013490243
0.5349429299 0.4162814719 0.0004003854
0.5656176689 0.4217729913 0.0000000000
0.5932655116 0.4268649472 0.0000000000
0.6212125377 0.4319827797 0.0000000000
0.6544114046 0.4369122777 0.0000000000
0.6856724795 0.4411050795 0.0000000000
0.7117635037 0.4446683021 0.0000000000
0.7363512826 0.4479507179 0.0000000000
0.7601332915 0.4507976049 0.0000000000
0.7828733144 0.4521839265 0.0000000000
0.8042918331 0.4527247282 0.0000000000
0.8245360804 0.4525697698 0.0000000000
0.8457034288 0.4519204391 0.0000000000
0.8651536376 0.4512698291 0.0000000000
0.8827212016 0.4509634758 0.0000000000
0.9022944747 0.4503966680 0.0000000000
0.9203778169 0.4497424557 0.0000000000
0.0000000000 0.3288764245 0.0368176415
0.0000000000 0.3389824837 0.0358120179
0.0101034946 0.3485095546 0.0350972894
0.0685887726 0.3586535029 0.0331496075
0.1152058755 0.3667038541 0.0308846063
0.1496922006 0.3740542673 0.0284661778
0.1877666708 0.3815639286 0.0261777282
0.2405468859 0.3896601205 0.0236394615
0.2769926047 0.3966860892 0.0211190508
0.3066673458 0.4024275410 0.0191741534
0.3353122606 0.4081353461 0.0171885195
0.3677372349 0.4129691884 0.0140627880
0.4019952366 0.4174603826 0.0101792462
0.4351225709 0.4218620004 0.0062210506
0.4674196321 0.4264548468 0.0031168807
0.5037115075 0.4310404835 0.0007714045
0.5373503959 0.4365335057 0.0000151239
0.5682817634 0.4423749143 0.0000000000
0.5965058690 0.4481272822 0.0000000000
0.6245870535 0.4535609781 0.0000000000
0.6592627816 0.4589044557 0.0000000000
