2. reversing the negative_/print paper LUTs/color/LOGO GmbH, Steinfurt/305 pearl fuji digital DPII 16_1_color only.cube
LUT_3D_SIZE 33
0.0001144230 0.0000000000 0.0000735423
0.0251195584 0.0026552572 0.0001991494
0.0546495364 0.0074095347 0.0000000000
0.0876254529 0.0112933563 0.0000000000
0.1199466793 0.0152857361 0.0000000000
0.1472045320 0.0173016866 0.0000000000
0.1727073252 0.0186847206 0.0000000000
0.1967755904 0.0195780910 0.0000000000
0.2209402171 0.0205307716 0.0000000000
0.2454998223 0.0216305136 0.0000000000
0.2715624147 0.0232756014 0.0000000000
0.2981568358 0.0240007743 0.0000000000
0.3224609663 0.0240047589 0.0000000000
0.3443240619 0.0233827217 0.0000000000
0.3626700563 0.0219448066 0.0000000000
0.3830805724 0.0214520647 0.0000000000
0.4051256318 0.0213496261 0.0000000000
0.4285794445 0.0206277546 0.0000000000
0.4552232824 0.0188262944 0.0000000000
0.4852467181 0.0157844217 0.0000000000
0.5090570516 0.0128051313 0.0000000000
0.5249989568 0.0104226219 0.0000000000
0.5422801622 0.0073316129 0.0000000000
0.5605964846 0.0035270710 0.0000000000
0.5792545226 0.0002736206 0.0000000000
0.5963064776 0.0000000000 0.0000000000
0.6141670770 0.0000000000 0.0000000000
0.6304655714 0.0000000000 0.0000000000
0.6462699294 0.0000000000 0.0000000000
0.6584780143 0.0000000000 0.0000000000
0.6744879640 0.0000000000 0.0000000000
0.6914986538 0.0000000000 0.0000000000
0.7121895077 0.0000000000 0.0000000000
0.0003291522 0.0213918798 0.0013974617
0.0401167269 0.0316087376 0.0014255233
0.0675064682 0.0354430598 0.0000000000
0.0928847868 0.0402256528 0.0003827669
0.1279282579 0.0424616301 0.0000146082
0.1567878190 0.0434545527 0.0000000000
0.1813367420 0.0444701210 0.0000000000
0.2046046242 0.0453559205 0.0000000000
0.2280827768 0.0471138951 0.0000000000
0.2526399925 0.0484245203 0.0000000000
0.2800127845 0.0495168892 0.0000000000
0.3076771892 0.0506145943 0.0000000000
0.3324274281 0.0507645876 0.0000000000
0.3545265559 0.0505878283 0.0000000000
0.3734634891 0.0501026312 0.0000000000
0.3945681652 0.0500938327 0.0000000000
0.4172944724 0.0504322375 0.0000000000
0.4408976289 0.0505384770 0.0000000000
0.4695521700 0.0500555983 0.0000000000
0.4994951239 0.0492503248 0.0000000000
0.5240564116 0.0478075567 0.0000000000
0.5422175890 0.0463142467 0.0000000000
0.5606785323 0.0445345723 0.0000000000
0.5802214063 0.0425645616 0.0000000000
0.5993110209 0.0404867065 0.0000000000
0.6148018877 0.0376448609 0.0000000000
0.6308075194 0.0348050304 0.0000000000
0.6455011508 0.0318845893 0.0000000000
0.6643198778 0.0271159145 0.0000000000
0.6780662341 0.0232208176 0.0000000000
0.6924795396 0.0194476789 0.0000000000
0.7125425077 0.0132994945 0.0000000000
0.7293981335 0.0094121713 0.0000000000
0.0016118759 0.0492534295 0.0055227515
0.0410989646 0.0546516525 0.0059299509
0.0721565866 0.0619751401 0.0088199259
0.0989231832 0.0682102709 0.0073830276
0.1334334029 0.0704510884 0.0056626723
0.1622187392 0.0718053639 0.0042685126
0.1885526208 0.0728682489 0.0029560592
0.2126225432 0.0737108896 0.0016701529
0.2358966899 0.0759740683 0.0007199319
0.2600971753 0.0781558038 0.0000000000
0.2883528103 0.0791983597 0.0000000000
0.3162021170 0.0802709988 0.0000000000
0.3418830147 0.0813274707 0.0000000000
0.3652160457 0.0821355315 0.0000000000
0.3847464333 0.0817952801 0.0000000000
0.4063096352 0.0821618718 0.0000000000
0.4296050357 0.0829495979 0.0000000000
0.4547010771 0.0837514133 0.0000000000
0.4839597664 0.0845379533 0.0000000000
0.5145547486 0.0846674244 0.0000000000
0.5390944888 0.0841259625 0.0000000000
0.5577335434 0.0833206495 0.0000000000
0.5785233913 0.0824214671 0.0000000000
0.6012069976 0.0814665826 0.0000000000
0.6217272657 0.0801249432 0.0000000000
0.6353603995 0.0776550091 0.0000000000
0.6484451935 0.0745522359 0.0000000000
0.6614461231 0.0716660344 0.0000000000
0.6820525396 0.0692684084 0.0000000000
0.6984153120 0.0674339136 0.0000000000
0.7141677514 0.0643691342 0.0000000000
0.7340510639 0.0600445499 0.0000000000
0.7559267689 0.0532960468 0.0000000000
0.0024393745 0.0741439906 0.0105458498
0.0441043869 0.0761054595 0.0123658743
0.0806055443 0.0824474899 0.0132519912
0.1050559566 0.0902911349 0.0125164495
0.1402403516 0.0935697797 0.0095929510
0.1696349630 0.0963818329 0.0074931229
0.1964194847 0.0990953347 0.0057965128
0.2204993703 0.1015867436 0.0043373140
0.2433379715 0.1043629209 0.0031696196
0.2675576316 0.1070048102 0.0018116880
0.2968794335 0.1089568482 0.0011091138
0.3249497872 0.1106729600 0.0007071865
0.3509299507 0.1121135132 0.0004170295
0.3746895303 0.1132107952 0.0002744218
0.3949017929 0.1138291643 0.0001763428
0.4169643088 0.1149402377 0.0000000000
0.4411923800 0.1164379418 0.0000000000
0.4678360195 0.1177864001 0.0000000000
0.4969429783 0.1190258123 0.0000000000
0.5271875587 0.1200490296 0.0000000000
0.5521506268 0.1204767618 0.0000000000
0.5717463549 0.1201890459 0.0000000000
0.5935951718 0.1196950371 0.0000000000
0.6173782603 0.1190508591 0.0000000000
0.6395258943 0.1178791465 0.0000000000
0.6524519959 0.1152933151 0.0000000000
0.6656305406 0.1117673883 0.0000000000
0.6776973961 0.1082680820 0.0000000000
0.6989544133 0.1062530696 0.0000000000
0.7167355106 0.1047870026 0.0000000000
0.7316856299 0.1030525564 0.0000000000
0.7522456771 0.1009206294 0.0000000000
0.7729305449 0.0978168639 0.0000000000
0.0002611092 0.0949259258 0.0116993730
0.0367384324 0.0998926526 0.0150760254
0.0758410781 0.1064398074 0.0156631324
0.1032535501 0.1151409438 0.0154008643
0.1406030342 0.1195583160 0.0143282757
0.1706255994 0.1223924770 0.0122023429
0.1980127819 0.1251692329 0.0105223455
0.2230936875 0.1279595866 0.0092833170
0.2466192949 0.1310779595 0.0083746896
0.2716073535 0.1341025857 0.0073065177
0.3035290379 0.1367913948 0.0056173880
0.3317124552 0.1387820536 0.0042254781
0.3579743750 0.1405443578 0.0030831394
0.3822410038 0.1420703535 0.0020766849
0.4035394219 0.1433017628 0.0011578004
0.4260308236 0.1445644794 0.0004798905
0.4504945981 0.1460414482 0.0000000000
0.4786742832 0.1476652927 0.0000000000
0.5071280356 0.1490869467 0.0000000000
0.5367495690 0.1502729039 0.0000000000
0.5615756166 0.1510128084 0.0000000000
0.5815211870 0.1512842025 0.0000000000
0.6034093400 0.1513269618 0.0000000000
0.6267985482 0.1512777807 0.0000000000
0.6490850267 0.1507511582 0.0000000000
0.6651041680 0.1487298790 0.0000000000
0.6794200304 0.1458476231 0.0000000000
0.6929684168 0.1430480459 0.0000000000
0.7147549531 0.1406841657 0.0000000000
0.7324869184 0.1394838264 0.0000000000
0.7472658539 0.1377989946 0.0000000000
0.7674419577 0.1356750648 0.0000000000
0.7905192520 0.1329802262 0.0000000000
0.0000000000 0.1140520134 0.0127446438
0.0292559546 0.1207176901 0.0159523190
0.0708281036 0.1275237976 0.0161245843
0.1018092625 0.1367867364 0.0159542285
0.1395372640 0.1414538364 0.0150343539
0.1725007996 0.1458838977 0.0140208019
0.2004210934 0.1487306525 0.0123117322
0.2259987980 0.1516019638 0.0110448887
0.2506513561 0.1550958648 0.0102751155
0.2761384331 0.1583324400 0.0093072418
0.3085819130 0.1612393528 0.0076475621
0.3387708279 0.1644157600 0.0054163832
0.3654535809 0.1664743020 0.0036159826
0.3902055418 0.1682882303 0.0021294678
0.4124652263 0.1699539913 0.0007930574
0.4357205195 0.1713999356 0.0004177454
0.4603987883 0.1728350697 0.0000000000
0.4884530467 0.1742653417 0.0000000000
0.5166532903 0.1758519316 0.0000000000
0.5458772427 0.1771398290 0.0000000000
0.5706726674 0.1781615280 0.0000000000
0.5907236432 0.1789311122 0.0000000000
0.6126157419 0.1795781860 0.0000000000
0.6361212285 0.1800518874 0.0000000000
0.6589736361 0.1799748455 0.0000000000
0.6771028561 0.1783310784 0.0000000000
0.6938292579 0.1759354252 0.0000000000
0.7086290190 0.1735777637 0.0000000000
0.7291938513 0.1709463321 0.0000000000
0.7459104120 0.1697168422 0.0000000000
0.7603534216 0.1684749671 0.0000000000
0.7804076306 0.1668379436 0.0000000000
0.8052317987 0.1646985303 0.0000000000
0.0000000000 0.1323167290 0.0139009017
0.0224294628 0.1388627977 0.0160448334
0.0657362465 0.1471802473 0.0160021136
0.1006339450 0.1570129099 0.0156095841
0.1387929212 0.1619510819 0.0148143140
0.1721058902 0.1666604508 0.0139572487
0.2030012973 0.1711992677 0.0129835728
0.2290369489 0.1741445759 0.0116898094
0.2543857811 0.1778765437 0.0108383817
0.2807570267 0.1814846122 0.0098385904
0.3136359118 0.1846254044 0.0081264307
0.3443096237 0.1880923571 0.0057051769
0.3727760102 0.1912586587 0.0034107996
0.3981133901 0.1933866183 0.0016750794
0.4209827156 0.1953004898 0.0005979506
0.4453369712 0.1969727665 0.0000389478
0.4703355212 0.1985082724 0.0000000000
0.4981625762 0.1998279776 0.0000000000
0.5258998059 0.2012365099 0.0000000000
0.5549385732 0.2026276382 0.0000000000
0.5795428018 0.2038731173 0.0000000000
0.5996494172 0.2050307099 0.0000000000
0.6216137869 0.2063347490 0.0000000000
0.6453705746 0.2073417087 0.0000000000
0.6690532698 0.2077298861 0.0000000000
0.6878497800 0.2062888690 0.0000000000
0.7071001088 0.2042933662 0.0000000000
0.7234466503 0.2023119515 0.0000000000
0.7429927592 0.1999373412 0.0000000000
0.7582099494 0.1982339591 0.0000000000
0.7726022911 0.1972193740 0.0000000000
0.7922258874 0.1965825999 0.0000000000
0.8182217010 0.1950972390 0.0000000000
0.0000000000 0.1497245479 0.0152265985
0.0161412053 0.1563444722 0.0163228094
0.0606209745 0.1654383267 0.0154373189
0.0993345312 0.1756889892 0.0145080840
0.1385232147 0.1812231951 0.0138187536
0.1721718647 0.1862129066 0.0131144444
0.2033751772 0.1910100622 0.0122825229
0.2322892844 0.1956929610 0.0113517029
0.2581541220 0.1996220527 0.0104330495
0.2853465773 0.2035438391 0.0093262701
0.3187672266 0.2071677159 0.0071404278
0.3497407680 0.2108221826 0.0045542994
0.3787839828 0.2143403120 0.0021163718
0.4057166451 0.2174303094 0.0001973576
0.4294943292 0.2196778016 0.0001973576
0.4545467023 0.2214698456 0.0000060129
0.4806304652 0.2230316080 0.0000000000
0.5076492378 0.2244299436 0.0000000000
0.5347961516 0.2256282893 0.0000000000
0.5635492519 0.2269224682 0.0000000000
0.5882326964 0.2282969234 0.0000000000
0.6083584063 0.2297732592 0.0000000000
0.6302808416 0.2314372301 0.0000000000
0.6542475736 0.2331311729 0.0000000000
0.6787472738 0.2340105970 0.0000000000
0.6984768799 0.2328686837 0.0000000000
0.7192914920 0.2312001886 0.0000000000
0.7375964159 0.2296182909 0.0000000000
0.7559931285 0.2273973348 0.0000000000
0.7693577849 0.2252649062 0.0000000000
0.7841365194 0.2243683802 0.0000000000
0.8034719988 0.2247621936 0.0000000000
0.8294180053 0.2243499293 0.0000000000
0.0000000000 0.1671806398 0.0170294993
0.0116545597 0.1744632163 0.0166633024
0.0580684266 0.1840328935 0.0152537810
0.0985597670 0.1940865245 0.0133941498
0.1385963519 0.2000018865 0.0126667855
0.1733381477 0.2056247451 0.0120594570
0.2050287519 0.2108350434 0.0113982316
0.2343074926 0.2158276513 0.0105865256
0.2623001637 0.2209107062 0.0096718485
0.2898682828 0.2250961101 0.0083004099
0.3237611586 0.2291872869 0.0055393408
0.3555068038 0.2334293672 0.0027268801
0.3852942557 0.2372766030 0.0015616408
0.4129650124 0.2407510129 0.0000000000
0.4378573859 0.2435684415 0.0000000000
0.4638246261 0.2454139352 0.0000000000
0.4900524442 0.2469855618 0.0000000000
0.5166664963 0.2483973977 0.0000000000
0.5435557904 0.2496105502 0.0000000000
0.5718539911 0.2506624468 0.0000000000
0.5964620246 0.2522923700 0.0000000000
0.6165865806 0.2540353208 0.0000000000
0.6388193312 0.2559596847 0.0000000000
0.6635081713 0.2579612331 0.0000000000
0.6887697243 0.2592565294 0.0000000000
0.7093319665 0.2585434493 0.0000000000
0.7307934059 0.2572847536 0.0000000000
0.7489670287 0.2558626728 0.0000000000
0.7678099168 0.2538899931 0.0000000000
0.7810923958 0.2516570372 0.0000000000
0.7948700179 0.2508547057 0.0000000000
0.8137695070 0.2521354256 0.0000000000
0.8379388653 0.2530188935 0.0000000000
0.0000000000 0.1853254790 0.0188999465
0.0103853505 0.1928926502 0.0176208533
0.0554195751 0.2031430606 0.0153252733
0.0975818394 0.2130463909 0.0124794990
0.1385673827 0.2193883371 0.0117095676
0.1738211642 0.2252378714 0.0110311931
0.2063970944 0.2309317227 0.0103519326
0.2362555484 0.2364169072 0.0097297510
0.2646370385 0.2417419339 0.0087753193
0.2938565849 0.2466257379 0.0072458244
0.3282627213 0.2512257674 0.0038559326
0.3602741100 0.2556152568 0.0012719197
0.3905035635 0.2596947596 0.0000000000
0.4190506066 0.2634508036 0.0000000000
0.4446009573 0.2665533453 0.0000000000
0.4714440116 0.2689442481 0.0000000000
0.4984945811 0.2705865274 0.0000000000
0.5246908931 0.2720122980 0.0000000000
0.5514652064 0.2733689732 0.0000000000
0.5797935129 0.2746098860 0.0000000000
0.6041821270 0.2760243459 0.0000000000
0.6241866212 0.2780406438 0.0000000000
0.6465390079 0.2802453340 0.0000000000
0.6720606755 0.2823961116 0.0000000000
0.6980282785 0.2842368504 0.0000000000
0.7193633975 0.2839755563 0.0000000000
0.7411629858 0.2832091373 0.0000000000
0.7596413975 0.2822576478 0.0000000000
0.7788300570 0.2805892819 0.0000000000
0.7927812046 0.2784404428 0.0000000000
0.8053901756 0.2773315154 0.0000000000
0.8243823150 0.2793366605 0.0000000000
0.8471631400 0.2814374091 0.0000000000
0.0000000000 0.2061606364 0.0207466588
0.0075316900 0.2138669383 0.0185738231
0.0509427540 0.2240676454 0.0161699385
0.0955722711 0.2343899279 0.0134104246
0.1383338687 0.2415762143 0.0115251358
0.1740289723 0.2475567284 0.0106094787
0.2070170250 0.2533809387 0.0097151737
0.2375398203 0.2591302291 0.0087597701
0.2665495536 0.2647765617 0.0076098779
0.2964530462 0.2700115489 0.0058699147
0.3310841028 0.2738646670 0.0019001480
0.3629612583 0.2779039121 0.0006383685
0.3931269546 0.2816594356 0.0000000000
0.4216751918 0.2850830467 0.0000000000
0.4476021326 0.2878088321 0.0000000000
0.4749707467 0.2904890760 0.0000000000
0.5027153352 0.2927899532 0.0000000000
0.5289655890 0.2945769666 0.0000000000
0.5559082930 0.2964106084 0.0000000000
0.5846444197 0.2983510494 0.0000000000
0.6094893819 0.3001798283 0.0000000000
0.6297453790 0.3020498504 0.0000000000
0.6520628889 0.3041890079 0.0000000000
0.6779808169 0.3063700581 0.0000000000
0.7044772787 0.3083688123 0.0000000000
0.7272590404 0.3094829203 0.0000000000
0.7488252182 0.3096193856 0.0000000000
0.7675039816 0.3098056837 0.0000000000
0.7886534727 0.3088032457 0.0000000000
0.8034243116 0.3070580680 0.0000000000
0.8167585408 0.3059373638 0.0000000000
0.8361966047 0.3075453319 0.0000000000
0.8607934945 0.3092222586 0.0000000000
0.0000000000 0.2263401145 0.0215741128
0.0045640184 0.2348084995 0.0191751923
0.0472769444 0.2450180079 0.0163753734
0.0937499850 0.2554516829 0.0134625773
0.1372320325 0.2628228309 0.0115997460
0.1748878752 0.2695188152 0.0094551674
0.2083823967 0.2753330476 0.0081529237
0.2392460997 0.2809314608 0.0068408263
0.2690615512 0.2866069135 0.0051518219
0.2992800810 0.2918443991 0.0035871820
0.3338162186 0.2954896068 0.0008323990
0.3655975951 0.2986013696 0.0004479942
0.3957474136 0.3021390809 0.0000000000
0.4243758666 0.3053709937 0.0000000000
0.4507424068 0.3079277935 0.0000000000
0.4781729746 0.3109880309 0.0000000000
0.5062921596 0.3140258206 0.0000000000
0.5333677251 0.3171330700 0.0000000000
0.5605517943 0.3196366171 0.0000000000
0.5897598648 0.3223256227 0.0000000000
0.6147244407 0.3244619971 0.0000000000
0.6351776723 0.3262460177 0.0000000000
0.6578364707 0.3282335555 0.0000000000
0.6839386153 0.3304598038 0.0000000000
0.7107766663 0.3327119317 0.0000000000
0.7341933848 0.3352477327 0.0000000000
0.7564046572 0.3369779053 0.0000000000
0.7759789074 0.3382862661 0.0000000000
0.7985610227 0.3373837071 0.0000000000
0.8146705751 0.3358541287 0.0000000000
0.8292484065 0.3348676929 0.0000000000
0.8486652110 0.3357958914 0.0000000000
0.8729348272 0.3373449889 0.0000000000
0.0000000000 0.2454465605 0.0215514566
0.0009368379 0.2543105119 0.0194215179
0.0443309699 0.2648385845 0.0161106482
0.0921048044 0.2749721515 0.0127831042
0.1363592337 0.2824177289 0.0108296297
0.1745065185 0.2892868568 0.0085301486
0.2097038105 0.2958833372 0.0061116468
0.2411212876 0.3016009868 0.0043444703
0.2714695795 0.3075621095 0.0031254420
0.3021041397 0.3127836375 0.0016872873
0.3365348612 0.3163055795 0.0002100146
0.3683512628 0.3193550657 0.0000000000
0.3983199963 0.3220412320 0.0000000000
0.4270312016 0.3250947819 0.0000000000
0.4536951769 0.3275007015 0.0000000000
0.4813603608 0.3308569024 0.0000000000
0.5095634665 0.3343418783 0.0000000000
0.5370944877 0.3382062887 0.0000000000
0.5650129785 0.3420030004 0.0000000000
0.5945862893 0.3453933510 0.0000000000
0.6198032888 0.3479429087 0.0000000000
0.6404196181 0.3497573871 0.0000000000
0.6635131553 0.3515361834 0.0000000000
0.6897682670 0.3536615658 0.0000000000
0.7169480079 0.3561923353 0.0000000000
0.7403553686 0.3595133493 0.0000000000
0.7636810715 0.3633104835 0.0000000000
0.7839654273 0.3655548154 0.0000000000
0.8077097869 0.3650454564 0.0000000000
0.8260193197 0.3636293444 0.0000000000
0.8427178098 0.3627217727 0.0000000000
0.8611785881 0.3631465570 0.0000000000
0.8834909566 0.3644191857 0.0000000000
0.0000000000 0.2632753847 0.0208921839
0.0000000000 0.2723651731 0.0188914187
0.0413510228 0.2831904767 0.0153770305
0.0904681283 0.2930178187 0.0115209664
0.1356882223 0.3004367869 0.0093432412
0.1743290379 0.3074982119 0.0068197481
0.2099901156 0.3143369901 0.0045789074
0.2428125135 0.3208895045 0.0018388864
0.2737182326 0.3271760804 0.0007863681
0.3048769593 0.3327308949 0.0000000000
0.3391804141 0.3362026761 0.0000000000
0.3710233640 0.3391843414 0.0000000000
0.4010709625 0.3418081482 0.0000000000
0.4296244421 0.3441146566 0.0000000000
0.4565672878 0.3463701124 0.0000000000
0.4844516218 0.3497908942 0.0000000000
0.5127723290 0.3538999905 0.0000000000
0.5405254913 0.3581780411 0.0000000000
0.5689658463 0.3628512263 0.0000000000
0.5991424883 0.3673731558 0.0000000000
0.6246532488 0.3703698982 0.0000000000
0.6453248533 0.3721867101 0.0000000000
0.6689972779 0.3739513018 0.0000000000
0.6954164803 0.3757570904 0.0000000000
0.7227623563 0.3783513308 0.0000000000
0.7464795338 0.3824331166 0.0000000000
0.7699790910 0.3873735424 0.0000000000
0.7917097298 0.3914488865 0.0000000000
0.8168937577 0.3914257269 0.0000000000
0.8374008459 0.3900529939 0.0000000000
0.8553504526 0.3892529402 0.0000000000
0.8755606249 0.3895110565 0.0000000000
0.8927058115 0.3900893437 0.0000000000
0.0000000000 0.2783290191 0.0198513393
0.0000000000 0.2874087914 0.0175153630
0.0358643797 0.2983031743 0.0137712648
0.0888842103 0.3083294557 0.0096207616
0.1354504830 0.3163830856 0.0067929069
0.1747862773 0.3240664166 0.0037527597
0.2108330801 0.3312669273 0.0019202204
0.2441554832 0.3383135160 0.0007656649
0.2758298838 0.3449790295 0.0004002190
0.3074070792 0.3507224075 0.0000000000
0.3415592271 0.3539215730 0.0000000000
0.3734664181 0.3566850553 0.0000000000
0.4036396211 0.3591713851 0.0000000000
0.4323310227 0.3613513632 0.0000000000
0.4594551351 0.3630312325 0.0000000000
0.4874109169 0.3668851736 0.0000000000
0.5158266989 0.3714542384 0.0000000000
0.5438864149 0.3764086438 0.0000000000
0.5728517683 0.3816332104 0.0000000000
0.6033680996 0.3869666689 0.0000000000
0.6290242496 0.3903020902 0.0000000000
0.6498316445 0.3920846988 0.0000000000
0.6739691656 0.3938284198 0.0000000000
0.7008333626 0.3955526597 0.0000000000
0.7280406177 0.3981401812 0.0000000000
0.7518358091 0.4030445951 0.0000000000
0.7761694106 0.4089344581 0.0000000000
0.7992961050 0.4143518450 0.0000000000
0.8259852131 0.4146612964 0.0000000000
0.8480083042 0.4134840914 0.0000000000
0.8683473160 0.4126140775 0.0000000000
0.8853692036 0.4125865479 0.0000000000
0.9005558268 0.4126409497 0.0000000000
0.0000000000 0.2931789442 0.0186826868
0.0000000000 0.3029974968 0.0166461570
0.0288052230 0.3143252842 0.0130443150
0.0854500980 0.3251889298 0.0090439612
0.1333802143 0.3337311503 0.0056869450
0.1734079039 0.3415571215 0.0024046367
0.2100904988 0.3492070446 0.0005650958
0.2437658292 0.3565092744 0.0000845861
0.2761015793 0.3636533452 0.0000000000
0.3084778221 0.3698466459 0.0000000000
0.3432430874 0.3733967431 0.0000000000
0.3753804758 0.3763914260 0.0000000000
0.4060239922 0.3790948203 0.0000000000
0.4350773017 0.3813130709 0.0000000000
0.4629417293 0.3833025449 0.0000000000
0.4915727388 0.3867778044 0.0000000000
0.5200184755 0.3916140608 0.0000000000
0.5481107317 0.3966506607 0.0000000000
0.5773502291 0.4018536729 0.0000000000
0.6082902391 0.4072219151 0.0000000000
0.6352061874 0.4117127307 0.0000000000
0.6562855258 0.4137312262 0.0000000000
0.6809398927 0.4157748856 0.0000000000
0.7084096014 0.4179156154 0.0000000000
0.7346420327 0.4203102905 0.0000000000
0.7572792733 0.4250312946 0.0000000000
0.7809851834 0.4306865844 0.0000000000
0.8037138489 0.4356286779 0.0000000000
0.8320541042 0.4375702313 0.0000000000
0.8567185207 0.4369550484 0.0000000000
0.8778854699 0.4359048450 0.0000000000
0.8929896864 0.4353949677 0.0000000000
0.9075268639 0.4343949113 0.0000000000
0.0000000000 0.3080677891 0.0172664942
0.0000000000 0.3191039836 0.0159187585
0.0205645684 0.3311675156 0.0128030378
0.0803595891 0.3429673333 0.0094228008
0.1299988922 0.3520531196 0.0054602890
0.1709196287 0.3602033303 0.0020220288
0.2081896840 0.3679300769 0.0000711952
0.2423781782 0.3754863690 0.0000083781
0.2750720112 0.3828107419 0.0000000000
0.3082335441 0.3894713097 0.0000000000
0.3440888990 0.3937304523 0.0000000000
0.3769183532 0.3972808945 0.0000000000
0.4078889456 0.4002902671 0.0000000000
0.4377736558 0.4030239584 0.0000000000
0.4664322113 0.4053430921 0.0000000000
0.4955928492 0.4090037687 0.0000000000
0.5249966714 0.4134734594 0.0000000000
0.5530304311 0.4183972988 0.0000000000
0.5824571368 0.4234448505 0.0000000000
0.6136861690 0.4285284619 0.0000000000
0.6409798437 0.4328362197 0.0000000000
0.6640126728 0.4361596754 0.0000000000
0.6891091209 0.4387131292 0.0000000000
0.7171920858 0.4414692878 0.0000000000
0.7434519274 0.4442684246 0.0000000000
0.7631063560 0.4476908859 0.0000000000
0.7858061312 0.4527581670 0.0000000000
0.8072210813 0.4566592239 0.0000000000
0.8367471854 0.4596392187 0.0000000000
0.8641672003 0.4601662718 0.0000000000
0.8836189703 0.4596949991 0.0000000000
0.8991764074 0.4576989142 0.0000000000
0.9140287656 0.4552777541 0.0000000000
0.0000000000 0.3235241647 0.0152420850
0.0000000000 0.3359398975 0.0148657777
0.0114120737 0.3490302817 0.0124659886
0.0741856632 0.3613834922 0.0094794249
0.1261583353 0.3707986464 0.0053393905
0.1681648957 0.3795131192 0.0019311482
0.2062427688 0.3876281552 0.0000106494
0.2410300245 0.3953224175 0.0000083781
0.2741004195 0.4027995359 0.0000000000
0.3076498656 0.4096174536 0.0000000000
0.3443000016 0.4140956188 0.0000000000
0.3783958684 0.4186365935 0.0000000000
0.4101149202 0.4222299119 0.0000000000
0.4404444613 0.4253085472 0.0000000000
0.4703903909 0.4281414889 0.0000000000
0.4998512255 0.4318582048 0.0000000000
0.5292643533 0.4362309644 0.0000000000
0.5582145580 0.4404158187 0.0000000000
0.5879282828 0.4452909296 0.0000000000
0.6194850639 0.4499799970 0.0000000000
0.6472332369 0.4540254720 0.0000000000
0.6710336405 0.4575898701 0.0000000000
0.6978874971 0.4613042888 0.0000000000
0.7264140101 0.4645356766 0.0000000000
0.7524725036 0.4677449042 0.0000000000
0.7702386078 0.4699861912 0.0000000000
0.7899147427 0.4728840524 0.0000000000
0.8099795163 0.4759382139 0.0000000000
0.8409886908 0.4800770605 0.0000000000
0.8707781133 0.4823861393 0.0000000000
0.8894486113 0.4825428941 0.0000000000
0.9056774259 0.4782498333 0.0000000000
0.9207206214 0.4747537342 0.0000000000
0.0000000000 0.3398949349 0.0124211466
0.0000000000 0.3532751018 0.0128703643
0.0032605912 0.3681074794 0.0118336909
0.0678260657 0.3809688380 0.0089112828
0.1216730697 0.3905496318 0.0045647783
0.1648427911 0.3994769998 0.0018345408
0.2038410081 0.4079673334 0.0000000000
0.2394655578 0.4159859028 0.0000000000
0.2730401744 0.4236746651 0.0000000000
0.3070329635 0.4307037104 0.0000000000
0.3444066019 0.4355536121 0.0000000000
0.3793923087 0.4403216658 0.0000000000
0.4122985485 0.4445819472 0.0000000000
0.4435461809 0.4480756199 0.0000000000
0.4746012687 0.4510697499 0.0000000000
0.5043700961 0.4544617099 0.0000000000
0.5339217113 0.4584736227 0.0000000000
0.5631874628 0.4622673409 0.0000000000
0.5938221739 0.4659722073 0.0000000000
0.6257968123 0.4705975138 0.0000000000
0.6541745808 0.4748354596 0.0000000000
