2. reversing the negative_/print paper LUTs/color/LOGO GmbH, Steinfurt/305 lustre fuji supreme 16_1_color only.cube
LUT_3D_SIZE 5
0.0000956732 0.0000000000 0.0000656049
0.2307325194 0.0336100518 0.0024551886
0.4053946853 0.0406720580 0.0003319030
0.5820881405 0.0284898949 0.0000000000
0.7189583545 0.0063946230 0.0000000000
0.0000000000 0.1543140146 0.0296635398
0.2695130941 0.1984420496 0.0225495946
0.4799044010 0.2216422419 0.0111503066
0.6927568985 0.2348592474 0.0000489128
0.8323174118 0.2276206671 0.0000000000
0.0000000000 0.2956170215 0.0346956469
0.2794374625 0.3598661656 0.0244733682
0.5323818321 0.3965618164 0.0007296957
0.7527710626 0.4280852862 0.0000000000
0.9095136593 0.4244500903 0.0000000000
0.0000000000 0.4257582310 0.0354181020
0.2686232913 0.5016456069 0.0022225928
0.5546419581 0.5580309167 0.0000000000
0.7910388436 0.5985151147 0.0000000000
0.9906584417 0.6177945684 0.0000000000
0.0000000000 0.5168447915 0.0235718610
0.2547935482 0.6213274585 0.0000000000
0.5680107686 0.6959140193 0.0000000000
0.8318989952 0.7580693611 0.0000000000
1.0000000000 0.7843857666 0.0000000000
0.0000000000 0.0229430126 0.1957252311
0.2075782652 0.0513950353 0.1966071048
0.4014222167 0.0681307261 0.2041960952
0.5930888750 0.0643556875 0.2015412172
0.7401000741 0.0404055311 0.2005173977
0.0000000000 0.2023288056 0.2442091529
0.2499986251 0.2500016884 0.2500007263
0.4889708881 0.2873625433 0.2584486839
0.6985349962 0.2981416399 0.2489232403
0.8590338492 0.2960650968 0.2501428702
0.0000000000 0.3628722800 0.2745272428
0.2523946723 0.4319894603 0.2775853184
0.5148777813 0.4787245870 0.2785810867
0.7485189146 0.5049126158 0.2656293009
0.9450177031 0.5108807936 0.2628216772
0.0000000000 0.4995512158 0.2922992571
0.2027899873 0.5904639997 0.2908188375
0.5195241731 0.6473590609 0.2719840808
0.7822074416 0.6930869424 0.2642941220
0.9993983213 0.7150899492 0.2497395863
0.0000000000 0.5740338085 0.2964547826
0.1310479359 0.6897887589 0.2921252998
0.5105095997 0.7797274582 0.2696605215
0.7941113216 0.8391321658 0.2342974275
1.0000000000 0.8781748657 0.2113383773
0.0000000000 0.0208020105 0.3667627292
0.2194894595 0.0549076006 0.3827185977
0.4144641046 0.0708490240 0.3988330690
0.5964247249 0.0649280180 0.3945328195
0.7438911440 0.0395351286 0.3978723410
0.0000000000 0.2172934413 0.4402206321
0.2479142720 0.2714359299 0.4568957371
0.4833668687 0.3067228951 0.4633750058
0.6959616694 0.3150689222 0.4662624951
0.8639382432 0.3130834148 0.4672796060
0.0000000000 0.3881668988 0.4823212666
0.2176733585 0.4613387560 0.4932365815
0.4999991900 0.5000001900 0.4999990517
0.7374222251 0.5282737092 0.4990233856
0.9370594538 0.5357545305 0.5016895462
0.0000000000 0.5287118353 0.5088615853
0.1189124412 0.6201978696 0.5199279062
0.4821672718 0.6797399286 0.5196063249
0.7635288289 0.7335547669 0.5217176012
0.9852921595 0.7479759861 0.5093647200
0.0000000000 0.6152602160 0.5144319000
0.0233827379 0.7351570734 0.5299243725
0.4639069660 0.8223031044 0.5283135105
0.7830401533 0.8944758662 0.5133667913
1.0000000000 0.9332471420 0.5018632161
0.0000000000 0.0000000000 0.5186903170
0.2133388188 0.0316650111 0.5452955490
0.4081842473 0.0490426835 0.5581062586
0.5991947418 0.0429478634 0.5689453926
0.7593961322 0.0199130837 0.5753074573
0.0000000000 0.2182595432 0.6070662879
0.2491699156 0.2766509258 0.6386402436
0.4808758947 0.3058079593 0.6565135601
0.7018006984 0.3191417624 0.6621108227
0.8648438714 0.3124954891 0.6626696403
0.0000000000 0.4069309573 0.6644461852
0.1838093041 0.4792267246 0.6962061493
0.4851402167 0.5167972080 0.7057766029
0.7313879520 0.5470882970 0.7117862268
0.9482510573 0.5551080439 0.7178915662
0.0000000000 0.5458733420 0.6994235254
0.0349010840 0.6445084498 0.7293581405
0.4571075526 0.7020272580 0.7353459411
0.7499995225 0.7499966739 0.7500079009
0.9788705097 0.7763658006 0.7446189197
0.0000000000 0.6363141410 0.7314466614
0.0000000000 0.7576225318 0.7482479858
0.4014880559 0.8436134224 0.7545010930
0.7404793523 0.9255471556 0.7627468593
1.0000000000 0.9773716959 0.7576614243
0.0000000000 0.0000000000 0.6219294594
0.2223818860 0.0011361988 0.6705291364
0.4217072181 0.0164513636 0.6962280255
0.6133212643 0.0090748502 0.7136831498
0.7531063999 0.0000000000 0.7182858731
0.0000000000 0.2120550489 0.7367490869
0.2494080541 0.2694012972 0.7899593778
0.4880404525 0.3018040752 0.8185474797
0.6998800677 0.3073197125 0.8325854503
0.8743614075 0.3103493809 0.8436532110
0.0000000000 0.4062165770 0.8205104020
0.1656620097 0.4817720150 0.8734918043
0.4888898131 0.5258826785 0.8987936782
0.7378290445 0.5599831694 0.9128872788
0.9440961221 0.5771976334 0.9197273139
0.0000000000 0.5583747055 0.8715781517
0.0072813414 0.6600379790 0.9217991381
0.4355364516 0.7269752841 0.9458538671
0.7362695854 0.7815119353 0.9615479990
0.9702055273 0.7935702909 0.9664232814
0.0000000000 0.6421677882 0.8932650918
0.0000000000 0.7711362482 0.9415231215
0.3777345658 0.8624283040 0.9703820004
0.7166060675 0.9404607422 0.9869069248
0.9999121956 0.9998963210 1.0000000000
