2. reversing the negative/print paper LUTs/color/Direktbild/Fuji_Frontier5-sRGB_CA-HD_v3a_color only.cube
LUT_3D_SIZE 5
0.0001239284 0.0001434710 0.0001396126
0.2420505808 0.0104292915 0.0173536335
0.4695209875 0.0000000000 0.0090884532
0.6419722537 0.0000000000 0.0065988947
0.7341801102 0.0000000000 0.0000000000
0.0000000000 0.2840145914 0.0228067839
0.2779729552 0.2629256790 0.0238987877
0.5107756048 0.2146644645 0.0241798266
0.6719963465 0.1447640320 0.0154367670
0.8018330537 0.0411980916 0.0000000000
0.0000000000 0.4605846605 0.0000000000
0.2717086726 0.4767142620 0.0000000000
0.5333641513 0.4639017421 0.0000000000
0.7649082025 0.4077191641 0.0000000000
0.9199007874 0.3471356072 0.0000000000
0.0000000000 0.5344220414 0.0000000000
0.2210452187 0.5832479600 0.0000000000
0.4633275807 0.6283615155 0.0000000000
0.7642299669 0.6173100675 0.0000000000
1.0000000000 0.5900883514 0.0000000000
0.0000000000 0.5357108291 0.0000000000
0.1969120625 0.5767925856 0.0000000000
0.3880390891 0.6348596688 0.0000000000
0.6443823095 0.7020434064 0.0000000000
1.0000000000 0.8114481500 0.0000000000
0.0000000000 0.0124192951 0.2543570328
0.2276683070 0.0137296444 0.2503467441
0.4723030819 0.0000000000 0.2318668340
0.6819829495 0.0000000000 0.2080582063
0.7643698329 0.0000000000 0.1892563468
0.0000000000 0.2351379743 0.2169050563
0.2500737482 0.2500747459 0.2500736461
0.5059489371 0.2250597727 0.2462492533
0.7093200485 0.1919162652 0.2321316017
0.8524743808 0.1552409459 0.2169151388
0.0000000000 0.4473943092 0.1518027022
0.2687273771 0.5035848366 0.2190631682
0.5345479882 0.4909403039 0.2359066719
0.7713997661 0.4545214784 0.2334621363
0.9424253988 0.4129731850 0.2252932196
0.0000000000 0.5505718269 0.0570404669
0.1926234945 0.6265157311 0.1240549975
0.5048196924 0.6979489303 0.1896058519
0.7891757692 0.6983463262 0.1950255410
1.0000000000 0.6616646624 0.1991537396
0.0000000000 0.5499733179 0.0172528306
0.1641417231 0.6100526205 0.0596356661
0.4165541890 0.7004486665 0.1247294548
0.6966165279 0.7821973822 0.1364648301
1.0000000000 0.8659127717 0.1733307843
0.0000000000 0.0198040027 0.4713657588
0.1479929534 0.0000000000 0.4742253171
0.4285433926 0.0000000000 0.4706911248
0.6681607471 0.0000000000 0.4481433076
0.7740008748 0.0000000000 0.4186573789
0.0000000000 0.2431891536 0.4916015020
0.2253922107 0.2600573691 0.5244974051
0.4847457182 0.2289931670 0.5057231228
0.7083156547 0.2004540718 0.4819181110
0.8569484486 0.1640557459 0.4573064138
0.0000000000 0.4737943817 0.4448781368
0.2128494636 0.5278904418 0.5037158082
0.5000246025 0.5000240931 0.5000249528
0.7475249797 0.4752705632 0.4994733727
0.9423214011 0.4576477168 0.4886180761
0.0000000000 0.5971212301 0.2956600018
0.0651365322 0.6789092464 0.3816128740
0.4908368171 0.7558230487 0.4849082407
0.7731789209 0.7456222368 0.4979102297
1.0000000000 0.7162650166 0.4996267829
0.0000000000 0.5889483015 0.1835820882
0.0133293527 0.6564482243 0.2501783331
0.4072487859 0.7797318625 0.3890063944
0.7440789560 0.8793218055 0.4686306656
1.0000000000 0.9324743309 0.4694766551
0.0000000000 0.0279993434 0.5926801513
0.0257295907 0.0043037928 0.6110729440
0.3393403204 0.0000000000 0.6262294584
0.6051692113 0.0000000000 0.6361725954
0.7719644767 0.0000000000 0.6269214259
0.0000000000 0.2271133327 0.6762362521
0.1713127434 0.2419253361 0.7051489780
0.4272257776 0.2140078688 0.7086866920
0.6683614616 0.1864392308 0.6952626910
0.8511678795 0.1457449652 0.6703703300
0.0000000000 0.4565605847 0.7053197202
0.0993332771 0.5034197819 0.7485294353
0.4684657637 0.5059120976 0.7521861929
0.7292118036 0.4790525720 0.7372248981
0.9334460112 0.4591636655 0.7195693295
0.0000000000 0.6257132112 0.5824974011
0.0000000000 0.7030535303 0.6608596470
0.4525212044 0.7725441158 0.7433656785
0.7499752515 0.7499741450 0.7499746912
0.9999999978 0.7300355352 0.7404707449
0.0000000000 0.6392180861 0.4192444955
0.0000000000 0.7114658243 0.4869894335
0.3740419746 0.8334191341 0.6235841718
0.7327584577 0.9258263199 0.7165789350
1.0000000000 0.9778365389 0.7417902413
0.0000000000 0.0475538363 0.6008230966
0.0000000000 0.0389999794 0.6218916831
0.2335811196 0.0000000000 0.6360157421
0.5030282096 0.0000000000 0.6559949652
0.7629426893 0.0000000000 0.6714535744
0.0000000000 0.2135819722 0.6882631326
0.0999979547 0.2191939133 0.7230301660
0.3415407614 0.1902313268 0.7376850342
0.5802037435 0.1646323314 0.7490289474
0.8357494851 0.1336403130 0.7683538463
0.0000000000 0.4060066209 0.7770185964
0.0102365152 0.4380514988 0.8182264998
0.4158286996 0.4665340267 0.8525543704
0.6730865101 0.4499850980 0.8656114404
0.9213267089 0.4491512060 0.8767528925
0.0000000000 0.6694364437 0.8756023202
0.0000000000 0.6919518694 0.9028250689
0.3974936753 0.7557345936 0.9475698928
0.7185652107 0.7554274128 0.9592361800
0.9826243128 0.7286366118 0.9591642489
0.0000000000 0.7034756500 0.7482904933
0.0000000000 0.7697949532 0.8011405266
0.3004174841 0.8788113042 0.9165510336
0.7031173369 0.9606223734 0.9917224465
0.9999253847 0.9998653344 0.9998789463
