2. reversing the negative/print paper LUTs/color/Direktbild/Fuji_Frontier5-sRGB_CA-HD_v3a_color only.cube
LUT_3D_SIZE 33
0.0001239284 0.0001434710 0.0001396126
0.0299455285 0.0035595987 0.0023226365
0.0620483084 0.0048416098 0.0080180322
0.0907129214 0.0069163647 0.0119955944
0.1199012920 0.0094618250 0.0150321447
0.1516721493 0.0109729867 0.0166933320
0.1874346149 0.0116904633 0.0174706223
0.2170074586 0.0114519356 0.0175580395
0.2420505808 0.0104292915 0.0173536335
0.2634091772 0.0094339492 0.0171145684
0.2910649723 0.0074611065 0.0163456919
0.3242478736 0.0047612112 0.0155842796
0.3539909010 0.0012461347 0.0140347087
0.3779561987 0.0001750991 0.0128369798
0.4052071706 0.0000000000 0.0114427563
0.4379756458 0.0000000000 0.0101933835
0.4695209875 0.0000000000 0.0090884532
0.4940827648 0.0000000000 0.0082728069
0.5168422847 0.0000000000 0.0075994017
0.5415531207 0.0000000000 0.0070368550
0.5649054347 0.0000000000 0.0067658614
0.5849186923 0.0000000000 0.0068848608
0.6040961105 0.0000000000 0.0071078218
0.6232206677 0.0000000000 0.0070434162
0.6419722537 0.0000000000 0.0065988947
0.6605381318 0.0000000000 0.0055653913
0.6774197691 0.0000000000 0.0035492242
0.6947262715 0.0000000000 0.0009323866
0.7090303021 0.0000000000 0.0000839858
0.7197163249 0.0000000000 0.0000000000
0.7276971531 0.0000000000 0.0000000000
0.7326110285 0.0000000000 0.0000000000
0.7341801102 0.0000000000 0.0000000000
0.0000000000 0.0341124152 0.0093852991
0.0300761190 0.0325674343 0.0082890232
0.0614634386 0.0347763120 0.0103206739
0.0934477780 0.0369737136 0.0145106962
0.1242914780 0.0384262192 0.0174229287
0.1557350075 0.0403259769 0.0200020299
0.1903913608 0.0402580281 0.0210158234
0.2199547668 0.0398804043 0.0213196086
0.2445043882 0.0384620684 0.0210702242
0.2656777412 0.0368224842 0.0206579078
0.2934472453 0.0337983977 0.0198331061
0.3258645567 0.0297722453 0.0184660390
0.3551569949 0.0254118245 0.0164871619
0.3780623223 0.0217629379 0.0148678113
0.4045576247 0.0175406857 0.0134189188
0.4355743660 0.0112531532 0.0120952615
0.4660647033 0.0040439933 0.0107713130
0.4909207024 0.0007103941 0.0097574109
0.5139117939 0.0000000000 0.0090733815
0.5386482494 0.0000000000 0.0085578920
0.5624464788 0.0000000000 0.0083288429
0.5835370039 0.0000000000 0.0085344320
0.6034483839 0.0000000000 0.0088733439
0.6225728080 0.0000000000 0.0089671103
0.6411225327 0.0000000000 0.0087280954
0.6593683412 0.0000000000 0.0078432807
0.6747915586 0.0000000000 0.0064319280
0.6908618646 0.0000000000 0.0044443209
0.7053100555 0.0000000000 0.0020531921
0.7165788328 0.0000000000 0.0005229191
0.7252786729 0.0000000000 0.0000000000
0.7322069465 0.0000000000 0.0000000000
0.7368504749 0.0000000000 0.0000000000
0.0000000000 0.0715692956 0.0193891561
0.0366330432 0.0652774955 0.0168126326
0.0703608123 0.0671710002 0.0183708032
0.1002659223 0.0680776454 0.0202099941
0.1325826603 0.0694369683 0.0229361282
0.1626443448 0.0690950118 0.0242123238
0.1964210283 0.0682605275 0.0245771848
0.2248529171 0.0660958628 0.0244181234
0.2491283736 0.0644250687 0.0238286456
0.2699331581 0.0621591132 0.0233918117
0.2970653156 0.0587664400 0.0220190739
0.3289031074 0.0532783595 0.0201624681
0.3578852627 0.0481896004 0.0178368619
0.3805846160 0.0439756584 0.0163484419
0.4064339358 0.0394888946 0.0149673302
0.4366057463 0.0333365823 0.0134934789
0.4661361732 0.0263052743 0.0121323394
0.4905543721 0.0198008341 0.0111522986
0.5135801188 0.0120227847 0.0104906910
0.5383737239 0.0047287395 0.0100490931
0.5624281421 0.0015950133 0.0100575768
0.5836984467 0.0000000000 0.0104583255
0.6039428635 0.0000000000 0.0108645295
0.6234382867 0.0000000000 0.0111598886
0.6418906972 0.0000000000 0.0107985020
0.6599852616 0.0000000000 0.0100048574
0.6756000388 0.0000000000 0.0087116072
0.6913780732 0.0000000000 0.0067086091
0.7058421564 0.0000000000 0.0045198831
0.7173609702 0.0000000000 0.0024981948
0.7265810372 0.0000000000 0.0007885850
0.7352693595 0.0000000000 0.0000000000
0.7417273534 0.0000000000 0.0000000000
0.0000000000 0.1122909044 0.0283373411
0.0437725349 0.1034699819 0.0254161532
0.0811223337 0.1011875687 0.0254386954
0.1100827708 0.1016947323 0.0264180334
0.1402925882 0.1007072982 0.0274125036
0.1701907069 0.0991289359 0.0278598905
0.2015138880 0.0966624528 0.0273380157
0.2299337231 0.0937209776 0.0267322629
0.2543593211 0.0910601279 0.0258464103
0.2748292094 0.0881840511 0.0249336758
0.3010100553 0.0840796166 0.0231481876
0.3323440805 0.0778654750 0.0210197866
0.3614330695 0.0722796603 0.0188178646
0.3841564310 0.0677237265 0.0175083079
0.4095958957 0.0627424117 0.0161848817
0.4392143182 0.0563808748 0.0147040372
0.4682770554 0.0496455748 0.0134678922
0.4924579765 0.0439183119 0.0125809286
0.5150116465 0.0372879827 0.0120169786
0.5397363976 0.0288163924 0.0117516651
0.5638574499 0.0195559481 0.0119761878
0.5852892021 0.0115826983 0.0125637673
0.6056229932 0.0048097690 0.0130574064
0.6250086827 0.0016624371 0.0131974642
0.6433361820 0.0008266344 0.0130721435
0.6612672168 0.0000000000 0.0120886091
0.6770797325 0.0000000000 0.0108797950
0.6928857133 0.0000000000 0.0089096760
0.7075871007 0.0000000000 0.0066589902
0.7196583750 0.0000000000 0.0045334461
0.7298266195 0.0000000000 0.0026172008
0.7390406689 0.0000000000 0.0007561844
0.7480213945 0.0000000000 0.0000000000
0.0000000000 0.1550275099 0.0346771175
0.0495618170 0.1442951697 0.0315321980
0.0880196821 0.1407930637 0.0306144777
0.1180581672 0.1381304437 0.0302446793
0.1465226585 0.1361923784 0.0301412722
0.1761075996 0.1330372729 0.0296919041
0.2069684223 0.1291901647 0.0286657170
0.2345322118 0.1254164568 0.0275329265
0.2590399975 0.1217533768 0.0262428311
0.2796253280 0.1181615338 0.0250715127
0.3055166471 0.1132971200 0.0232120320
0.3368401195 0.1070209169 0.0213455682
0.3661403195 0.1009755842 0.0196782191
0.3889859287 0.0958959813 0.0185606116
0.4142773803 0.0904707992 0.0173338262
0.4437886300 0.0836738869 0.0161082322
0.4727153236 0.0771249763 0.0151944082
0.4965975599 0.0718175445 0.0145764181
0.5187783863 0.0660582186 0.0141898279
0.5429499289 0.0588387584 0.0141422588
0.5671426817 0.0506882699 0.0145919404
0.5885228039 0.0426744723 0.0151659034
0.6087512615 0.0342106451 0.0155632822
0.6281287111 0.0236403420 0.0156314895
0.6460109968 0.0125467946 0.0151470739
0.6639016992 0.0053272363 0.0142750651
0.6797670278 0.0027749307 0.0128969095
0.6956438198 0.0000000000 0.0108838306
0.7108415424 0.0000000000 0.0086546645
0.7234143413 0.0000000000 0.0064913161
0.7340115975 0.0000000000 0.0044409718
0.7447175456 0.0000000000 0.0023091640
0.7557422830 0.0000000000 0.0000506766
0.0000000000 0.1921606982 0.0347026405
0.0532024258 0.1821344043 0.0317128927
0.0921310494 0.1786591146 0.0305818182
0.1215698422 0.1755473499 0.0296961501
0.1497237533 0.1726760717 0.0289393964
0.1790333501 0.1691788557 0.0283029735
0.2108139907 0.1648608744 0.0271966342
0.2394215045 0.1602026240 0.0263028853
0.2644741504 0.1566220251 0.0251453871
0.2853430667 0.1526067542 0.0242213021
0.3117973031 0.1473556913 0.0227966611
0.3432511169 0.1403188363 0.0214545451
0.3727561552 0.1344378361 0.0200613824
0.3958642412 0.1289775428 0.0193976911
0.4215247245 0.1233478702 0.0186723043
0.4518053500 0.1163979498 0.0178774775
0.4810322758 0.1096574455 0.0173523044
0.5046537847 0.1044947534 0.0173046555
0.5264487508 0.0991444965 0.0174130616
0.5498072940 0.0926206938 0.0175833823
0.5731655908 0.0854144057 0.0179581099
0.5944271297 0.0776635390 0.0183533744
0.6143821379 0.0691672223 0.0183485727
0.6333641364 0.0596521065 0.0179232702
0.6511629477 0.0479760104 0.0173214647
0.6685543636 0.0360074283 0.0158576856
0.6848940433 0.0210600697 0.0144874465
0.7010285726 0.0084439839 0.0123965820
0.7168770916 0.0023179796 0.0100215414
0.7303815385 0.0000000000 0.0077602836
0.7416514882 0.0000000000 0.0056008806
0.7529324568 0.0000000000 0.0032158031
0.7657043898 0.0000000000 0.0003498379
0.0000000000 0.2284794416 0.0299862149
0.0535905297 0.2193106911 0.0272738265
0.0932819587 0.2163057362 0.0262421905
0.1234494418 0.2133312545 0.0254894656
0.1514086102 0.2101435341 0.0249085533
0.1807404593 0.2066528014 0.0244039157
0.2124350413 0.2020857859 0.0240933953
0.2420357560 0.1973552387 0.0235969484
0.2682255796 0.1925190352 0.0232528656
0.2896557274 0.1886254813 0.0227678572
0.3169371174 0.1832221930 0.0220841486
0.3502797755 0.1767406147 0.0215591742
0.3807592794 0.1707996884 0.0210477529
0.4045141898 0.1660713579 0.0208268721
0.4303676668 0.1605090287 0.0205273503
0.4614751660 0.1531653582 0.0202890781
0.4914860396 0.1458793371 0.0202998033
0.5148962183 0.1401103001 0.0205970466
0.5360910820 0.1342427350 0.0208363282
0.5583416779 0.1272264605 0.0208006583
0.5800498220 0.1194627432 0.0206518444
0.6001709702 0.1118767480 0.0203723217
0.6198809163 0.1031165237 0.0198960133
0.6385991400 0.0934155611 0.0190468223
0.6558219922 0.0829175917 0.0179412382
0.6735530711 0.0701326727 0.0165093278
0.6900093738 0.0573427939 0.0148016667
0.7067355157 0.0429428247 0.0128487948
0.7233013327 0.0270487483 0.0105947288
0.7374825409 0.0137793745 0.0083208129
0.7496503854 0.0045972370 0.0061741512
0.7618768507 0.0011570979 0.0037956910
0.7770891789 0.0000000000 0.0006850284
0.0000000000 0.2565100793 0.0255486642
0.0556147714 0.2494031707 0.0236923977
0.0956786263 0.2473876228 0.0231679035
0.1259632781 0.2451798712 0.0229814131
0.1547492501 0.2426618745 0.0228230027
0.1841403439 0.2399380330 0.0229601001
0.2157891760 0.2366040393 0.0230653794
0.2459014725 0.2325960852 0.0233565737
0.2729809268 0.2287201104 0.0232548311
0.2955410258 0.2249191965 0.0233743561
0.3246939602 0.2197432870 0.0232295904
0.3594075751 0.2133527940 0.0234756278
0.3917445645 0.2074686378 0.0234157084
0.4158050776 0.2026944780 0.0236112091
0.4416209391 0.1971638662 0.0236991542
0.4729697747 0.1897861018 0.0237149583
0.5031851046 0.1818322158 0.0237318457
0.5262454948 0.1750336916 0.0237426967
0.5470757339 0.1681511266 0.0235191835
0.5687278110 0.1601952588 0.0229874142
0.5898105548 0.1520224757 0.0221062311
0.6094446418 0.1437415171 0.0212043158
0.6285221075 0.1351848717 0.0200115267
0.6471413817 0.1254012050 0.0187269059
0.6644225213 0.1149126000 0.0173020419
0.6822090215 0.1035177595 0.0155532688
0.6992776243 0.0909268990 0.0137700047
0.7164674552 0.0781055681 0.0117029321
0.7336992908 0.0637671973 0.0094519411
0.7485908430 0.0501966987 0.0072848694
0.7612008916 0.0380833517 0.0051812561
0.7738906134 0.0239005829 0.0028910321
0.7895272080 0.0085376381 0.0001058554
0.0000000000 0.2840145914 0.0228067839
0.0580663160 0.2787518347 0.0215962009
0.0991441513 0.2776875557 0.0215908371
0.1298645536 0.2761892157 0.0216957705
0.1585428756 0.2743987608 0.0220585194
0.1888193849 0.2722377717 0.0224439095
0.2204336969 0.2695450586 0.0230664400
0.2504008837 0.2663805219 0.0234655813
0.2779729552 0.2629256790 0.0238987877
0.3007595781 0.2597404232 0.0240814273
0.3315589662 0.2544722832 0.0243839467
0.3678795918 0.2484208084 0.0248161142
0.4009517698 0.2423107823 0.0249333583
0.4249427861 0.2373715583 0.0251128046
0.4505666682 0.2314843536 0.0250024825
0.4811643187 0.2235920068 0.0246660625
0.5107756048 0.2146644645 0.0241798266
0.5335553853 0.2064870895 0.0238603360
0.5543308606 0.1982856411 0.0232728902
0.5759606452 0.1890445563 0.0223584063
0.5970182145 0.1800031149 0.0212365728
0.6167515633 0.1718567003 0.0199926604
0.6360395253 0.1634340601 0.0185816509
0.6544014776 0.1545781526 0.0169717998
0.6719963465 0.1447640320 0.0154367670
0.6908352225 0.1333586897 0.0136807460
0.7081566673 0.1223934123 0.0117997048
0.7261797995 0.1101428520 0.0098729124
0.7438928697 0.0969237053 0.0076728679
0.7591890721 0.0844172044 0.0055364688
0.7722744676 0.0726661005 0.0037000570
0.7854179935 0.0595622221 0.0017627495
0.8018330537 0.0411980916 0.0000000000
0.0000000000 0.3083958700 0.0229214074
0.0625894416 0.3056609243 0.0221924911
0.1047535354 0.3054313829 0.0225072736
0.1359031590 0.3046760360 0.0228052123
0.1649683988 0.3033902820 0.0231481502
0.1946033276 0.3019360999 0.0235106742
0.2264090801 0.2994944424 0.0239165061
0.2563243843 0.2966777527 0.0243182693
0.2833125109 0.2934376154 0.0244475072
0.3057730624 0.2903485378 0.0246704603
0.3364054246 0.2849465558 0.0243634295
0.3738015733 0.2780377064 0.0248130221
0.4070030581 0.2713903960 0.0242789069
0.4302806451 0.2662330468 0.0244572630
0.4559977838 0.2598667328 0.0240133328
0.4865062498 0.2517060034 0.0232281170
0.5158597192 0.2425051436 0.0224152577
0.5391293898 0.2342652761 0.0218811793
0.5607063837 0.2259300066 0.0211949896
0.5832155530 0.2166801818 0.0201106454
0.6054484079 0.2072130446 0.0188765853
0.6262116038 0.1985972718 0.0176053073
0.6460583478 0.1900848129 0.0161244989
0.6647928473 0.1813758562 0.0143711465
0.6829954491 0.1722502098 0.0125572730
0.7023074349 0.1623931626 0.0106783600
0.7204036683 0.1522692482 0.0083336691
0.7385721250 0.1416536683 0.0062397483
0.7562519663 0.1287714870 0.0041588502
0.7717108254 0.1169934444 0.0022080356
0.7850006694 0.1061279500 0.0009138353
0.7981085205 0.0938745129 0.0003299588
0.8145673612 0.0776409885 0.0000000000
0.0000000000 0.3363419057 0.0217209754
0.0660444367 0.3356634940 0.0206006451
0.1086773349 0.3357800884 0.0205347653
0.1401238580 0.3352141958 0.0204967967
0.1690550750 0.3342241554 0.0204972364
0.1980268549 0.3328730090 0.0203412501
0.2287915011 0.3308394749 0.0202059368
0.2583944316 0.3280339240 0.0201691940
0.2848472347 0.3250332706 0.0200981891
0.3062929441 0.3220795110 0.0198062131
0.3369527948 0.3170294919 0.0195309420
0.3740723484 0.3101197077 0.0192757449
0.4089988642 0.3028461577 0.0191031300
0.4325213164 0.2975036152 0.0190663595
0.4582845045 0.2911733816 0.0189213040
0.4897003989 0.2829226442 0.0184802932
0.5197261500 0.2741996274 0.0178855229
0.5435391615 0.2660523523 0.0177271933
0.5663117821 0.2577854428 0.0172272120
0.5904742057 0.2483221888 0.0163579293
0.6145044054 0.2388490515 0.0151896523
0.6367796573 0.2300417186 0.0139285378
0.6576246991 0.2217346092 0.0123901931
0.6771503543 0.2136941436 0.0104819492
0.6962836801 0.2054380226 0.0083938838
0.7164070316 0.1960066648 0.0062464932
0.7347492340 0.1866358561 0.0039096436
0.7533793140 0.1759216332 0.0017029223
0.7712726514 0.1650611319 0.0010083752
0.7867808492 0.1540743452 0.0005310709
0.8002151050 0.1438478955 0.0001194145
0.8135251646 0.1321170669 0.0000000000
0.8298873700 0.1161053114 0.0000000000
0.0000000000 0.3605920781 0.0186466102
0.0651736426 0.3609676262 0.0165628320
0.1079037311 0.3611954239 0.0159336796
0.1396098079 0.3608895010 0.0155914475
0.1689376615 0.3600879391 0.0152986398
0.1978136754 0.3591791663 0.0149644689
0.2282575268 0.3575716360 0.0144138166
0.2573502650 0.3555513397 0.0140805807
0.2837992357 0.3529679315 0.0137372644
0.3055056379 0.3508796727 0.0136280307
0.3352802957 0.3467941686 0.0129533763
0.3727725536 0.3412581078 0.0130231258
0.4082951519 0.3345865806 0.0129409526
0.4335716116 0.3294374416 0.0133448464
0.4603341648 0.3234845284 0.0135134325
0.4928733746 0.3156894167 0.0133572068
0.5244001429 0.3071662420 0.0131034444
0.5491509171 0.2993284291 0.0129524340
0.5727666223 0.2913054717 0.0125193664
0.5985817544 0.2819230560 0.0117384977
0.6248253729 0.2723535847 0.0103966626
0.6487804258 0.2636126584 0.0089478084
0.6711244898 0.2552799914 0.0072086905
0.6920049959 0.2474777221 0.0049719941
0.7118179603 0.2399315382 0.0026227498
0.7322527885 0.2314903533 0.0008482682
0.7505484021 0.2231724600 0.0006496641
0.7689018847 0.2140928394 0.0004261334
0.7870552320 0.2030822857 0.0000362773
0.8028338511 0.1928359737 0.0000000000
0.8167605410 0.1829916677 0.0000000000
0.8308140886 0.1718821081 0.0000000000
0.8475792763 0.1572038323 0.0000000000
0.0000000000 0.3815282966 0.0127036344
0.0609867571 0.3827139581 0.0096087816
0.1037385941 0.3833795401 0.0085003426
0.1359032961 0.3834663202 0.0079351791
0.1655690044 0.3832292065 0.0076186695
0.1954225360 0.3827450063 0.0072336883
0.2262345517 0.3820134447 0.0068715252
0.2555466901 0.3807318246 0.0065964932
0.2819534651 0.3791614887 0.0063885333
0.3039737514 0.3774406098 0.0060825997
0.3342033058 0.3746576082 0.0058568061
0.3710872864 0.3705205829 0.0058609658
0.4069373753 0.3656409290 0.0061997451
0.4328943246 0.3614188467 0.0067436704
0.4616501195 0.3562205880 0.0074003225
0.4958471381 0.3496022754 0.0077855030
0.5288351999 0.3420168634 0.0077642951
0.5551688356 0.3346478101 0.0077086614
0.5797349727 0.3270201652 0.0071699605
0.6068701356 0.3181588734 0.0060403200
0.6346850665 0.3085092985 0.0045647310
0.6603950321 0.2992970815 0.0027846113
0.6843631872 0.2905419948 0.0014885239
0.7067945740 0.2825087147 0.0007639112
0.7277130124 0.2751654817 0.0003083087
0.7487747897 0.2674828077 0.0000000000
0.7666838717 0.2603071107 0.0000000000
0.7854941504 0.2517945234 0.0000000000
0.8036261863 0.2422873405 0.0000000000
0.8198897514 0.2326515033 0.0000000000
0.8342102298 0.2235629638 0.0000000000
0.8485018941 0.2130642706 0.0000000000
0.8653591116 0.1984369943 0.0000000000
0.0000000000 0.4009030842 0.0063745019
0.0550912411 0.4029109310 0.0024462528
0.0985602877 0.4041588169 0.0019560872
0.1310257191 0.4048197314 0.0017673398
0.1611509445 0.4051420259 0.0016979436
0.1917383951 0.4052734624 0.0015748016
0.2235824523 0.4051383063 0.0015032009
0.2535282050 0.4046941534 0.0014165926
0.2803486525 0.4037714306 0.0013846440
0.3026887923 0.4031458021 0.0013260445
0.3332312579 0.4009523688 0.0012552415
0.3706545862 0.3982906573 0.0012232378
0.4060469127 0.3944775430 0.0012864383
0.4325650526 0.3913254653 0.0013448524
0.4620485263 0.3868000958 0.0015484764
0.4985818070 0.3803779441 0.0017998646
0.5328123054 0.3737169553 0.0018226785
0.5602421162 0.3672760034 0.0018086098
0.5862050179 0.3607202221 0.0018020864
0.6146689272 0.3529154127 0.0015665882
0.6433165296 0.3446017801 0.0011924194
0.6704645959 0.3357986746 0.0007393977
0.6961895973 0.3269711635 0.0001824001
0.7200025111 0.3187229555 0.0000000000
0.7417836385 0.3111064542 0.0000000000
0.7631184355 0.3031040860 0.0000000000
0.7816997516 0.2957704842 0.0000000000
0.7998008004 0.2879017194 0.0000000000
0.8186037123 0.2784354133 0.0000000000
0.8349543770 0.2695495127 0.0000000000
0.8493360481 0.2609472287 0.0000000000
0.8636685061 0.2511099727 0.0000000000
0.8807506183 0.2371669037 0.0000000000
0.0000000000 0.4198450496 0.0016011760
0.0496970588 0.4224730295 0.0001821239
0.0936062086 0.4242257214 0.0000000000
0.1261539356 0.4255469652 0.0000000000
0.1565496033 0.4264721172 0.0000000000
0.1877316543 0.4272626213 0.0000000000
0.2203466328 0.4277516353 0.0000000000
0.2512518370 0.4280517542 0.0000000000
0.2786913068 0.4277941845 0.0000000000
0.3014801966 0.4274790938 0.0000000000
0.3321536826 0.4264998967 0.0000000000
0.3698682438 0.4244540154 0.0000000000
0.4053768683 0.4217503339 0.0000000000
0.4317092903 0.4193096773 0.0000000000
0.4617943563 0.4157511199 0.0000000000
0.4997160302 0.4099439424 0.0000055894
0.5360950669 0.4032543554 0.0000211892
0.5644362571 0.3976773528 0.0000000000
0.5911240038 0.3914636263 0.0000000000
0.6209458335 0.3843767764 0.0000000000
0.6502534996 0.3764576528 0.0000000000
0.6776715424 0.3686556354 0.0000000000
0.7045693157 0.3602291687 0.0000000000
0.7295955722 0.3521574029 0.0000000000
0.7522892082 0.3446521196 0.0000000000
0.7742571633 0.3367615989 0.0000000000
0.7934276173 0.3294095855 0.0000000000
0.8128527725 0.3215264381 0.0000000000
0.8313512939 0.3129317635 0.0000000000
0.8479668334 0.3040107066 0.0000000000
0.8623993593 0.2957281036 0.0000000000
0.8767465118 0.2861877716 0.0000000000
0.8940811966 0.2727738521 0.0000000000
0.0000000000 0.4395860975 0.0000000000
0.0443360352 0.4426863089 0.0000000000
0.0886437281 0.4448639323 0.0000000000
0.1213653422 0.4466112630 0.0000000000
0.1515884288 0.4481872583 0.0000000000
0.1829900489 0.4495587951 0.0000000000
0.2161318216 0.4506960237 0.0000000000
0.2477015395 0.4514628641 0.0000000000
0.2759198054 0.4518208231 0.0000000000
0.2992709159 0.4521498605 0.0000000000
0.3305349095 0.4518548626 0.0000000000
0.3683681171 0.4512466503 0.0000000000
0.4042951616 0.4494152664 0.0000000000
0.4306834293 0.4476720429 0.0000000000
0.4605108645 0.4447996196 0.0000000000
0.4984779824 0.4397795963 0.0000000000
0.5367033638 0.4333171931 0.0000000000
0.5664847965 0.4273912132 0.0000000000
0.5939543846 0.4215844986 0.0000000000
0.6245981099 0.4143084290 0.0000000000
0.6550527572 0.4067768315 0.0000000000
0.6829883392 0.3991378460 0.0000000000
0.7102539234 0.3913856290 0.0000000000
0.7361292222 0.3835847024 0.0000000000
0.7598173069 0.3761112678 0.0000000000
0.7828166600 0.3683356814 0.0000000000
0.8024037063 0.3613454998 0.0000000000
0.8227792798 0.3539302039 0.0000000000
0.8425389045 0.3460850254 0.0000000000
0.8588380037 0.3382339599 0.0000000000
0.8735129988 0.3303309519 0.0000000000
0.8884164707 0.3212363998 0.0000000000
0.9062278540 0.3084087793 0.0000000000
0.0000000000 0.4605846605 0.0000000000
0.0390622232 0.4636236654 0.0000000000
0.0835783017 0.4661331629 0.0000000000
0.1163129251 0.4682599237 0.0000000000
0.1462807589 0.4702359624 0.0000000000
0.1773002463 0.4721909196 0.0000000000
0.2108416619 0.4740662127 0.0000000000
0.2428842732 0.4756620494 0.0000000000
0.2717086726 0.4767142620 0.0000000000
0.2961506919 0.4774185754 0.0000000000
0.3276951812 0.4780502429 0.0000000000
0.3655849752 0.4780529354 0.0000000000
0.4009939272 0.4772078861 0.0000000000
0.4278680086 0.4758246246 0.0000000000
0.4572711332 0.4736308518 0.0000000000
0.4953388016 0.4694485436 0.0000000000
0.5333641513 0.4639017421 0.0000000000
0.5650923022 0.4582225672 0.0000000000
0.5939573903 0.4523642810 0.0000000000
0.6257382100 0.4456126697 0.0000000000
0.6573331669 0.4379443793 0.0000000000
0.6862282948 0.4304885566 0.0000000000
0.7141727676 0.4228117508 0.0000000000
0.7404742995 0.4151848980 0.0000000000
0.7649082025 0.4077191641 0.0000000000
0.7891956171 0.3999662214 0.0000000000
0.8099132056 0.3931760604 0.0000000000
0.8313248344 0.3864647309 0.0000000000
0.8520082399 0.3791279740 0.0000000000
0.8695983815 0.3723652606 0.0000000000
0.8845714168 0.3658717414 0.0000000000
0.9004283379 0.3582439439 0.0000000000
0.9199007874 0.3471356072 0.0000000000
0.0000000000 0.4788993111 0.0000000000
0.0346049024 0.4815484521 0.0000000000
0.0792109369 0.4844273477 0.0000000000
0.1119483080 0.4869128464 0.0000000000
0.1417209158 0.4894341103 0.0000000000
0.1722020060 0.4919951356 0.0000000000
0.2054348789 0.4945001919 0.0000000000
0.2370538034 0.4966340384 0.0000000000
0.2658458233 0.4980766238 0.0000000000
0.2904033099 0.4993185084 0.0000000000
0.3226384695 0.5000213366 0.0000000000
0.3605393713 0.5008094379 0.0000000000
0.3956570400 0.5004547184 0.0000000000
0.4224894198 0.4996293295 0.0000000000
0.4523206745 0.4978128337 0.0000000000
0.4897479578 0.4945167691 0.0000000000
0.5285008674 0.4896673911 0.0000000000
0.5598847672 0.4847671299 0.0000000000
0.5909964822 0.4789572054 0.0000000000
0.6243047174 0.4723473771 0.0000000000
0.6569864967 0.4655291440 0.0000000000
0.6871942325 0.4584580757 0.0000000000
0.7162173944 0.4515231928 0.0000000000
0.7432428652 0.4446906266 0.0000000000
0.7683560705 0.4379265623 0.0000000000
0.7938912944 0.4305876239 0.0000000000
0.8156337596 0.4243332710 0.0000000000
0.8389123761 0.4174768644 0.0000000000
0.8611456050 0.4107350618 0.0000000000
0.8796935220 0.4043199576 0.0000000000
0.8958853646 0.3984991374 0.0000000000
0.9127872223 0.3919650546 0.0000000000
0.9337599596 0.3822923494 0.0000000000
0.0000000000 0.4951052410 0.0000000000
0.0314221157 0.4974082231 0.0000000000
0.0761802146 0.5008022432 0.0000000000
0.1084667065 0.5036907339 0.0000000000
0.1377798907 0.5064931978 0.0000000000
0.1674450747 0.5095450735 0.0000000000
0.2000349690 0.5124969826 0.0000000000
0.2306376298 0.5152244545 0.0000000000
0.2588202625 0.5170609183 0.0000000000
0.2837577031 0.5185193439 0.0000000000
0.3156048880 0.5200690106 0.0000000000
0.3541914981 0.5211593194 0.0000000000
0.3891758703 0.5215321584 0.0000000000
0.4163022513 0.5210281683 0.0000000000
0.4457112758 0.5197177277 0.0000000000
0.4837353324 0.5167522704 0.0000000000
0.5219389954 0.5127014589 0.0000000000
0.5543469450 0.5082883976 0.0000000000
0.5855608775 0.5032574947 0.0000000000
0.6217977122 0.4964995119 0.0000000000
0.6561409903 0.4901978250 0.0000000000
