2. reversing the negative/print paper LUTs/color/Direktbild/Fuji_Frontier5-sRGB_CA-DPII_v3a_color only.cube
LUT_3D_SIZE 33
0.0000000000 0.0000612457 0.0000610002
0.0347937226 0.0023249243 0.0014429244
0.0639292715 0.0025632262 0.0084239740
0.0832659544 0.0027602518 0.0107297558
0.1060863090 0.0025302620 0.0128162419
0.1322450070 0.0016905785 0.0140581324
0.1629683454 0.0009566657 0.0152899755
0.1942420030 0.0003239241 0.0165352639
0.2221813337 0.0000000000 0.0171038422
0.2463346276 0.0000000000 0.0173576162
0.2711916681 0.0000000000 0.0169834977
0.3022565819 0.0000000000 0.0155142110
0.3318430675 0.0000000000 0.0133013441
0.3562756484 0.0000000000 0.0111925817
0.3808864918 0.0000000000 0.0096795071
0.4108538646 0.0000000000 0.0080146973
0.4407664776 0.0000000000 0.0066066670
0.4638422835 0.0000000000 0.0058363877
0.4844591228 0.0000000000 0.0054049463
0.5050180349 0.0000000000 0.0048424591
0.5281914065 0.0000000000 0.0040460310
0.5456522238 0.0000000000 0.0040969669
0.5614458550 0.0000000000 0.0042092564
0.5781612393 0.0000000000 0.0036323120
0.5944784940 0.0000000000 0.0025265782
0.6110109777 0.0000000000 0.0007714503
0.6263750239 0.0000000000 0.0000851673
0.6421070272 0.0000000000 0.0000001519
0.6549745822 0.0000000000 0.0000000000
0.6649090994 0.0000000000 0.0000000000
0.6721598790 0.0000000000 0.0000000000
0.6761136442 0.0000000000 0.0000000000
0.6777825018 0.0000000000 0.0000000000
0.0000000000 0.0371247268 0.0055461545
0.0295488944 0.0315671709 0.0008980206
0.0592415318 0.0319611155 0.0012645381
0.0828642090 0.0330819523 0.0055352217
0.1091770446 0.0333625661 0.0095740604
0.1391051465 0.0352232071 0.0143104691
0.1715609729 0.0361596246 0.0183583619
0.2040623860 0.0369128698 0.0210768134
0.2321157038 0.0359901386 0.0223349578
0.2557448579 0.0339621807 0.0221480447
0.2798463010 0.0306063653 0.0211830626
0.3090667891 0.0252049893 0.0187384872
0.3369241615 0.0184017660 0.0159303677
0.3607856824 0.0122179983 0.0134825820
0.3848146395 0.0060936659 0.0117625825
0.4137313822 0.0007619870 0.0099018000
0.4428629726 0.0000227392 0.0083697729
0.4666567881 0.0000095689 0.0074738752
0.4878562268 0.0000012128 0.0069144231
0.5081899395 0.0000001055 0.0063095386
0.5314535348 0.0000000000 0.0056300134
0.5495962576 0.0000000000 0.0056018741
0.5661091337 0.0000000000 0.0057041476
0.5824738406 0.0000000000 0.0052718362
0.5983774459 0.0000000000 0.0043367786
0.6143316565 0.0000000000 0.0029715353
0.6281836730 0.0000000000 0.0013303639
0.6426107379 0.0000000000 0.0000947645
0.6551677131 0.0000000000 0.0000005368
0.6648467250 0.0000000000 0.0000000000
0.6724085692 0.0000000000 0.0000000000
0.6780047724 0.0000000000 0.0000000000
0.6816255352 0.0000000000 0.0000000000
0.0000000000 0.0651995754 0.0109226556
0.0309625228 0.0596279520 0.0064193333
0.0661897277 0.0626270762 0.0087276186
0.0904258953 0.0641745193 0.0113047439
0.1198630939 0.0672260774 0.0162638977
0.1507951735 0.0688771691 0.0205931609
0.1833703888 0.0691154955 0.0234634263
0.2146308596 0.0679906791 0.0251098919
0.2412245975 0.0654933076 0.0250159645
0.2639202752 0.0625184399 0.0241278048
0.2871267862 0.0584301974 0.0225133054
0.3153211749 0.0525274597 0.0196659731
0.3425504816 0.0459497684 0.0168201088
0.3664140644 0.0401139384 0.0145277650
0.3901408248 0.0338824849 0.0127928471
0.4186998987 0.0252000476 0.0108918525
0.4475638376 0.0152750792 0.0093579023
0.4710407924 0.0064730763 0.0084515260
0.4920398619 0.0007913908 0.0076230821
0.5124682590 0.0000799156 0.0071010414
0.5357398878 0.0000020295 0.0065078978
0.5540694152 0.0000000000 0.0067911077
0.5708209651 0.0000000000 0.0068050093
0.5870864065 0.0000000000 0.0064939342
0.6030156470 0.0000000000 0.0055961607
0.6190586579 0.0000000000 0.0045867240
0.6330454355 0.0000000000 0.0031667408
0.6472012315 0.0000000000 0.0013848021
0.6596896992 0.0000000000 0.0002122290
0.6694734842 0.0000000000 0.0000006082
0.6774077675 0.0000000000 0.0000000000
0.6839453920 0.0000000000 0.0000000000
0.6890708556 0.0000000000 0.0000000000
0.0000000000 0.0973593716 0.0206100662
0.0383175655 0.0924196266 0.0172267352
0.0782480287 0.0933074529 0.0180457721
0.1026967875 0.0956750083 0.0199979984
0.1303882788 0.0962748708 0.0221189725
0.1601139245 0.0963777044 0.0245739737
0.1905918243 0.0946021588 0.0257436559
0.2205334786 0.0917381178 0.0259943443
0.2467344453 0.0879495839 0.0251934194
0.2692484828 0.0843020270 0.0238971251
0.2921024488 0.0799842132 0.0221464596
0.3199810215 0.0738514867 0.0195386334
0.3475024102 0.0673751960 0.0169597610
0.3714192370 0.0617519117 0.0148286881
0.3951937577 0.0560698833 0.0131503463
0.4237751579 0.0486003007 0.0113507416
0.4523684632 0.0400799418 0.0098477403
0.4755898576 0.0320111063 0.0087610362
0.4962458730 0.0235043633 0.0079709466
0.5165370912 0.0135799349 0.0074008588
0.5399282430 0.0014445820 0.0070733022
0.5583217288 0.0000288103 0.0073972220
0.5751036054 0.0000190291 0.0075256961
0.5914175584 0.0000067822 0.0071781081
0.6073154270 0.0000000000 0.0067311621
0.6234204364 0.0000000000 0.0057929062
0.6376588613 0.0000000000 0.0046509496
0.6518403015 0.0000000000 0.0029559470
0.6644642692 0.0000000000 0.0009576542
0.6746243665 0.0000000000 0.0001120817
0.6827603450 0.0000000000 0.0000002434
0.6905001968 0.0000000000 0.0000000000
0.6969145470 0.0000000000 0.0000000000
0.0000000000 0.1377894468 0.0302054552
0.0481413735 0.1314412913 0.0262171117
0.0890538742 0.1307858865 0.0251592245
0.1127871646 0.1302892262 0.0249646993
0.1382308768 0.1297008083 0.0246471951
0.1668944774 0.1278047082 0.0250455515
0.1965381102 0.1248907229 0.0249654197
0.2254752428 0.1208147026 0.0244701346
0.2522834376 0.1163601056 0.0235047677
0.2754837229 0.1120472570 0.0223030250
0.2984266035 0.1075570014 0.0208707056
0.3263476607 0.1016289928 0.0187254008
0.3544772369 0.0951684928 0.0166895567
0.3789412685 0.0901452358 0.0149421382
0.4029455973 0.0848013395 0.0135388501
0.4313302126 0.0781153846 0.0115690235
0.4593758854 0.0699817522 0.0100426875
0.4823794136 0.0631759861 0.0090346711
0.5027735818 0.0558401632 0.0084135872
0.5227278929 0.0455941334 0.0080446821
0.5461183334 0.0311534931 0.0076430898
0.5649048849 0.0223019858 0.0079846372
0.5819487468 0.0153817531 0.0082766926
0.5988316928 0.0054718411 0.0082312467
0.6149325366 0.0000366677 0.0078969508
0.6308407557 0.0000207156 0.0073285907
0.6451116728 0.0000072123 0.0060333039
0.6591791554 0.0000000000 0.0043288065
0.6723199835 0.0000000000 0.0022666550
0.6827795268 0.0000000000 0.0003108981
0.6921311977 0.0000000000 0.0000006777
0.7003477824 0.0000000000 0.0000000000
0.7086244562 0.0000000000 0.0000000000
0.0000000000 0.1758472469 0.0323873448
0.0550738275 0.1700881552 0.0279198208
0.0966718531 0.1682717797 0.0256920627
0.1198857677 0.1669609959 0.0245421826
0.1443952883 0.1655104533 0.0235543891
0.1712834103 0.1634047467 0.0226711998
0.2011230701 0.1596329496 0.0218733593
0.2304028827 0.1552053385 0.0212636238
0.2576659067 0.1505109262 0.0206051957
0.2820984394 0.1459739554 0.0197637957
0.3060461876 0.1411677024 0.0187974467
0.3347685788 0.1352892167 0.0174962494
0.3637485304 0.1292618315 0.0156332592
0.3884539369 0.1238144172 0.0142186402
0.4127460581 0.1189581403 0.0127920634
0.4411781781 0.1124466343 0.0112165901
0.4692061899 0.1053209442 0.0097799412
0.4917650606 0.0985592643 0.0091815345
0.5117879327 0.0924686883 0.0087416743
0.5312731458 0.0841577444 0.0086075993
0.5546736823 0.0729153873 0.0083862944
0.5742840924 0.0616813969 0.0088442471
0.5918888584 0.0517861435 0.0092946842
0.6092778488 0.0383361703 0.0093470527
0.6253831196 0.0268913095 0.0089384758
0.6410113766 0.0184760170 0.0081354897
0.6553765471 0.0064261988 0.0069219364
0.6695128702 0.0000343194 0.0050062457
0.6833926157 0.0000095833 0.0027495129
0.6948366287 0.0000000001 0.0007808392
0.7041762395 0.0000000001 0.0000015998
0.7147182806 0.0000000000 0.0000000000
0.7237738637 0.0000000000 0.0000000000
0.0000000000 0.2093716145 0.0270759630
0.0583137522 0.2049110205 0.0226918858
0.1011179858 0.2031680158 0.0204253431
0.1244410915 0.2020389137 0.0193827171
0.1488697683 0.2005945153 0.0185463295
0.1747387105 0.1987438410 0.0178135458
0.2037010169 0.1957055720 0.0171949027
0.2337618529 0.1914882751 0.0167508163
0.2623767508 0.1865893711 0.0166959128
0.2873959392 0.1823182215 0.0162228343
0.3123576444 0.1772815820 0.0155925867
0.3426257593 0.1711321569 0.0144763485
0.3729535940 0.1649578643 0.0134790869
0.3984610301 0.1601102652 0.0120485092
0.4227812629 0.1546602353 0.0111558730
0.4516130550 0.1484042315 0.0096014593
0.4798982272 0.1413614855 0.0089096901
0.5028284244 0.1354013009 0.0088385089
0.5225075835 0.1295308979 0.0089181664
0.5417344277 0.1224202510 0.0090162469
0.5649300324 0.1130091711 0.0090904872
0.5848756691 0.1036615279 0.0094686601
0.6028852357 0.0945439561 0.0098203776
0.6204661516 0.0833229708 0.0095921058
0.6364922650 0.0705919702 0.0089316135
0.6522282580 0.0566193281 0.0077880571
0.6664667405 0.0407609183 0.0062135802
0.6809656592 0.0243097246 0.0042755396
0.6953648841 0.0095376586 0.0017683554
0.7077581889 0.0000469709 0.0007273457
0.7181284342 0.0000160127 0.0000015043
0.7284812391 0.0000056306 0.0000000000
0.7403509895 0.0000000000 0.0000000000
0.0000000000 0.2394421525 0.0205577426
0.0609802307 0.2363786861 0.0167250128
0.1049157930 0.2353490079 0.0148726286
0.1286850820 0.2344663262 0.0140537650
0.1536880253 0.2332114366 0.0133565445
0.1794445590 0.2315809772 0.0128319815
0.2072801117 0.2292588571 0.0121916033
0.2364935289 0.2258505798 0.0119841043
0.2655186077 0.2217132308 0.0119114258
0.2917491041 0.2171357042 0.0119496234
0.3173378140 0.2124362420 0.0113914969
0.3487312200 0.2058249680 0.0108872475
0.3812583160 0.1993118148 0.0098942001
0.4072846979 0.1941026879 0.0094240196
0.4323741495 0.1893124478 0.0088856054
0.4619753905 0.1830970780 0.0084430741
0.4913817277 0.1764477720 0.0081953811
0.5143662861 0.1705389295 0.0084488693
0.5341095250 0.1648576775 0.0088418107
0.5533951256 0.1580794845 0.0090625214
0.5767380501 0.1490975941 0.0089631411
0.5965088538 0.1406362136 0.0088890191
0.6142470720 0.1321668537 0.0086272561
0.6317528998 0.1213979356 0.0078476167
0.6479904366 0.1097827927 0.0066848288
0.6638993794 0.0969303718 0.0051231706
0.6789084276 0.0830270494 0.0031240204
0.6938302458 0.0683759631 0.0018348755
0.7091286889 0.0505624738 0.0008538313
0.7219616616 0.0337518803 0.0000016359
0.7329658730 0.0179120431 0.0000000000
0.7444060013 0.0062905247 0.0000000000
0.7575317157 0.0000213964 0.0000000000
0.0000000000 0.2671937421 0.0136642601
0.0629549537 0.2657253200 0.0100689732
0.1083190696 0.2654374813 0.0085237502
0.1327585011 0.2649296160 0.0077612231
0.1581991099 0.2640429325 0.0071345849
0.1846759279 0.2627009361 0.0065499085
0.2122312212 0.2608381263 0.0061370534
0.2402032886 0.2583269488 0.0056907885
0.2683372397 0.2549904923 0.0058462403
0.2943176242 0.2514398608 0.0057930334
0.3211128739 0.2467921768 0.0059362222
0.3539995926 0.2409809329 0.0058669121
0.3883475442 0.2344718386 0.0063522857
0.4161340229 0.2291739942 0.0062107082
0.4417038323 0.2241650518 0.0064249719
0.4717133135 0.2180168654 0.0062076510
0.5019525264 0.2110996460 0.0063277759
0.5251225549 0.2047891158 0.0068124155
0.5447620486 0.1987486872 0.0071156931
0.5641716995 0.1915265919 0.0070415632
0.5875190994 0.1823852482 0.0063967569
0.6074585141 0.1739893051 0.0057610763
0.6250757954 0.1660618403 0.0049357361
0.6424438801 0.1563187622 0.0035264085
0.6592242181 0.1452919133 0.0022436049
0.6758403506 0.1333493350 0.0014767019
0.6919102907 0.1211495754 0.0007131533
0.7083162108 0.1077263727 0.0001609773
0.7241187786 0.0934795380 0.0000003104
0.7382871434 0.0789581976 0.0000000000
0.7498885869 0.0653462169 0.0000000000
0.7619991605 0.0491246709 0.0000000000
0.7762762932 0.0275911042 0.0000000000
0.0000000000 0.2921475929 0.0065628753
0.0656622252 0.2920883938 0.0035009043
0.1114876224 0.2926973974 0.0026080220
0.1364195793 0.2927964947 0.0022546154
0.1625932940 0.2923324320 0.0019709330
0.1891458382 0.2918221777 0.0016911245
0.2174733282 0.2904046345 0.0014176960
0.2455960971 0.2885912434 0.0012288382
0.2729047126 0.2860285504 0.0011853462
0.2981440409 0.2830978615 0.0013205185
0.3244392664 0.2793561453 0.0013144805
0.3588472671 0.2736583469 0.0015351971
0.3938898358 0.2678826471 0.0018549189
0.4224613168 0.2626336221 0.0024669189
0.4492998196 0.2574459107 0.0027065078
0.4797454887 0.2510671440 0.0026483040
0.5100437792 0.2438240618 0.0025082863
0.5336464948 0.2370147811 0.0026722269
0.5535991581 0.2304643363 0.0030299910
0.5737003010 0.2230659975 0.0028951069
0.5978492297 0.2135736771 0.0025567526
0.6183956273 0.2053643399 0.0020193720
0.6363537919 0.1975832182 0.0014647359
0.6543320966 0.1887866124 0.0004775020
0.6718109479 0.1789348440 0.0000216608
0.6898238054 0.1681597184 0.0000000322
0.7072090105 0.1573802898 0.0000000000
0.7241641901 0.1457210562 0.0000000000
0.7409202782 0.1328032042 0.0000000000
0.7552997233 0.1208727064 0.0000000000
0.7676881311 0.1093402184 0.0000000000
0.7802026925 0.0958955833 0.0000000000
0.7953081953 0.0768315111 0.0000000000
0.0000000000 0.3162292429 0.0014743975
0.0687923981 0.3178671580 0.0000000117
0.1150936899 0.3193340406 0.0000000000
0.1406478452 0.3198629441 0.0000000000
0.1667979382 0.3200127004 0.0000000000
0.1940333829 0.3197251660 0.0000000000
0.2218837903 0.3193368169 0.0000000000
0.2505807103 0.3178368935 0.0000000000
0.2781761616 0.3159939597 0.0000000000
0.3024169298 0.3135877478 0.0000000000
0.3282168734 0.3102437365 0.0000000000
0.3618943468 0.3051091282 0.0000000000
0.3981703641 0.2990500736 0.0000000000
0.4266697889 0.2938793136 0.0000000000
0.4535418918 0.2885708796 0.0001945148
0.4853649305 0.2816942030 0.0000745488
0.5160759037 0.2745598439 0.0000000233
0.5403044446 0.2678275569 0.0000000000
0.5612899055 0.2612625802 0.0000000000
0.5827671633 0.2540447190 0.0000000000
0.6081402085 0.2450785711 0.0000000000
0.6303809331 0.2367093460 0.0000000000
0.6490576074 0.2292569471 0.0000000000
0.6680863620 0.2210727061 0.0000000000
0.6867184009 0.2124215984 0.0000000000
0.7060097600 0.2029685939 0.0000000000
0.7242745173 0.1932619281 0.0000000000
0.7422170297 0.1827376544 0.0000000000
0.7591669631 0.1714671455 0.0000000000
0.7739388482 0.1606643607 0.0000000000
0.7864365881 0.1507818644 0.0000000000
0.7989835255 0.1391963730 0.0000000000
0.8140263438 0.1239151617 0.0000000000
0.0000000000 0.3411384183 0.0000000000
0.0721555614 0.3440607826 0.0000000000
0.1177029610 0.3462442782 0.0000000000
0.1434457675 0.3471120116 0.0000000000
0.1702191739 0.3473462203 0.0000000000
0.1970734884 0.3476016939 0.0000000000
0.2253692528 0.3470814667 0.0000000000
0.2533755259 0.3463845769 0.0000000000
0.2812415413 0.3445300387 0.0000000000
0.3054104727 0.3427808518 0.0000000000
0.3298213216 0.3399914520 0.0000000000
0.3628748502 0.3356418433 0.0000000000
0.3985998966 0.3300056222 0.0000000000
0.4282560761 0.3247635456 0.0000000000
0.4552718903 0.3198355630 0.0000000000
0.4884002867 0.3129299226 0.0000000000
0.5208953262 0.3056266721 0.0000000000
0.5462295395 0.2990112681 0.0000000000
0.5684984971 0.2926394508 0.0000000000
0.5917041457 0.2855956140 0.0000000000
0.6189298431 0.2768368161 0.0000000000
0.6420253087 0.2691238696 0.0000000000
0.6623643902 0.2617807878 0.0000000000
0.6823211073 0.2542535449 0.0000000000
0.7023208992 0.2463398540 0.0000000000
0.7222245437 0.2376445404 0.0000000000
0.7405192099 0.2288240725 0.0000000000
0.7589864090 0.2189828629 0.0000000000
0.7765430086 0.2081562976 0.0000000000
0.7913391687 0.1981665942 0.0000000000
0.8040177186 0.1887088546 0.0000000000
0.8167137006 0.1783232237 0.0000000000
0.8316488883 0.1644708215 0.0000000000
0.0000000000 0.3625182854 0.0000000000
0.0734627685 0.3659708145 0.0000000000
0.1176645408 0.3681541960 0.0000000000
0.1431665674 0.3691841141 0.0000000000
0.1696381132 0.3698352694 0.0000000000
0.1974873256 0.3700020040 0.0000000000
0.2256772065 0.3701465351 0.0000000000
0.2542093315 0.3694722238 0.0000000000
0.2819826202 0.3684981005 0.0000000000
0.3065536719 0.3669712056 0.0000000000
0.3310866864 0.3651856892 0.0000000000
0.3634262683 0.3621583110 0.0000000000
0.3983039209 0.3583550426 0.0000000000
0.4283768938 0.3540062440 0.0000000000
0.4567437717 0.3497409391 0.0000000000
0.4909800648 0.3440174616 0.0000000000
0.5256526308 0.3369989006 0.0000000000
0.5527777298 0.3306555311 0.0000000000
0.5763658476 0.3242729798 0.0000000000
0.6008144108 0.3173185179 0.0000000000
0.6294927393 0.3082784839 0.0000000000
0.6536267547 0.3002800530 0.0000000000
0.6747103317 0.2928928578 0.0000000000
0.6960587751 0.2851735659 0.0000000000
0.7167674524 0.2775050583 0.0000000000
0.7365479133 0.2694045905 0.0000000000
0.7545674671 0.2614283786 0.0000000000
0.7730548814 0.2524624264 0.0000000000
0.7908209078 0.2423220570 0.0000000000
0.8060263586 0.2325623698 0.0000000000
0.8188946594 0.2237046460 0.0000000000
0.8318409640 0.2134162422 0.0000000000
0.8471515511 0.2005239017 0.0000000000
0.0000000000 0.3815385084 0.0000000000
0.0729368585 0.3853704378 0.0000000000
0.1157958772 0.3877383538 0.0000000000
0.1409046254 0.3889168358 0.0000000000
0.1676274279 0.3897768714 0.0000000000
0.1951778752 0.3906970504 0.0000000000
0.2245918423 0.3910797722 0.0000000000
0.2536967642 0.3914065409 0.0000000000
0.2822601756 0.3909029437 0.0000000000
0.3070378596 0.3904335841 0.0000000000
0.3322501022 0.3891991868 0.0000000000
0.3647362512 0.3875238803 0.0000000000
0.3990035975 0.3852136236 0.0000000000
0.4284325756 0.3823703227 0.0000000000
0.4577694478 0.3788421726 0.0000000000
0.4933494331 0.3735947474 0.0000000000
0.5290088092 0.3675241309 0.0000000000
0.5576994589 0.3611443124 0.0000000000
0.5828607006 0.3552450596 0.0000000000
0.6083615470 0.3486782668 0.0000000000
0.6379131288 0.3398062631 0.0000000000
0.6629931280 0.3313756137 0.0000000000
0.6850651790 0.3235517787 0.0000000000
0.7074047015 0.3156684142 0.0000000000
0.7286120568 0.3078676742 0.0000000000
0.7488447094 0.2997490724 0.0000000000
0.7669204126 0.2920163772 0.0000000000
0.7852569628 0.2835124781 0.0000000000
0.8032190785 0.2741114030 0.0000000000
0.8188526468 0.2650608385 0.0000000000
0.8321864338 0.2566255760 0.0000000000
0.8456952925 0.2473378421 0.0000000000
0.8616727268 0.2348957065 0.0000000000
0.0000000000 0.3996708919 0.0000000000
0.0712207729 0.4039489607 0.0000000000
0.1135652012 0.4066252778 0.0000000000
0.1380937662 0.4083134730 0.0000000000
0.1644229485 0.4098093581 0.0000000000
0.1925133460 0.4111228799 0.0000000000
0.2219972972 0.4124345405 0.0000000000
0.2524218198 0.4133201079 0.0000000000
0.2819091413 0.4139429185 0.0000000000
0.3075172157 0.4140409121 0.0000000000
0.3330661066 0.4140091994 0.0000000000
0.3663301536 0.4130044809 0.0000000000
0.4001923753 0.4118133559 0.0000000000
0.4289536006 0.4099690513 0.0000000000
0.4573582867 0.4074587929 0.0000000000
0.4945645507 0.4027157509 0.0000000000
0.5310369988 0.3968277435 0.0000000000
0.5603785122 0.3913481808 0.0000000000
0.5870494300 0.3852310522 0.0000000000
0.6139839746 0.3789713542 0.0000000000
0.6444283586 0.3704613737 0.0000000000
0.6702277825 0.3623387110 0.0000000000
0.6934173738 0.3545944658 0.0000000000
0.7169275173 0.3470455680 0.0000000000
0.7385350905 0.3393921311 0.0000000000
0.7596488445 0.3312359390 0.0000000000
0.7784363480 0.3235648194 0.0000000000
0.7970286249 0.3154183993 0.0000000000
0.8149921559 0.3064178408 0.0000000000
0.8309813143 0.2976852324 0.0000000000
0.8448981129 0.2895040388 0.0000000000
0.8588168487 0.2804066542 0.0000000000
0.8756137926 0.2689189332 0.0000000000
0.0000000000 0.4178656441 0.0000000000
0.0697232707 0.4228953559 0.0000000000
0.1113121971 0.4261139080 0.0000000000
0.1357010875 0.4282132684 0.0000000000
0.1617755266 0.4303047664 0.0000000000
0.1894453051 0.4324895154 0.0000000000
0.2193527899 0.4343336749 0.0000000000
0.2499543298 0.4360607738 0.0000000000
0.2804167444 0.4371898209 0.0000000000
0.3067347163 0.4380669963 0.0000000000
0.3328652363 0.4385265039 0.0000000000
0.3663244251 0.4385129409 0.0000000000
0.4006140344 0.4379302561 0.0000000000
0.4286179905 0.4367224091 0.0000000000
0.4565368979 0.4349744187 0.0000000000
0.4922506336 0.4311765164 0.0000000000
0.5310719451 0.4254369570 0.0000000000
0.5607638768 0.4200439153 0.0000000000
0.5881455870 0.4146744219 0.0000000000
0.6168786960 0.4084461482 0.0000000000
0.6492198112 0.4005267108 0.0000000000
0.6759901568 0.3927885087 0.0000000000
0.7002946928 0.3853515658 0.0000000000
0.7246371149 0.3778274873 0.0000000000
0.7470287570 0.3705543379 0.0000000000
0.7686683194 0.3629833321 0.0000000000
0.7881996532 0.3557985501 0.0000000000
0.8077496362 0.3482136829 0.0000000000
0.8262931798 0.3400429042 0.0000000000
0.8424889472 0.3319535289 0.0000000000
0.8573352527 0.3240393643 0.0000000000
0.8720682789 0.3150569802 0.0000000000
0.8893157453 0.3038007185 0.0000000000
0.0000000000 0.4369830210 0.0000000000
0.0690854359 0.4424335354 0.0000000000
0.1103488621 0.4461086639 0.0000000000
0.1339081489 0.4485525901 0.0000000000
0.1591602211 0.4510945172 0.0000000000
0.1864844200 0.4536853295 0.0000000000
0.2157607470 0.4563222647 0.0000000000
0.2464001557 0.4584616380 0.0000000000
0.2767560576 0.4601978321 0.0000000000
0.3038625705 0.4612367356 0.0000000000
0.3302491309 0.4621622916 0.0000000000
0.3639833361 0.4626659185 0.0000000000
0.3982223165 0.4626140495 0.0000000000
0.4267195272 0.4618418612 0.0000000000
0.4537302112 0.4606177101 0.0000000000
0.4890473055 0.4579325560 0.0000000000
0.5268108194 0.4534679089 0.0000000000
0.5589361880 0.4483626836 0.0000000000
0.5869538273 0.4432748897 0.0000000000
0.6167900396 0.4372947259 0.0000000000
0.6513446836 0.4293259984 0.0000000000
0.6797235999 0.4219974066 0.0000000000
0.7052176548 0.4148670964 0.0000000000
0.7304826226 0.4077235407 0.0000000000
0.7540318291 0.4007650094 0.0000000000
0.7765977717 0.3936990051 0.0000000000
0.7965749598 0.3871886677 0.0000000000
0.8169539580 0.3802906482 0.0000000000
0.8366473528 0.3729190511 0.0000000000
0.8538476066 0.3660330084 0.0000000000
0.8689677001 0.3593307262 0.0000000000
0.8853787372 0.3512352780 0.0000000000
0.9032628889 0.3403992329 0.0000000000
0.0000000000 0.4551063748 0.0000000000
0.0691123771 0.4602303921 0.0000000000
0.1095943439 0.4641835093 0.0000000000
0.1325651980 0.4668124207 0.0000000000
0.1570941944 0.4695178669 0.0000000000
0.1831435375 0.4725355909 0.0000000000
0.2118476768 0.4753207583 0.0000000000
0.2414214550 0.4779865871 0.0000000000
0.2713932743 0.4799065252 0.0000000000
0.2984330119 0.4814567715 0.0000000000
0.3256007105 0.4824891728 0.0000000000
0.3594192711 0.4834463445 0.0000000000
0.3939111114 0.4839440919 0.0000000000
0.4226947819 0.4837569453 0.0000000000
0.4504945680 0.4830147858 0.0000000000
0.4846056303 0.4812211930 0.0000000000
0.5224103673 0.4778274197 0.0000000000
0.5536964199 0.4738139559 0.0000000000
0.5838073763 0.4689771781 0.0000000000
0.6147911410 0.4634514073 0.0000000000
0.6512876559 0.4560493715 0.0000000000
0.6817003863 0.4488616768 0.0000000000
0.7087645107 0.4423042544 0.0000000000
0.7350017953 0.4357003220 0.0000000000
0.7596326024 0.4292385952 0.0000000000
0.7833404586 0.4225610526 0.0000000000
0.8039447865 0.4165497906 0.0000000000
0.8249920344 0.4101559701 0.0000000000
0.8457147607 0.4035130708 0.0000000000
0.8639383954 0.3972338781 0.0000000000
0.8802142146 0.3914106684 0.0000000000
0.8970851298 0.3844529240 0.0000000000
0.9168688604 0.3747093914 0.0000000000
0.0000000000 0.4714417216 0.0000000000
0.0697723349 0.4759672140 0.0000000000
0.1093468522 0.4799702192 0.0000000000
0.1314845556 0.4827413167 0.0000000000
0.1551187869 0.4855449899 0.0000000000
0.1802949901 0.4886320864 0.0000000000
0.2074703211 0.4918767590 0.0000000000
0.2362368457 0.4947320951 0.0000000000
0.2648076587 0.4972188876 0.0000000000
0.2918852313 0.4990182943 0.0000000000
0.3189728201 0.5007472605 0.0000000000
0.3535096773 0.5021132166 0.0000000000
0.3883795315 0.5031632793 0.0000000000
0.4174093523 0.5033417497 0.0000000000
0.4454157881 0.5029806783 0.0000000000
0.4802035902 0.5016333433 0.0000000000
0.5169542367 0.4992769317 0.0000000000
0.5487256160 0.4962283379 0.0000000000
0.5783233829 0.4925103193 0.0000000000
0.6120227307 0.4871573896 0.0000000000
0.6499147601 0.4805856591 0.0000000000
