2. reversing the negative/print paper LUTs/color/Direktbild/Fuji_Frontier5-sRGB_CA-DPII_v3a_color only.cube
LUT_3D_SIZE 5
0.0000000000 0.0000612457 0.0000610002
0.2221813337 0.0000000000 0.0171038422
0.4407664776 0.0000000000 0.0066066670
0.5944784940 0.0000000000 0.0025265782
0.6777825018 0.0000000000 0.0000000000
0.0000000000 0.2671937421 0.0136642601
0.2683372397 0.2549904923 0.0058462403
0.5019525264 0.2110996460 0.0063277759
0.6592242181 0.1452919133 0.0022436049
0.7762762932 0.0275911042 0.0000000000
0.0000000000 0.4369830210 0.0000000000
0.2767560576 0.4601978321 0.0000000000
0.5268108194 0.4534679089 0.0000000000
0.7540318291 0.4007650094 0.0000000000
0.9032628889 0.3403992329 0.0000000000
0.0045044839 0.5139124274 0.0000000000
0.2331547608 0.5621435677 0.0000000000
0.4601625947 0.6091003309 0.0000000000
0.7555002085 0.6047014171 0.0000000000
0.9973607801 0.5789192925 0.0000000000
0.0175192791 0.5164523463 0.0000000000
0.2154168291 0.5557797689 0.0000000000
0.3869016250 0.6146662479 0.0000000000
0.6432624447 0.6833158029 0.0000000000
1.0000000000 0.8112466086 0.0000000000
0.0000000000 0.0051155281 0.2393778021
0.2099790593 0.0000000000 0.2362680165
0.4452515613 0.0000000000 0.2248906922
0.6376157238 0.0000000000 0.2039361335
0.7237964537 0.0000000000 0.1913394967
0.0000000000 0.2350039683 0.2245782012
0.2499790035 0.2499790035 0.2499790035
0.4940738760 0.2298280665 0.2471721582
0.6995323330 0.1993488158 0.2353963549
0.8363097421 0.1645784017 0.2202967744
0.0000000000 0.4357539065 0.1579700311
0.2565895395 0.4934892201 0.2256108547
0.5218407052 0.4868091651 0.2398675319
0.7619082354 0.4500163002 0.2385781560
0.9296252088 0.4104353975 0.2299639353
0.0000000000 0.5374887225 0.0469416638
0.1756259641 0.6137676589 0.1279412126
0.4904528039 0.6857280465 0.1928013524
0.7769530262 0.6881082100 0.2003679413
0.9999999999 0.6492066609 0.2033324106
0.0000000000 0.5355954620 0.0000070645
0.1582893940 0.5977282691 0.0522470202
0.3963642049 0.6895818456 0.1296118343
0.6849393272 0.7736611760 0.1291123209
1.0000000000 0.8609250814 0.1569776974
0.0000000000 0.0216842269 0.4507622192
0.1504233412 0.0000000000 0.4558710941
0.4133056040 0.0000000000 0.4513894429
0.6327674358 0.0000000000 0.4240380843
0.7400229565 0.0000000000 0.4004126015
0.0000000000 0.2493077855 0.4896912903
0.2167250945 0.2642218519 0.5167602927
0.4797443997 0.2396151355 0.4991779364
0.7060545157 0.2117672075 0.4760673558
0.8436169364 0.1759025227 0.4490659881
0.0000000000 0.4694532110 0.4456526647
0.2086280268 0.5205613028 0.4993404280
0.5000057114 0.5000057114 0.5000057114
0.7452528029 0.4771144223 0.4961920024
0.9338866258 0.4593136052 0.4840403852
0.0000000000 0.5876068918 0.3018939659
0.0297353459 0.6673280867 0.3759170311
0.4883345685 0.7477359570 0.4773180114
0.7686193677 0.7395075663 0.4892064679
0.9999996786 0.7071942063 0.4907217555
0.0000000000 0.5819206095 0.1982240180
0.0000110896 0.6471552821 0.2535039655
0.3949978026 0.7676272407 0.3743590992
0.7424652522 0.8729175252 0.4562708882
1.0000000000 0.9252813037 0.4584938525
0.0000000000 0.0419904832 0.5841043034
0.0572815783 0.0034310452 0.6044741715
0.3360406407 0.0000000000 0.6093599016
0.5806549893 0.0000000000 0.6126235273
0.7442232057 0.0000000000 0.6043478175
0.0000000000 0.2390986358 0.6806406654
0.1704692222 0.2523590763 0.7083316323
0.4249274052 0.2276250898 0.7136257003
0.6690343162 0.2040794718 0.7011593802
0.8412339461 0.1595877796 0.6707407926
0.0000000000 0.4555517610 0.7137994482
0.0831468581 0.5004974629 0.7533791619
0.4675529108 0.5095811437 0.7602818117
0.7306448283 0.4871307392 0.7459795508
0.9298286092 0.4654372233 0.7238119426
0.0000000000 0.6178313275 0.5851072435
0.0000000001 0.6940569058 0.6614329352
0.4582226873 0.7691539813 0.7496953749
0.7500324194 0.7500324194 0.7500324194
0.9955415146 0.7302270271 0.7464726770
0.0000000000 0.6304503562 0.4180717377
0.0000000000 0.7024749241 0.4829070241
0.3618513625 0.8257004068 0.6189275835
0.7323163395 0.9243687029 0.7208104565
1.0000000000 0.9771961864 0.7486153484
0.0000000000 0.0670934726 0.5945739494
0.0000137343 0.0522638529 0.6197675230
0.2407683065 0.0000000000 0.6240269296
0.4918966558 0.0000000000 0.6386138310
0.7376414653 0.0000000000 0.6504774522
0.0000000000 0.2295571535 0.6922911826
0.1062469357 0.2379185294 0.7270609557
0.3389911578 0.2060848512 0.7368584662
0.5832482102 0.1851378824 0.7529751911
0.8280569786 0.1515397232 0.7684672058
0.0000000000 0.4042666252 0.7780426237
0.0066700696 0.4381460823 0.8197395253
0.4189677823 0.4686561866 0.8536271652
0.6755999586 0.4596895001 0.8687842796
0.9195986890 0.4574085682 0.8800559989
0.0000000000 0.6644670467 0.8826797850
0.0000000000 0.6834806306 0.9053811817
0.4049271842 0.7515530629 0.9486551107
0.7216800285 0.7553355559 0.9606532693
0.9789232026 0.7321504648 0.9623011139
0.0000000000 0.7037154726 0.7626142106
0.0000000000 0.7642002327 0.8079917577
0.2926839214 0.8751272107 0.9165414699
0.7058926481 0.9592175694 0.9921443893
0.9999265187 0.9999281686 1.0000000000
