2. reversing the negative/print paper LUTs/3. paper_a_100% white_fogged blacks.cube
# input: log10/density, output: linear
# kodak endura curve
# by Aaron Buchler, 2023
# 

# https: //github.com/abpy/color-neg-resources

LUT_1D_SIZE 1024
DOMAIN_MIN 0 0 0
DOMAIN_MAX 3 3 3

0.0027800000 0.0027800000 0.0027800000
0.0027800000 0.0027800000 0.0027800000
0.0027800000 0.0027800000 0.0027800000
0.0027800000 0.0027800000 0.0027800000
0.0027800000 0.0027800000 0.0027800000
0.0027800000 0.0027800000 0.0027800000
0.0027800000 0.0027800000 0.0027800000
0.0027800000 0.0027800000 0.0027800000
0.0027800000 0.0027800000 0.0027800000
0.0027800000 0.0027800000 0.0027800000
0.0027800000 0.0027800000 0.0027800000
0.0027800000 0.0027800000 0.0027800000
0.0027800000 0.0027800000 0.0027800000
0.0027800000 0.0027800000 0.0027800000
0.0027800000 0.0027800000 0.0027800000
0.0027800000 0.0027800000 0.0027800000
0.0027800000 0.0027800000 0.0027800000
0.0027800000 0.0027800000 0.0027800000
0.0027800000 0.0027800000 0.0027800000
0.0027800000 0.0027800000 0.0027800000
0.0027800000 0.0027800000 0.0027800000
0.0027800000 0.0027800000 0.0027800000
0.0027800000 0.0027800000 0.0027800000
0.0027800000 0.0027800000 0.0027800000
0.0027800000 0.0027800000 0.0027800000
0.0027800000 0.0027800000 0.0027800000
0.0027800000 0.0027800000 0.0027800000
0.0027800000 0.0027800000 0.0027800000
0.0027800000 0.0027800000 0.0027800000
0.0027800000 0.0027800000 0.0027800000
0.0027800000 0.0027800000 0.0027800000
0.0027800000 0.0027800000 0.0027800000
0.0027800000 0.0027800000 0.0027800000
0.0027800000 0.0027800000 0.0027800000
0.0027800000 0.0027800000 0.0027800000
0.0027800000 0.0027800000 0.0027800000
0.0027800000 0.0027800000 0.0027800000
0.0027800000 0.0027800000 0.0027800000
0.0027800000 0.0027800000 0.0027800000
0.0027800000 0.0027800000 0.0027800000
0.0027800000 0.0027800000 0.0027800000
0.0027800000 0.0027800000 0.0027800000
0.0027800000 0.0027800000 0.0027800000
0.0027800000 0.0027800000 0.0027800000
0.0027800000 0.0027800000 0.0027800000
0.0027800000 0.0027800000 0.0027800000
0.0027800000 0.0027800000 0.0027800000
0.0027800000 0.0027800000 0.0027800000
0.0027800000 0.0027800000 0.0027800000
0.0027800000 0.0027800000 0.0027800000
0.0027800000 0.0027800000 0.0027800000
0.0027800000 0.0027800000 0.0027800000
0.0027800000 0.0027800000 0.0027800000
0.0027800000 0.0027800000 0.0027800000
0.0027800000 0.0027800000 0.0027800000
0.0027800000 0.0027800000 0.0027800000
0.0027800000 0.0027800000 0.0027800000
0.0027800000 0.0027800000 0.0027800000
0.0027800000 0.0027800000 0.0027800000
0.0027800000 0.0027800000 0.0027800000
0.0027800000 0.0027800000 0.0027800000
0.0027800000 0.0027800000 0.0027800000
0.0027800000 0.0027800000 0.0027800000
0.0027800000 0.0027800000 0.0027800000
0.0027800000 0.0027800000 0.0027800000
0.0027800000 0.0027800000 0.0027800000
0.0027800000 0.0027800000 0.0027800000
0.0027800000 0.0027800000 0.0027800000
0.0027800000 0.0027800000 0.0027800000
0.0027800000 0.0027800000 0.0027800000
0.0027800000 0.0027800000 0.0027800000
0.0027800000 0.0027800000 0.0027800000
0.0027800000 0.0027800000 0.0027800000
0.0027800000 0.0027800000 0.0027800000
0.0027800000 0.0027800000 0.0027800000
0.0027800000 0.0027800000 0.0027800000
0.0027800000 0.0027800000 0.0027800000
0.0027800000 0.0027800000 0.0027800000
0.0027800000 0.0027800000 0.0027800000
0.0027800000 0.0027800000 0.0027800000
0.0027800000 0.0027800000 0.0027800000
0.0027800000 0.0027800000 0.0027800000
0.0027800000 0.0027800000 0.0027800000
0.0027800000 0.0027800000 0.0027800000
0.0027800000 0.0027800000 0.0027800000
0.0027800000 0.0027800000 0.0027800000
0.0027800000 0.0027800000 0.0027800000
0.0027800000 0.0027800000 0.0027800000
0.0027800000 0.0027800000 0.0027800000
0.0027800000 0.0027800000 0.0027800000
0.0027800000 0.0027800000 0.0027800000
0.0027800000 0.0027800000 0.0027800000
0.0027800000 0.0027800000 0.0027800000
0.0027800000 0.0027800000 0.0027800000
0.0027800000 0.0027800000 0.0027800000
0.0027800000 0.0027800000 0.0027800000
0.0027800000 0.0027800000 0.0027800000
0.0027800000 0.0027800000 0.0027800000
0.0027800000 0.0027800000 0.0027800000
0.0027800000 0.0027800000 0.0027800000
0.0027800000 0.0027800000 0.0027800000
0.0027800000 0.0027800000 0.0027800000
0.0027800000 0.0027800000 0.0027800000
0.0027800000 0.0027800000 0.0027800000
0.0027800000 0.0027800000 0.0027800000
0.0027800000 0.0027800000 0.0027800000
0.0027800000 0.0027800000 0.0027800000
0.0027800000 0.0027800000 0.0027800000
0.0027800000 0.0027800000 0.0027800000
0.0027800000 0.0027800000 0.0027800000
0.0027800000 0.0027800000 0.0027800000
0.0027800000 0.0027800000 0.0027800000
0.0027800000 0.0027800000 0.0027800000
0.0027800000 0.0027800000 0.0027800000
0.0027800000 0.0027800000 0.0027800000
0.0027800000 0.0027800000 0.0027800000
0.0027800000 0.0027800000 0.0027800000
0.0027800000 0.0027800000 0.0027800000
0.0027800000 0.0027800000 0.0027800000
0.0027800000 0.0027800000 0.0027800000
0.0027800000 0.0027800000 0.0027800000
0.0027924502 0.0027924502 0.0027924502
0.0027924502 0.0027924502 0.0027924502
0.0027924502 0.0027924502 0.0027924502
0.0027924502 0.0027924502 0.0027924502
0.0027924502 0.0027924502 0.0027924502
0.0027924502 0.0027924502 0.0027924502
0.0027924502 0.0027924502 0.0027924502
0.0027924502 0.0027924502 0.0027924502
0.0027924502 0.0027924502 0.0027924502
0.0027924502 0.0027924502 0.0027924502
0.0027924502 0.0027924502 0.0027924502
0.0027924502 0.0027924502 0.0027924502
0.0027924502 0.0027924502 0.0027924502
0.0027924502 0.0027924502 0.0027924502
0.0027924502 0.0027924502 0.0027924502
0.0027924502 0.0027924502 0.0027924502
0.0027924502 0.0027924502 0.0027924502
0.0027924502 0.0027924502 0.0027924502
0.0027924502 0.0027924502 0.0027924502
0.0027924502 0.0027924502 0.0027924502
0.0028049003 0.0028049003 0.0028049003
0.0028049003 0.0028049003 0.0028049003
0.0028049003 0.0028049003 0.0028049003
0.0028049003 0.0028049003 0.0028049003
0.0028049003 0.0028049003 0.0028049003
0.0028049003 0.0028049003 0.0028049003
0.0028049003 0.0028049003 0.0028049003
0.0028049003 0.0028049003 0.0028049003
0.0028049003 0.0028049003 0.0028049003
0.0028049003 0.0028049003 0.0028049003
0.0028173505 0.0028173505 0.0028173505
0.0028173505 0.0028173505 0.0028173505
0.0028173505 0.0028173505 0.0028173505
0.0028173505 0.0028173505 0.0028173505
0.0028173505 0.0028173505 0.0028173505
0.0028173505 0.0028173505 0.0028173505
0.0028173505 0.0028173505 0.0028173505
0.0028298006 0.0028298006 0.0028298006
0.0028298006 0.0028298006 0.0028298006
0.0028298006 0.0028298006 0.0028298006
0.0028298006 0.0028298006 0.0028298006
0.0028298006 0.0028298006 0.0028298006
0.0028298006 0.0028298006 0.0028298006
0.0028422508 0.0028422508 0.0028422508
0.0028422508 0.0028422508 0.0028422508
0.0028422508 0.0028422508 0.0028422508
0.0028422508 0.0028422508 0.0028422508
0.0028422508 0.0028422508 0.0028422508
0.0028422508 0.0028422508 0.0028422508
0.0028547009 0.0028547009 0.0028547009
0.0028547009 0.0028547009 0.0028547009
0.0028547009 0.0028547009 0.0028547009
0.0028547009 0.0028547009 0.0028547009
0.0028547009 0.0028547009 0.0028547009
0.0028671511 0.0028671511 0.0028671511
0.0028671511 0.0028671511 0.0028671511
0.0028671511 0.0028671511 0.0028671511
0.0028671511 0.0028671511 0.0028671511
0.0028796012 0.0028796012 0.0028796012
0.0028796012 0.0028796012 0.0028796012
0.0028796012 0.0028796012 0.0028796012
0.0028796012 0.0028796012 0.0028796012
0.0028796012 0.0028796012 0.0028796012
0.0028920514 0.0028920514 0.0028920514
0.0028920514 0.0028920514 0.0028920514
0.0028920514 0.0028920514 0.0028920514
0.0028920514 0.0028920514 0.0028920514
0.0029045015 0.0029045015 0.0029045015
0.0029045015 0.0029045015 0.0029045015
0.0029045015 0.0029045015 0.0029045015
0.0029045015 0.0029045015 0.0029045015
0.0029169517 0.0029169517 0.0029169517
0.0029169517 0.0029169517 0.0029169517
0.0029169517 0.0029169517 0.0029169517
0.0029169517 0.0029169517 0.0029169517
0.0029294019 0.0029294019 0.0029294019
0.0029294019 0.0029294019 0.0029294019
0.0029294019 0.0029294019 0.0029294019
0.0029418520 0.0029418520 0.0029418520
0.0029418520 0.0029418520 0.0029418520
0.0029418520 0.0029418520 0.0029418520
0.0029418520 0.0029418520 0.0029418520
0.0029543022 0.0029543022 0.0029543022
0.0029543022 0.0029543022 0.0029543022
0.0029543022 0.0029543022 0.0029543022
0.0029543022 0.0029543022 0.0029543022
0.0029667523 0.0029667523 0.0029667523
0.0029667523 0.0029667523 0.0029667523
0.0029667523 0.0029667523 0.0029667523
0.0029792025 0.0029792025 0.0029792025
0.0029792025 0.0029792025 0.0029792025
0.0029792025 0.0029792025 0.0029792025
0.0029792025 0.0029792025 0.0029792025
0.0029916526 0.0029916526 0.0029916526
0.0029916526 0.0029916526 0.0029916526
0.0029916526 0.0029916526 0.0029916526
0.0029916526 0.0029916526 0.0029916526
0.0030041028 0.0030041028 0.0030041028
0.0030041028 0.0030041028 0.0030041028
0.0030041028 0.0030041028 0.0030041028
0.0030165529 0.0030165529 0.0030165529
0.0030165529 0.0030165529 0.0030165529
0.0030165529 0.0030165529 0.0030165529
0.0030290031 0.0030290031 0.0030290031
0.0030290031 0.0030290031 0.0030290031
0.0030290031 0.0030290031 0.0030290031
0.0030414532 0.0030414532 0.0030414532
0.0030414532 0.0030414532 0.0030414532
0.0030414532 0.0030414532 0.0030414532
0.0030539034 0.0030539034 0.0030539034
0.0030539034 0.0030539034 0.0030539034
0.0030539034 0.0030539034 0.0030539034
0.0030663535 0.0030663535 0.0030663535
0.0030663535 0.0030663535 0.0030663535
0.0030788037 0.0030788037 0.0030788037
0.0030788037 0.0030788037 0.0030788037
0.0030788037 0.0030788037 0.0030788037
0.0030912539 0.0030912539 0.0030912539
0.0030912539 0.0030912539 0.0030912539
0.0031037040 0.0031037040 0.0031037040
0.0031037040 0.0031037040 0.0031037040
0.0031161542 0.0031161542 0.0031161542
0.0031161542 0.0031161542 0.0031161542
0.0031286043 0.0031286043 0.0031286043
0.0031286043 0.0031286043 0.0031286043
0.0031410545 0.0031410545 0.0031410545
0.0031410545 0.0031410545 0.0031410545
0.0031535046 0.0031535046 0.0031535046
0.0031659548 0.0031659548 0.0031659548
0.0031659548 0.0031659548 0.0031659548
0.0031784049 0.0031784049 0.0031784049
0.0031908551 0.0031908551 0.0031908551
0.0032033052 0.0032033052 0.0032033052
0.0032033052 0.0032033052 0.0032033052
0.0032157554 0.0032157554 0.0032157554
0.0032282056 0.0032282056 0.0032282056
0.0032406557 0.0032406557 0.0032406557
0.0032531059 0.0032531059 0.0032531059
0.0032531059 0.0032531059 0.0032531059
0.0032655560 0.0032655560 0.0032655560
0.0032780062 0.0032780062 0.0032780062
0.0032904563 0.0032904563 0.0032904563
0.0033029065 0.0033029065 0.0033029065
0.0033153566 0.0033153566 0.0033153566
0.0033278068 0.0033278068 0.0033278068
0.0033402569 0.0033402569 0.0033402569
0.0033527071 0.0033527071 0.0033527071
0.0033651572 0.0033651572 0.0033651572
0.0033776074 0.0033776074 0.0033776074
0.0033900576 0.0033900576 0.0033900576
0.0034025077 0.0034025077 0.0034025077
0.0034274080 0.0034274080 0.0034274080
0.0034398582 0.0034398582 0.0034398582
0.0034523083 0.0034523083 0.0034523083
0.0034647585 0.0034647585 0.0034647585
0.0034772086 0.0034772086 0.0034772086
0.0035021089 0.0035021089 0.0035021089
0.0035145591 0.0035145591 0.0035145591
0.0035270093 0.0035270093 0.0035270093
0.0035519096 0.0035519096 0.0035519096
0.0035643597 0.0035643597 0.0035643597
0.0035892600 0.0035892600 0.0035892600
0.0036017102 0.0036017102 0.0036017102
0.0036266105 0.0036266105 0.0036266105
0.0036390606 0.0036390606 0.0036390606
0.0036639609 0.0036639609 0.0036639609
0.0036888613 0.0036888613 0.0036888613
0.0037013114 0.0037013114 0.0037013114
0.0037262117 0.0037262117 0.0037262117
0.0037511120 0.0037511120 0.0037511120
0.0037760123 0.0037760123 0.0037760123
0.0038009126 0.0038009126 0.0038009126
0.0038258130 0.0038258130 0.0038258130
0.0038631634 0.0038631634 0.0038631634
0.0038880637 0.0038880637 0.0038880637
0.0039129640 0.0039129640 0.0039129640
0.0039503145 0.0039503145 0.0039503145
0.0039752148 0.0039752148 0.0039752148
0.0040125653 0.0040125653 0.0040125653
0.0040374656 0.0040374656 0.0040374656
0.0040748160 0.0040748160 0.0040748160
0.0041121665 0.0041121665 0.0041121665
0.0041495170 0.0041495170 0.0041495170
0.0041868674 0.0041868674 0.0041868674
0.0042242179 0.0042242179 0.0042242179
0.0042740185 0.0042740185 0.0042740185
0.0043113690 0.0043113690 0.0043113690
0.0043487194 0.0043487194 0.0043487194
0.0043985200 0.0043985200 0.0043985200
0.0044358705 0.0044358705 0.0044358705
0.0044856711 0.0044856711 0.0044856711
0.0045354717 0.0045354717 0.0045354717
0.0045728222 0.0045728222 0.0045728222
0.0046226228 0.0046226228 0.0046226228
0.0046724234 0.0046724234 0.0046724234
0.0047222241 0.0047222241 0.0047222241
0.0047720247 0.0047720247 0.0047720247
0.0048218253 0.0048218253 0.0048218253
0.0048716259 0.0048716259 0.0048716259
0.0049338767 0.0049338767 0.0049338767
0.0049836773 0.0049836773 0.0049836773
0.0050459281 0.0050459281 0.0050459281
0.0050957287 0.0050957287 0.0050957287
0.0051579794 0.0051579794 0.0051579794
0.0052202302 0.0052202302 0.0052202302
0.0052824810 0.0052824810 0.0052824810
0.0053447318 0.0053447318 0.0053447318
0.0054069825 0.0054069825 0.0054069825
0.0054816835 0.0054816835 0.0054816835
0.0055439342 0.0055439342 0.0055439342
0.0056186352 0.0056186352 0.0056186352
0.0056933361 0.0056933361 0.0056933361
0.0057680370 0.0057680370 0.0057680370
0.0058427379 0.0058427379 0.0058427379
0.0059298890 0.0059298890 0.0059298890
0.0060045899 0.0060045899 0.0060045899
0.0060917410 0.0060917410 0.0060917410
0.0061788921 0.0061788921 0.0061788921
0.0062660432 0.0062660432 0.0062660432
0.0063656444 0.0063656444 0.0063656444
0.0064652456 0.0064652456 0.0064652456
0.0065648469 0.0065648469 0.0065648469
0.0066644481 0.0066644481 0.0066644481
0.0067764995 0.0067764995 0.0067764995
0.0068885509 0.0068885509 0.0068885509
0.0070006023 0.0070006023 0.0070006023
0.0071251038 0.0071251038 0.0071251038
0.0072496054 0.0072496054 0.0072496054
0.0073741069 0.0073741069 0.0073741069
0.0075110586 0.0075110586 0.0075110586
0.0076480103 0.0076480103 0.0076480103
0.0077849620 0.0077849620 0.0077849620
0.0079343638 0.0079343638 0.0079343638
0.0080962158 0.0080962158 0.0080962158
0.0082580678 0.0082580678 0.0082580678
0.0084199198 0.0084199198 0.0084199198
0.0085942220 0.0085942220 0.0085942220
0.0087685242 0.0087685242 0.0087685242
0.0089677266 0.0089677266 0.0089677266
0.0091544789 0.0091544789 0.0091544789
0.0093661316 0.0093661316 0.0093661316
0.0095777842 0.0095777842 0.0095777842
0.0097894368 0.0097894368 0.0097894368
0.0100259897 0.0100259897 0.0100259897
0.0102625427 0.0102625427 0.0102625427
0.0105115458 0.0105115458 0.0105115458
0.0107729990 0.0107729990 0.0107729990
0.0110344522 0.0110344522 0.0110344522
0.0113208058 0.0113208058 0.0113208058
0.0116071593 0.0116071593 0.0116071593
0.0119184132 0.0119184132 0.0119184132
0.0122296670 0.0122296670 0.0122296670
0.0125533710 0.0125533710 0.0125533710
0.0128895252 0.0128895252 0.0128895252
0.0132505797 0.0132505797 0.0132505797
0.0136116341 0.0136116341 0.0136116341
0.0139851388 0.0139851388 0.0139851388
0.0143835437 0.0143835437 0.0143835437
0.0147819486 0.0147819486 0.0147819486
0.0152052539 0.0152052539 0.0152052539
0.0156410093 0.0156410093 0.0156410093
0.0160892148 0.0160892148 0.0160892148
0.0165623207 0.0165623207 0.0165623207
0.0170354265 0.0170354265 0.0170354265
0.0175334327 0.0175334327 0.0175334327
0.0180563392 0.0180563392 0.0180563392
0.0185916958 0.0185916958 0.0185916958
0.0191395026 0.0191395026 0.0191395026
0.0197122097 0.0197122097 0.0197122097
0.0202973669 0.0202973669 0.0202973669
0.0208949743 0.0208949743 0.0208949743
0.0215299322 0.0215299322 0.0215299322
0.0221648901 0.0221648901 0.0221648901
0.0228371984 0.0228371984 0.0228371984
0.0235219569 0.0235219569 0.0235219569
0.0242191655 0.0242191655 0.0242191655
0.0249537246 0.0249537246 0.0249537246
0.0257007339 0.0257007339 0.0257007339
0.0264601933 0.0264601933 0.0264601933
0.0272570031 0.0272570031 0.0272570031
0.0280662632 0.0280662632 0.0280662632
0.0289004235 0.0289004235 0.0289004235
0.0297470340 0.0297470340 0.0297470340
0.0306309949 0.0306309949 0.0306309949
0.0315274060 0.0315274060 0.0315274060
0.0324487174 0.0324487174 0.0324487174
0.0333949291 0.0333949291 0.0333949291
0.0343660412 0.0343660412 0.0343660412
0.0353745037 0.0353745037 0.0353745037
0.0363954163 0.0363954163 0.0363954163
0.0374536794 0.0374536794 0.0374536794
0.0385492930 0.0385492930 0.0385492930
0.0396822570 0.0396822570 0.0396822570
0.0408401214 0.0408401214 0.0408401214
0.0420477863 0.0420477863 0.0420477863
0.0432928017 0.0432928017 0.0432928017
0.0445876178 0.0445876178 0.0445876178
0.0459197843 0.0459197843 0.0459197843
0.0473017514 0.0473017514 0.0473017514
0.0487210690 0.0487210690 0.0487210690
0.0502026373 0.0502026373 0.0502026373
0.0517215561 0.0517215561 0.0517215561
0.0533027257 0.0533027257 0.0533027257
0.0549212457 0.0549212457 0.0549212457
0.0566020166 0.0566020166 0.0566020166
0.0583325880 0.0583325880 0.0583325880
0.0601254102 0.0601254102 0.0601254102
0.0619680330 0.0619680330 0.0619680330
0.0638604564 0.0638604564 0.0638604564
0.0658275808 0.0658275808 0.0658275808
0.0678445058 0.0678445058 0.0678445058
0.0699112314 0.0699112314 0.0699112314
0.0720526579 0.0720526579 0.0720526579
0.0742438850 0.0742438850 0.0742438850
0.0765098131 0.0765098131 0.0765098131
0.0788255418 0.0788255418 0.0788255418
0.0812159714 0.0812159714 0.0812159714
0.0836686518 0.0836686518 0.0836686518
0.0861835829 0.0861835829 0.0861835829
0.0887607648 0.0887607648 0.0887607648
0.0914001975 0.0914001975 0.0914001975
0.0941018810 0.0941018810 0.0941018810
0.0968782654 0.0968782654 0.0968782654
0.0997169005 0.0997169005 0.0997169005
0.1026177864 0.1026177864 0.1026177864
0.1055933733 0.1055933733 0.1055933733
0.1086187608 0.1086187608 0.1086187608
0.1117063990 0.1117063990 0.1117063990
0.1148687382 0.1148687382 0.1148687382
0.1180808779 0.1180808779 0.1180808779
0.1213552685 0.1213552685 0.1213552685
0.1246919098 0.1246919098 0.1246919098
0.1280783517 0.1280783517 0.1280783517
0.1315145943 0.1315145943 0.1315145943
0.1350130876 0.1350130876 0.1350130876
0.1385613816 0.1385613816 0.1385613816
0.1421470260 0.1421470260 0.1421470260
0.1457949212 0.1457949212 0.1457949212
0.1494926170 0.1494926170 0.1494926170
0.1532401134 0.1532401134 0.1532401134
0.1570374104 0.1570374104 0.1570374104
0.1609094083 0.1609094083 0.1609094083
0.1648312069 0.1648312069 0.1648312069
0.1688277064 0.1688277064 0.1688277064
0.1728740065 0.1728740065 0.1728740065
0.1769950076 0.1769950076 0.1769950076
0.1811907095 0.1811907095 0.1811907095
0.1854486622 0.1854486622 0.1854486622
0.1897813159 0.1897813159 0.1897813159
0.1941762203 0.1941762203 0.1941762203
0.1986458257 0.1986458257 0.1986458257
0.2031776818 0.2031776818 0.2031776818
0.2077842389 0.2077842389 0.2077842389
0.2124654968 0.2124654968 0.2124654968
0.2172214557 0.2172214557 0.2172214557
0.2220272153 0.2220272153 0.2220272153
0.2269201258 0.2269201258 0.2269201258
0.2318752872 0.2318752872 0.2318752872
0.2368926994 0.2368926994 0.2368926994
0.2419848124 0.2419848124 0.2419848124
0.2471391762 0.2471391762 0.2471391762
0.2523682410 0.2523682410 0.2523682410
0.2576595565 0.2576595565 0.2576595565
0.2630131228 0.2630131228 0.2630131228
0.2684289399 0.2684289399 0.2684289399
0.2739070078 0.2739070078 0.2739070078
0.2794597765 0.2794597765 0.2794597765
0.2850623459 0.2850623459 0.2850623459
0.2907271661 0.2907271661 0.2907271661
0.2964666871 0.2964666871 0.2964666871
0.3022435587 0.3022435587 0.3022435587
0.3080951312 0.3080951312 0.3080951312
0.3139840541 0.3139840541 0.3139840541
0.3199476779 0.3199476779 0.3199476779
0.3259486523 0.3259486523 0.3259486523
0.3320118773 0.3320118773 0.3320118773
0.3381124529 0.3381124529 0.3381124529
0.3442752792 0.3442752792 0.3442752792
0.3504754560 0.3504754560 0.3504754560
0.3567129833 0.3567129833 0.3567129833
0.3630127613 0.3630127613 0.3630127613
0.3693374396 0.3693374396 0.3693374396
0.3756994684 0.3756994684 0.3756994684
0.3820988476 0.3820988476 0.3820988476
0.3885355774 0.3885355774 0.3885355774
0.3950096575 0.3950096575 0.3950096575
0.4015086380 0.4015086380 0.4015086380
0.4080325188 0.4080325188 0.4080325188
0.4145688498 0.4145688498 0.4145688498
0.4211176309 0.4211176309 0.4211176309
0.4276913123 0.4276913123 0.4276913123
0.4342774438 0.4342774438 0.4342774438
0.4408760256 0.4408760256 0.4408760256
0.4474621571 0.4474621571 0.4474621571
0.4540731890 0.4540731890 0.4540731890
0.4606717707 0.4606717707 0.4606717707
0.4672579023 0.4672579023 0.4672579023
0.4738315837 0.4738315837 0.4738315837
0.4804052651 0.4804052651 0.4804052651
0.4869664964 0.4869664964 0.4869664964
0.4935028273 0.4935028273 0.4935028273
0.5000267081 0.5000267081 0.5000267081
0.5065381388 0.5065381388 0.5065381388
0.5130246691 0.5130246691 0.5130246691
0.5194987493 0.5194987493 0.5194987493
0.5259479291 0.5259479291 0.5259479291
0.5323722087 0.5323722087 0.5323722087
0.5387715879 0.5387715879 0.5387715879
0.5451585170 0.5451585170 0.5451585170
0.5515205458 0.5515205458 0.5515205458
0.5578452242 0.5578452242 0.5578452242
0.5641574523 0.5641574523 0.5641574523
0.5704323300 0.5704323300 0.5704323300
0.5766947576 0.5766947576 0.5766947576
0.5829198347 0.5829198347 0.5829198347
0.5891075613 0.5891075613 0.5891075613
0.5952828378 0.5952828378 0.5952828378
0.6014207638 0.6014207638 0.6014207638
0.6075337895 0.6075337895 0.6075337895
0.6136219149 0.6136219149 0.6136219149
0.6196726899 0.6196726899 0.6196726899
0.6256985645 0.6256985645 0.6256985645
0.6316870887 0.6316870887 0.6316870887
0.6376631627 0.6376631627 0.6376631627
0.6436018862 0.6436018862 0.6436018862
0.6495032593 0.6495032593 0.6495032593
0.6553921822 0.6553921822 0.6553921822
0.6612437547 0.6612437547 0.6612437547
0.6670704269 0.6670704269 0.6670704269
0.6728721987 0.6728721987 0.6728721987
0.6786490703 0.6786490703 0.6786490703
0.6844010415 0.6844010415 0.6844010415
0.6901156623 0.6901156623 0.6901156623
0.6958178329 0.6958178329 0.6958178329
0.7014951032 0.7014951032 0.7014951032
0.7071599233 0.7071599233 0.7071599233
0.7127873930 0.7127873930 0.7127873930
0.7184148627 0.7184148627 0.7184148627
0.7240049820 0.7240049820 0.7240049820
0.7295826510 0.7295826510 0.7295826510
0.7351229696 0.7351229696 0.7351229696
0.7406134876 0.7406134876 0.7406134876
0.7460542050 0.7460542050 0.7460542050
0.7514451218 0.7514451218 0.7514451218
0.7567488875 0.7567488875 0.7567488875
0.7619779522 0.7619779522 0.7619779522
0.7671323161 0.7671323161 0.7671323161
0.7721995288 0.7721995288 0.7721995288
0.7771671403 0.7771671403 0.7771671403
0.7820227005 0.7820227005 0.7820227005
0.7867911095 0.7867911095 0.7867911095
0.7914474672 0.7914474672 0.7914474672
0.7960166738 0.7960166738 0.7960166738
0.8004862791 0.8004862791 0.8004862791
0.8048562833 0.8048562833 0.8048562833
0.8091391363 0.8091391363 0.8091391363
0.8133348383 0.8133348383 0.8133348383
0.8174309390 0.8174309390 0.8174309390
0.8214398886 0.8214398886 0.8214398886
0.8253616872 0.8253616872 0.8253616872
0.8291963347 0.8291963347 0.8291963347
0.8329438311 0.8329438311 0.8329438311
0.8366166266 0.8366166266 0.8366166266
0.8402022710 0.8402022710 0.8402022710
0.8437132145 0.8437132145 0.8437132145
0.8471619072 0.8471619072 0.8471619072
0.8505234488 0.8505234488 0.8505234488
0.8538227397 0.8538227397 0.8538227397
0.8570473296 0.8570473296 0.8570473296
0.8602096688 0.8602096688 0.8602096688
0.8633097572 0.8633097572 0.8633097572
0.8663475948 0.8663475948 0.8663475948
0.8693356318 0.8693356318 0.8693356318
0.8722614180 0.8722614180 0.8722614180
0.8751374036 0.8751374036 0.8751374036
0.8779760388 0.8779760388 0.8779760388
0.8807524232 0.8807524232 0.8807524232
0.8835039073 0.8835039073 0.8835039073
0.8861931406 0.8861931406 0.8861931406
0.8888699237 0.8888699237 0.8888699237
0.8914969063 0.8914969063 0.8914969063
0.8940989885 0.8940989885 0.8940989885
0.8966761704 0.8966761704 0.8966761704
0.8992284520 0.8992284520 0.8992284520
0.9017558333 0.9017558333 0.9017558333
0.9042707644 0.9042707644 0.9042707644
0.9067732454 0.9067732454 0.9067732454
0.9092632763 0.9092632763 0.9092632763
0.9117408570 0.9117408570 0.9117408570
