2. reversing the negative/print paper LUTs/4. paper_a_100% black and white.cube
# input: log10/density, output: linear
# kodak endura curve
# by Aaron Buchler, 2023
#  
# 

# https: //github.com/abpy/color-neg-resources

LUT_1D_SIZE 1024
DOMAIN_MIN 0 0 0
DOMAIN_MAX 3 3 3

0.0000000000 0.0000000000 0.0000000000
0.0000000000 0.0000000000 0.0000000000
0.0000000000 0.0000000000 0.0000000000
0.0000000000 0.0000000000 0.0000000000
0.0000000000 0.0000000000 0.0000000000
0.0000000000 0.0000000000 0.0000000000
0.0000000000 0.0000000000 0.0000000000
0.0000000000 0.0000000000 0.0000000000
0.0000000000 0.0000000000 0.0000000000
0.0000000000 0.0000000000 0.0000000000
0.0000000000 0.0000000000 0.0000000000
0.0000000000 0.0000000000 0.0000000000
0.0000000000 0.0000000000 0.0000000000
0.0000000000 0.0000000000 0.0000000000
0.0000000000 0.0000000000 0.0000000000
0.0000000000 0.0000000000 0.0000000000
0.0000000000 0.0000000000 0.0000000000
0.0000000000 0.0000000000 0.0000000000
0.0000000000 0.0000000000 0.0000000000
0.0000000000 0.0000000000 0.0000000000
0.0000000000 0.0000000000 0.0000000000
0.0000000000 0.0000000000 0.0000000000
0.0000000000 0.0000000000 0.0000000000
0.0000000000 0.0000000000 0.0000000000
0.0000000000 0.0000000000 0.0000000000
0.0000000000 0.0000000000 0.0000000000
0.0000000000 0.0000000000 0.0000000000
0.0000000000 0.0000000000 0.0000000000
0.0000000000 0.0000000000 0.0000000000
0.0000000000 0.0000000000 0.0000000000
0.0000000000 0.0000000000 0.0000000000
0.0000000000 0.0000000000 0.0000000000
0.0000000000 0.0000000000 0.0000000000
0.0000000000 0.0000000000 0.0000000000
0.0000000000 0.0000000000 0.0000000000
0.0000000000 0.0000000000 0.0000000000
0.0000000000 0.0000000000 0.0000000000
0.0000000000 0.0000000000 0.0000000000
0.0000000000 0.0000000000 0.0000000000
0.0000000000 0.0000000000 0.0000000000
0.0000000000 0.0000000000 0.0000000000
0.0000000000 0.0000000000 0.0000000000
0.0000000000 0.0000000000 0.0000000000
0.0000000000 0.0000000000 0.0000000000
0.0000000000 0.0000000000 0.0000000000
0.0000000000 0.0000000000 0.0000000000
0.0000000000 0.0000000000 0.0000000000
0.0000000000 0.0000000000 0.0000000000
0.0000000000 0.0000000000 0.0000000000
0.0000000000 0.0000000000 0.0000000000
0.0000000000 0.0000000000 0.0000000000
0.0000000000 0.0000000000 0.0000000000
0.0000000000 0.0000000000 0.0000000000
0.0000000000 0.0000000000 0.0000000000
0.0000000000 0.0000000000 0.0000000000
0.0000000000 0.0000000000 0.0000000000
0.0000000000 0.0000000000 0.0000000000
0.0000000000 0.0000000000 0.0000000000
0.0000000000 0.0000000000 0.0000000000
0.0000000000 0.0000000000 0.0000000000
0.0000000000 0.0000000000 0.0000000000
0.0000000000 0.0000000000 0.0000000000
0.0000000000 0.0000000000 0.0000000000
0.0000000000 0.0000000000 0.0000000000
0.0000000000 0.0000000000 0.0000000000
0.0000000000 0.0000000000 0.0000000000
0.0000000000 0.0000000000 0.0000000000
0.0000000000 0.0000000000 0.0000000000
0.0000000000 0.0000000000 0.0000000000
0.0000000000 0.0000000000 0.0000000000
0.0000000000 0.0000000000 0.0000000000
0.0000000000 0.0000000000 0.0000000000
0.0000000000 0.0000000000 0.0000000000
0.0000000000 0.0000000000 0.0000000000
0.0000000000 0.0000000000 0.0000000000
0.0000000000 0.0000000000 0.0000000000
0.0000000000 0.0000000000 0.0000000000
0.0000000000 0.0000000000 0.0000000000
0.0000000000 0.0000000000 0.0000000000
0.0000000000 0.0000000000 0.0000000000
0.0000000000 0.0000000000 0.0000000000
0.0000000000 0.0000000000 0.0000000000
0.0000000000 0.0000000000 0.0000000000
0.0000000000 0.0000000000 0.0000000000
0.0000000000 0.0000000000 0.0000000000
0.0000000000 0.0000000000 0.0000000000
0.0000000000 0.0000000000 0.0000000000
0.0000000000 0.0000000000 0.0000000000
0.0000000000 0.0000000000 0.0000000000
0.0000000000 0.0000000000 0.0000000000
0.0000000000 0.0000000000 0.0000000000
0.0000000000 0.0000000000 0.0000000000
0.0000000000 0.0000000000 0.0000000000
0.0000000000 0.0000000000 0.0000000000
0.0000000000 0.0000000000 0.0000000000
0.0000000000 0.0000000000 0.0000000000
0.0000000000 0.0000000000 0.0000000000
0.0000000000 0.0000000000 0.0000000000
0.0000000000 0.0000000000 0.0000000000
0.0000000000 0.0000000000 0.0000000000
0.0000000000 0.0000000000 0.0000000000
0.0000000000 0.0000000000 0.0000000000
0.0000000000 0.0000000000 0.0000000000
0.0000000000 0.0000000000 0.0000000000
0.0000000000 0.0000000000 0.0000000000
0.0000000000 0.0000000000 0.0000000000
0.0000000000 0.0000000000 0.0000000000
0.0000000000 0.0000000000 0.0000000000
0.0000000000 0.0000000000 0.0000000000
0.0000000000 0.0000000000 0.0000000000
0.0000000000 0.0000000000 0.0000000000
0.0000000000 0.0000000000 0.0000000000
0.0000000000 0.0000000000 0.0000000000
0.0000000000 0.0000000000 0.0000000000
0.0000000000 0.0000000000 0.0000000000
0.0000000000 0.0000000000 0.0000000000
0.0000000000 0.0000000000 0.0000000000
0.0000000000 0.0000000000 0.0000000000
0.0000000000 0.0000000000 0.0000000000
0.0000000000 0.0000000000 0.0000000000
0.0000000000 0.0000000000 0.0000000000
0.0000124849 0.0000124849 0.0000124849
0.0000124849 0.0000124849 0.0000124849
0.0000124849 0.0000124849 0.0000124849
0.0000124849 0.0000124849 0.0000124849
0.0000124849 0.0000124849 0.0000124849
0.0000124849 0.0000124849 0.0000124849
0.0000124849 0.0000124849 0.0000124849
0.0000124849 0.0000124849 0.0000124849
0.0000124849 0.0000124849 0.0000124849
0.0000124849 0.0000124849 0.0000124849
0.0000124849 0.0000124849 0.0000124849
0.0000124849 0.0000124849 0.0000124849
0.0000124849 0.0000124849 0.0000124849
0.0000124849 0.0000124849 0.0000124849
0.0000124849 0.0000124849 0.0000124849
0.0000124849 0.0000124849 0.0000124849
0.0000124849 0.0000124849 0.0000124849
0.0000124849 0.0000124849 0.0000124849
0.0000124849 0.0000124849 0.0000124849
0.0000124849 0.0000124849 0.0000124849
0.0000249697 0.0000249697 0.0000249697
0.0000249697 0.0000249697 0.0000249697
0.0000249697 0.0000249697 0.0000249697
0.0000249697 0.0000249697 0.0000249697
0.0000249697 0.0000249697 0.0000249697
0.0000249697 0.0000249697 0.0000249697
0.0000249697 0.0000249697 0.0000249697
0.0000249697 0.0000249697 0.0000249697
0.0000249697 0.0000249697 0.0000249697
0.0000249697 0.0000249697 0.0000249697
0.0000374546 0.0000374546 0.0000374546
0.0000374546 0.0000374546 0.0000374546
0.0000374546 0.0000374546 0.0000374546
0.0000374546 0.0000374546 0.0000374546
0.0000374546 0.0000374546 0.0000374546
0.0000374546 0.0000374546 0.0000374546
0.0000374546 0.0000374546 0.0000374546
0.0000499394 0.0000499394 0.0000499394
0.0000499394 0.0000499394 0.0000499394
0.0000499394 0.0000499394 0.0000499394
0.0000499394 0.0000499394 0.0000499394
0.0000499394 0.0000499394 0.0000499394
0.0000499394 0.0000499394 0.0000499394
0.0000624243 0.0000624243 0.0000624243
0.0000624243 0.0000624243 0.0000624243
0.0000624243 0.0000624243 0.0000624243
0.0000624243 0.0000624243 0.0000624243
0.0000624243 0.0000624243 0.0000624243
0.0000624243 0.0000624243 0.0000624243
0.0000749092 0.0000749092 0.0000749092
0.0000749092 0.0000749092 0.0000749092
0.0000749092 0.0000749092 0.0000749092
0.0000749092 0.0000749092 0.0000749092
0.0000749092 0.0000749092 0.0000749092
0.0000873940 0.0000873940 0.0000873940
0.0000873940 0.0000873940 0.0000873940
0.0000873940 0.0000873940 0.0000873940
0.0000873940 0.0000873940 0.0000873940
0.0000998789 0.0000998789 0.0000998789
0.0000998789 0.0000998789 0.0000998789
0.0000998789 0.0000998789 0.0000998789
0.0000998789 0.0000998789 0.0000998789
0.0000998789 0.0000998789 0.0000998789
0.0001123638 0.0001123638 0.0001123638
0.0001123638 0.0001123638 0.0001123638
0.0001123638 0.0001123638 0.0001123638
0.0001123638 0.0001123638 0.0001123638
0.0001248486 0.0001248486 0.0001248486
0.0001248486 0.0001248486 0.0001248486
0.0001248486 0.0001248486 0.0001248486
0.0001248486 0.0001248486 0.0001248486
0.0001373335 0.0001373335 0.0001373335
0.0001373335 0.0001373335 0.0001373335
0.0001373335 0.0001373335 0.0001373335
0.0001373335 0.0001373335 0.0001373335
0.0001498183 0.0001498183 0.0001498183
0.0001498183 0.0001498183 0.0001498183
0.0001498183 0.0001498183 0.0001498183
0.0001623032 0.0001623032 0.0001623032
0.0001623032 0.0001623032 0.0001623032
0.0001623032 0.0001623032 0.0001623032
0.0001623032 0.0001623032 0.0001623032
0.0001747881 0.0001747881 0.0001747881
0.0001747881 0.0001747881 0.0001747881
0.0001747881 0.0001747881 0.0001747881
0.0001747881 0.0001747881 0.0001747881
0.0001872729 0.0001872729 0.0001872729
0.0001872729 0.0001872729 0.0001872729
0.0001872729 0.0001872729 0.0001872729
0.0001997578 0.0001997578 0.0001997578
0.0001997578 0.0001997578 0.0001997578
0.0001997578 0.0001997578 0.0001997578
0.0001997578 0.0001997578 0.0001997578
0.0002122427 0.0002122427 0.0002122427
0.0002122427 0.0002122427 0.0002122427
0.0002122427 0.0002122427 0.0002122427
0.0002122427 0.0002122427 0.0002122427
0.0002247275 0.0002247275 0.0002247275
0.0002247275 0.0002247275 0.0002247275
0.0002247275 0.0002247275 0.0002247275
0.0002372124 0.0002372124 0.0002372124
0.0002372124 0.0002372124 0.0002372124
0.0002372124 0.0002372124 0.0002372124
0.0002496972 0.0002496972 0.0002496972
0.0002496972 0.0002496972 0.0002496972
0.0002496972 0.0002496972 0.0002496972
0.0002621821 0.0002621821 0.0002621821
0.0002621821 0.0002621821 0.0002621821
0.0002621821 0.0002621821 0.0002621821
0.0002746670 0.0002746670 0.0002746670
0.0002746670 0.0002746670 0.0002746670
0.0002746670 0.0002746670 0.0002746670
0.0002871518 0.0002871518 0.0002871518
0.0002871518 0.0002871518 0.0002871518
0.0002996367 0.0002996367 0.0002996367
0.0002996367 0.0002996367 0.0002996367
0.0002996367 0.0002996367 0.0002996367
0.0003121216 0.0003121216 0.0003121216
0.0003121216 0.0003121216 0.0003121216
0.0003246064 0.0003246064 0.0003246064
0.0003246064 0.0003246064 0.0003246064
0.0003370913 0.0003370913 0.0003370913
0.0003370913 0.0003370913 0.0003370913
0.0003495761 0.0003495761 0.0003495761
0.0003495761 0.0003495761 0.0003495761
0.0003620610 0.0003620610 0.0003620610
0.0003620610 0.0003620610 0.0003620610
0.0003745459 0.0003745459 0.0003745459
0.0003870307 0.0003870307 0.0003870307
0.0003870307 0.0003870307 0.0003870307
0.0003995156 0.0003995156 0.0003995156
0.0004120004 0.0004120004 0.0004120004
0.0004244853 0.0004244853 0.0004244853
0.0004244853 0.0004244853 0.0004244853
0.0004369702 0.0004369702 0.0004369702
0.0004494550 0.0004494550 0.0004494550
0.0004619399 0.0004619399 0.0004619399
0.0004744248 0.0004744248 0.0004744248
0.0004744248 0.0004744248 0.0004744248
0.0004869096 0.0004869096 0.0004869096
0.0004993945 0.0004993945 0.0004993945
0.0005118793 0.0005118793 0.0005118793
0.0005243642 0.0005243642 0.0005243642
0.0005368491 0.0005368491 0.0005368491
0.0005493339 0.0005493339 0.0005493339
0.0005618188 0.0005618188 0.0005618188
0.0005743037 0.0005743037 0.0005743037
0.0005867885 0.0005867885 0.0005867885
0.0005992734 0.0005992734 0.0005992734
0.0006117582 0.0006117582 0.0006117582
0.0006242431 0.0006242431 0.0006242431
0.0006492128 0.0006492128 0.0006492128
0.0006616977 0.0006616977 0.0006616977
0.0006741826 0.0006741826 0.0006741826
0.0006866674 0.0006866674 0.0006866674
0.0006991523 0.0006991523 0.0006991523
0.0007241220 0.0007241220 0.0007241220
0.0007366069 0.0007366069 0.0007366069
0.0007490917 0.0007490917 0.0007490917
0.0007740615 0.0007740615 0.0007740615
0.0007865463 0.0007865463 0.0007865463
0.0008115160 0.0008115160 0.0008115160
0.0008240009 0.0008240009 0.0008240009
0.0008489706 0.0008489706 0.0008489706
0.0008614555 0.0008614555 0.0008614555
0.0008864252 0.0008864252 0.0008864252
0.0009113949 0.0009113949 0.0009113949
0.0009238798 0.0009238798 0.0009238798
0.0009488495 0.0009488495 0.0009488495
0.0009738192 0.0009738192 0.0009738192
0.0009987890 0.0009987890 0.0009987890
0.0010237587 0.0010237587 0.0010237587
0.0010487284 0.0010487284 0.0010487284
0.0010861830 0.0010861830 0.0010861830
0.0011111527 0.0011111527 0.0011111527
0.0011361225 0.0011361225 0.0011361225
0.0011735770 0.0011735770 0.0011735770
0.0011985468 0.0011985468 0.0011985468
0.0012360013 0.0012360013 0.0012360013
0.0012609711 0.0012609711 0.0012609711
0.0012984257 0.0012984257 0.0012984257
0.0013358802 0.0013358802 0.0013358802
0.0013733348 0.0013733348 0.0013733348
0.0014107894 0.0014107894 0.0014107894
0.0014482440 0.0014482440 0.0014482440
0.0014981835 0.0014981835 0.0014981835
0.0015356380 0.0015356380 0.0015356380
0.0015730926 0.0015730926 0.0015730926
0.0016230321 0.0016230321 0.0016230321
0.0016604867 0.0016604867 0.0016604867
0.0017104261 0.0017104261 0.0017104261
0.0017603656 0.0017603656 0.0017603656
0.0017978201 0.0017978201 0.0017978201
0.0018477596 0.0018477596 0.0018477596
0.0018976990 0.0018976990 0.0018976990
0.0019476385 0.0019476385 0.0019476385
0.0019975779 0.0019975779 0.0019975779
0.0020475174 0.0020475174 0.0020475174
0.0020974568 0.0020974568 0.0020974568
0.0021598811 0.0021598811 0.0021598811
0.0022098206 0.0022098206 0.0022098206
0.0022722449 0.0022722449 0.0022722449
0.0023221844 0.0023221844 0.0023221844
0.0023846087 0.0023846087 0.0023846087
0.0024470330 0.0024470330 0.0024470330
0.0025094573 0.0025094573 0.0025094573
0.0025718816 0.0025718816 0.0025718816
0.0026343059 0.0026343059 0.0026343059
0.0027092151 0.0027092151 0.0027092151
0.0027716394 0.0027716394 0.0027716394
0.0028465486 0.0028465486 0.0028465486
0.0029214577 0.0029214577 0.0029214577
0.0029963669 0.0029963669 0.0029963669
0.0030712761 0.0030712761 0.0030712761
0.0031586701 0.0031586701 0.0031586701
0.0032335793 0.0032335793 0.0032335793
0.0033209733 0.0033209733 0.0033209733
0.0034083674 0.0034083674 0.0034083674
0.0034957614 0.0034957614 0.0034957614
0.0035956403 0.0035956403 0.0035956403
0.0036955192 0.0036955192 0.0036955192
0.0037953981 0.0037953981 0.0037953981
0.0038952770 0.0038952770 0.0038952770
0.0040076407 0.0040076407 0.0040076407
0.0041200045 0.0041200045 0.0041200045
0.0042323683 0.0042323683 0.0042323683
0.0043572169 0.0043572169 0.0043572169
0.0044820655 0.0044820655 0.0044820655
0.0046069141 0.0046069141 0.0046069141
0.0047442476 0.0047442476 0.0047442476
0.0048815811 0.0048815811 0.0048815811
0.0050189146 0.0050189146 0.0050189146
0.0051687329 0.0051687329 0.0051687329
0.0053310361 0.0053310361 0.0053310361
0.0054933393 0.0054933393 0.0054933393
0.0056556425 0.0056556425 0.0056556425
0.0058304306 0.0058304306 0.0058304306
0.0060052187 0.0060052187 0.0060052187
0.0062049765 0.0062049765 0.0062049765
0.0063922494 0.0063922494 0.0063922494
0.0066044921 0.0066044921 0.0066044921
0.0068167347 0.0068167347 0.0068167347
0.0070289774 0.0070289774 0.0070289774
0.0072661897 0.0072661897 0.0072661897
0.0075034021 0.0075034021 0.0075034021
0.0077530994 0.0077530994 0.0077530994
0.0080152815 0.0080152815 0.0080152815
0.0082774636 0.0082774636 0.0082774636
0.0085646154 0.0085646154 0.0085646154
0.0088517672 0.0088517672 0.0088517672
0.0091638888 0.0091638888 0.0091638888
0.0094760103 0.0094760103 0.0094760103
0.0098006168 0.0098006168 0.0098006168
0.0101377080 0.0101377080 0.0101377080
0.0104997690 0.0104997690 0.0104997690
0.0108618300 0.0108618300 0.0108618300
0.0112363759 0.0112363759 0.0112363759
0.0116358915 0.0116358915 0.0116358915
0.0120354071 0.0120354071 0.0120354071
0.0124598924 0.0124598924 0.0124598924
0.0128968626 0.0128968626 0.0128968626
0.0133463176 0.0133463176 0.0133463176
0.0138207423 0.0138207423 0.0138207423
0.0142951671 0.0142951671 0.0142951671
0.0147945616 0.0147945616 0.0147945616
0.0153189258 0.0153189258 0.0153189258
0.0158557749 0.0158557749 0.0158557749
0.0164051088 0.0164051088 0.0164051088
0.0169794125 0.0169794125 0.0169794125
0.0175662010 0.0175662010 0.0175662010
0.0181654744 0.0181654744 0.0181654744
0.0188022023 0.0188022023 0.0188022023
0.0194389303 0.0194389303 0.0194389303
0.0201131129 0.0201131129 0.0201131129
0.0207997803 0.0207997803 0.0207997803
0.0214989325 0.0214989325 0.0214989325
0.0222355394 0.0222355394 0.0222355394
0.0229846311 0.0229846311 0.0229846311
0.0237462077 0.0237462077 0.0237462077
0.0245452389 0.0245452389 0.0245452389
0.0253567549 0.0253567549 0.0253567549
0.0261932407 0.0261932407 0.0261932407
0.0270422113 0.0270422113 0.0270422113
0.0279286365 0.0279286365 0.0279286365
0.0288275466 0.0288275466 0.0288275466
0.0297514264 0.0297514264 0.0297514264
0.0307002759 0.0307002759 0.0307002759
0.0316740952 0.0316740952 0.0316740952
0.0326853690 0.0326853690 0.0326853690
0.0337091277 0.0337091277 0.0337091277
0.0347703410 0.0347703410 0.0347703410
0.0358690088 0.0358690088 0.0358690088
0.0370051313 0.0370051313 0.0370051313
0.0381662235 0.0381662235 0.0381662235
0.0393772551 0.0393772551 0.0393772551
0.0406257413 0.0406257413 0.0406257413
0.0419241669 0.0419241669 0.0419241669
0.0432600472 0.0432600472 0.0432600472
0.0446458669 0.0446458669 0.0446458669
0.0460691412 0.0460691412 0.0460691412
0.0475548398 0.0475548398 0.0475548398
0.0490779929 0.0490779929 0.0490779929
0.0506635704 0.0506635704 0.0506635704
0.0522866025 0.0522866025 0.0522866025
0.0539720589 0.0539720589 0.0539720589
0.0557074547 0.0557074547 0.0557074547
0.0575052749 0.0575052749 0.0575052749
0.0593530344 0.0593530344 0.0593530344
0.0612507335 0.0612507335 0.0612507335
0.0632233417 0.0632233417 0.0632233417
0.0652458894 0.0652458894 0.0652458894
0.0673183765 0.0673183765 0.0673183765
0.0694657728 0.0694657728 0.0694657728
0.0716631085 0.0716631085 0.0716631085
0.0739353534 0.0739353534 0.0739353534
0.0762575377 0.0762575377 0.0762575377
0.0786546313 0.0786546313 0.0786546313
0.0811141491 0.0811141491 0.0811141491
0.0836360912 0.0836360912 0.0836360912
0.0862204577 0.0862204577 0.0862204577
0.0888672485 0.0888672485 0.0888672485
0.0915764635 0.0915764635 0.0915764635
0.0943605878 0.0943605878 0.0943605878
0.0972071363 0.0972071363 0.0972071363
0.1001161092 0.1001161092 0.1001161092
0.1030999913 0.1030999913 0.1030999913
0.1061338128 0.1061338128 0.1061338128
0.1092300586 0.1092300586 0.1092300586
0.1124012135 0.1124012135 0.1124012135
0.1156223080 0.1156223080 0.1156223080
0.1189058267 0.1189058267 0.1189058267
0.1222517697 0.1222517697 0.1222517697
0.1256476522 0.1256476522 0.1256476522
0.1290934742 0.1290934742 0.1290934742
0.1326017204 0.1326017204 0.1326017204
0.1361599061 0.1361599061 0.1361599061
0.1397555464 0.1397555464 0.1397555464
0.1434136110 0.1434136110 0.1434136110
0.1471216150 0.1471216150 0.1471216150
0.1508795585 0.1508795585 0.1508795585
0.1546874415 0.1546874415 0.1546874415
0.1585702336 0.1585702336 0.1585702336
0.1625029652 0.1625029652 0.1625029652
0.1665106059 0.1665106059 0.1665106059
0.1705681861 0.1705681861 0.1705681861
0.1747006754 0.1747006754 0.1747006754
0.1789080740 0.1789080740 0.1789080740
0.1831778968 0.1831778968 0.1831778968
0.1875226288 0.1875226288 0.1875226288
0.1919297851 0.1919297851 0.1919297851
0.1964118506 0.1964118506 0.1964118506
0.2009563404 0.2009563404 0.2009563404
0.2055757394 0.2055757394 0.2055757394
0.2102700476 0.2102700476 0.2102700476
0.2150392649 0.2150392649 0.2150392649
0.2198584217 0.2198584217 0.2198584217
0.2247649725 0.2247649725 0.2247649725
0.2297339476 0.2297339476 0.2297339476
0.2347653470 0.2347653470 0.2347653470
0.2398716556 0.2398716556 0.2398716556
0.2450403885 0.2450403885 0.2450403885
0.2502840306 0.2502840306 0.2502840306
0.2555900970 0.2555900970 0.2555900970
0.2609585877 0.2609585877 0.2609585877
0.2663895027 0.2663895027 0.2663895027
0.2718828421 0.2718828421 0.2718828421
0.2774510906 0.2774510906 0.2774510906
0.2830692785 0.2830692785 0.2830692785
0.2887498908 0.2887498908 0.2887498908
0.2945054122 0.2945054122 0.2945054122
0.3002983882 0.3002983882 0.3002983882
0.3061662734 0.3061662734 0.3061662734
0.3120716132 0.3120716132 0.3120716132
0.3180518621 0.3180518621 0.3180518621
0.3240695657 0.3240695657 0.3240695657
0.3301496935 0.3301496935 0.3301496935
0.3362672759 0.3362672759 0.3362672759
0.3424472827 0.3424472827 0.3424472827
0.3486647440 0.3486647440 0.3486647440
0.3549196599 0.3549196599 0.3549196599
0.3612370001 0.3612370001 0.3612370001
0.3675793101 0.3675793101 0.3675793101
0.3739590746 0.3739590746 0.3739590746
0.3803762937 0.3803762937 0.3803762937
0.3868309675 0.3868309675 0.3868309675
0.3933230957 0.3933230957 0.3933230957
0.3998401938 0.3998401938 0.3998401938
0.4063822615 0.4063822615 0.4063822615
0.4129368141 0.4129368141 0.4129368141
0.4195038516 0.4195038516 0.4195038516
0.4260958588 0.4260958588 0.4260958588
0.4327003508 0.4327003508 0.4327003508
0.4393173277 0.4393173277 0.4393173277
0.4459218198 0.4459218198 0.4459218198
0.4525512816 0.4525512816 0.4525512816
0.4591682585 0.4591682585 0.4591682585
0.4657727505 0.4657727505 0.4657727505
0.4723647577 0.4723647577 0.4723647577
0.4789567649 0.4789567649 0.4789567649
0.4855362873 0.4855362873 0.4855362873
0.4920908399 0.4920908399 0.4920908399
0.4986329076 0.4986329076 0.4986329076
0.5051624905 0.5051624905 0.5051624905
0.5116671036 0.5116671036 0.5116671036
0.5181592319 0.5181592319 0.5181592319
0.5246263905 0.5246263905 0.5246263905
0.5310685793 0.5310685793 0.5310685793
0.5374857985 0.5374857985 0.5374857985
0.5438905327 0.5438905327 0.5438905327
0.5502702973 0.5502702973 0.5502702973
0.5566126072 0.5566126072 0.5566126072
0.5629424323 0.5629424323 0.5629424323
0.5692348028 0.5692348028 0.5692348028
0.5755146884 0.5755146884 0.5755146884
0.5817571195 0.5817571195 0.5817571195
0.5879620960 0.5879620960 0.5879620960
0.5941545876 0.5941545876 0.5941545876
0.6003096246 0.6003096246 0.6003096246
0.6064396919 0.6064396919 0.6064396919
0.6125447894 0.6125447894 0.6125447894
0.6186124324 0.6186124324 0.6186124324
0.6246551057 0.6246551057 0.6246551057
0.6306603244 0.6306603244 0.6306603244
0.6366530582 0.6366530582 0.6366530582
0.6426083374 0.6426083374 0.6426083374
0.6485261620 0.6485261620 0.6485261620
0.6544315018 0.6544315018 0.6544315018
0.6602993870 0.6602993870 0.6602993870
0.6661423025 0.6661423025 0.6661423025
0.6719602482 0.6719602482 0.6719602482
0.6777532242 0.6777532242 0.6777532242
0.6835212305 0.6835212305 0.6835212305
0.6892517822 0.6892517822 0.6892517822
0.6949698491 0.6949698491 0.6949698491
0.7006629462 0.7006629462 0.7006629462
0.7063435584 0.7063435584 0.7063435584
0.7119867161 0.7119867161 0.7119867161
0.7176298738 0.7176298738 0.7176298738
0.7232355769 0.7232355769 0.7232355769
0.7288287951 0.7288287951 0.7288287951
0.7343845587 0.7343845587 0.7343845587
0.7398903829 0.7398903829 0.7398903829
0.7453462677 0.7453462677 0.7453462677
0.7507522129 0.7507522129 0.7507522129
0.7560707642 0.7560707642 0.7560707642
0.7613144063 0.7613144063 0.7613144063
0.7664831392 0.7664831392 0.7664831392
0.7715644781 0.7715644781 0.7715644781
0.7765459381 0.7765459381 0.7765459381
0.7814150343 0.7814150343 0.7814150343
0.7861967365 0.7861967365 0.7861967365
0.7908660749 0.7908660749 0.7908660749
0.7954480193 0.7954480193 0.7954480193
0.7999300848 0.7999300848 0.7999300848
0.8043122714 0.8043122714 0.8043122714
0.8086070639 0.8086070639 0.8086070639
0.8128144625 0.8128144625 0.8128144625
0.8169219821 0.8169219821 0.8169219821
0.8209421077 0.8209421077 0.8209421077
0.8248748393 0.8248748393 0.8248748393
0.8287201768 0.8287201768 0.8287201768
0.8324781203 0.8324781203 0.8324781203
0.8361611546 0.8361611546 0.8361611546
0.8397567949 0.8397567949 0.8397567949
0.8432775260 0.8432775260 0.8432775260
0.8467358328 0.8467358328 0.8467358328
0.8501067456 0.8501067456 0.8501067456
0.8534152340 0.8534152340 0.8534152340
0.8566488133 0.8566488133 0.8566488133
0.8598199683 0.8598199683 0.8598199683
0.8629286990 0.8629286990 0.8629286990
0.8659750053 0.8659750053 0.8659750053
0.8689713722 0.8689713722 0.8689713722
0.8719053148 0.8719053148 0.8719053148
0.8747893180 0.8747893180 0.8747893180
0.8776358665 0.8776358665 0.8776358665
0.8804199908 0.8804199908 0.8804199908
0.8831791453 0.8831791453 0.8831791453
0.8858758755 0.8858758755 0.8858758755
0.8885601209 0.8885601209 0.8885601209
0.8911944268 0.8911944268 0.8911944268
0.8938037629 0.8938037629 0.8938037629
0.8963881294 0.8963881294 0.8963881294
0.8989475261 0.8989475261 0.8989475261
0.9014819531 0.9014819531 0.9014819531
0.9040038953 0.9040038953 0.9040038953
0.9065133526 0.9065133526 0.9065133526
0.9090103250 0.9090103250 0.9090103250
0.9114948125 0.9114948125 0.9114948125
