2. reversing the negative/print paper LUTs/color/LOGO GmbH, Steinfurt/127 lustre fuji crystal 16_1_color only.cube
LUT_3D_SIZE 33
0.0000000202 0.0000000185 0.0000000000
0.0292989439 0.0090798640 0.0020061221
0.0506850418 0.0129979668 0.0044247596
0.0773717747 0.0177378937 0.0038196827
0.1012960504 0.0213852421 0.0037503578
0.1231293237 0.0241634416 0.0036649941
0.1444271067 0.0263952034 0.0030481521
0.1668104996 0.0286941319 0.0023396122
0.1931694706 0.0320711952 0.0024915570
0.2176210979 0.0343960055 0.0026269191
0.2404830406 0.0359937353 0.0027195830
0.2618083789 0.0369247663 0.0027624913
0.2808653577 0.0369303702 0.0026980346
0.3039776040 0.0385471864 0.0021057461
0.3302146111 0.0407054258 0.0012545647
0.3589432820 0.0424225104 0.0004210552
0.3906337983 0.0434248580 0.0000282719
0.4219768846 0.0434236317 0.0000000001
0.4418139319 0.0433023313 0.0000000000
0.4616241601 0.0427906306 0.0000000000
0.4819858847 0.0419435460 0.0000000000
0.5025410533 0.0408005789 0.0000000000
0.5245644386 0.0398985150 0.0000000000
0.5494057522 0.0391650647 0.0000000000
0.5737758076 0.0375750602 0.0000000000
0.5945699857 0.0355696678 0.0000000000
0.6129003901 0.0335374130 0.0000000000
0.6305564409 0.0311941258 0.0000000000
0.6475579341 0.0277055440 0.0000000000
0.6640543353 0.0229157107 -0.0000000000
0.6806150933 0.0156297531 -0.0000000000
0.6970113929 0.0110451812 0.0000000000
0.7167503103 0.0007098484 0.0000000000
0.0022592047 0.0207695601 0.0060625562
0.0401718304 0.0281550598 0.0044506967
0.0616254567 0.0259993425 0.0010798051
0.0936216466 0.0286280901 0.0008658044
0.1205324138 0.0313652057 0.0006569500
0.1425654907 0.0341225647 0.0003999338
0.1629688140 0.0383958050 0.0000830485
0.1851281831 0.0423637259 0.0000730327
0.2128884050 0.0451834741 0.0000742759
0.2393496598 0.0484273031 0.0000746831
0.2646031571 0.0517391240 0.0000695646
0.2872953381 0.0531541957 0.0000677969
0.3084262096 0.0542580915 0.0000641718
0.3318136032 0.0561513879 0.0000576032
0.3574056353 0.0584030646 0.0000515722
0.3851775255 0.0610879809 0.0000450753
0.4148611971 0.0627947398 0.0000372833
0.4442806101 0.0637953657 0.0000288160
0.4649954720 0.0634063074 0.0000275742
0.4858722866 0.0627506452 0.0000269973
0.5071779168 0.0619534212 0.0000254659
0.5301743717 0.0613540651 0.0000222545
0.5539517617 0.0605093921 0.0000167084
0.5784381596 0.0586172890 0.0000096910
0.6006338521 0.0566382156 0.0000031454
0.6198372940 0.0547513030 0.0000000701
0.6374833688 0.0529955558 0.0000000000
0.6572233627 0.0502338203 0.0000000000
0.6758064896 0.0468215440 0.0000000000
0.6918534548 0.0429982320 -0.0000000000
0.7063758082 0.0389680343 0.0000000000
0.7211781670 0.0344512928 0.0000000000
0.7491532319 0.0290831413 0.0000000000
0.0081171537 0.0342204332 0.0083681649
0.0375361746 0.0385706510 0.0115235144
0.0672731188 0.0468967932 0.0119372691
0.1018272340 0.0497821820 0.0099573565
0.1296786737 0.0535703674 0.0088578937
0.1526337567 0.0577373717 0.0080878723
0.1730188759 0.0621917274 0.0074013457
0.1947598818 0.0667969628 0.0068491183
0.2240716172 0.0702891779 0.0067972449
0.2514244853 0.0734433263 0.0067798266
0.2774219328 0.0763957088 0.0067477373
0.3022061283 0.0791631984 0.0066816812
0.3253658620 0.0814432880 0.0065814936
0.3496882640 0.0836471230 0.0060999518
0.3754352048 0.0860348344 0.0054851589
0.4024688925 0.0884245478 0.0048081513
0.4304159756 0.0907902785 0.0040022965
0.4582720481 0.0925722660 0.0031218040
0.4791356628 0.0925202682 0.0029245695
0.5005403972 0.0919664074 0.0028568733
0.5232406345 0.0911223333 0.0027058591
0.5477350544 0.0900757175 0.0023881084
0.5727812626 0.0892646654 0.0018353369
0.5965333064 0.0883334969 0.0011195288
0.6186412383 0.0867735650 0.0004292470
0.6382395905 0.0850350325 0.0000615267
0.6564697866 0.0833372490 0.0000108271
0.6758636347 0.0813611481 0.0000047530
0.6937076944 0.0787270422 0.0000000263
0.7098589072 0.0753965641 0.0000000000
0.7240947567 0.0719235000 -0.0000000000
0.7371209669 0.0684300149 0.0000000000
0.7643818278 0.0594540378 0.0000000000
0.0080371342 0.0495089230 0.0126912086
0.0339500842 0.0587158420 0.0167526602
0.0660275931 0.0689773099 0.0179741760
0.1037415343 0.0725242587 0.0171766464
0.1325204942 0.0754104818 0.0159079108
0.1565763053 0.0791780819 0.0151686456
0.1782496193 0.0836096390 0.0146933390
0.2010463087 0.0881146279 0.0143976331
0.2313126324 0.0918204718 0.0144442153
0.2591194417 0.0947783194 0.0142025580
0.2856786683 0.0977165695 0.0141421633
0.3111021443 0.1006157885 0.0142371832
0.3349711147 0.1035011615 0.0145714876
0.3605136135 0.1061477899 0.0134964237
0.3869510086 0.1086299477 0.0120733965
0.4139081304 0.1109836929 0.0107760039
0.4417241023 0.1134724973 0.0095227678
0.4696094741 0.1156983610 0.0082678692
0.4907821308 0.1156151721 0.0071436982
0.5119848358 0.1151570687 0.0067027307
0.5355989463 0.1145996309 0.0063627970
0.5605619243 0.1140474769 0.0059833237
0.5856666327 0.1133178953 0.0055045421
0.6095954666 0.1124329887 0.0047703018
0.6317392253 0.1114033605 0.0039734888
0.6514304217 0.1103092039 0.0034202761
0.6700810004 0.1091371488 0.0028629610
0.6900669679 0.1073646504 0.0015512100
0.7077599464 0.1051288315 0.0002042420
0.7236056083 0.1025343417 0.0000011388
0.7383348727 0.0995352991 0.0000000000
0.7520883742 0.0962360104 0.0000000000
0.7796823481 0.0886062455 0.0000000000
0.0054848381 0.0640071166 0.0164560422
0.0306366624 0.0774640571 0.0200078953
0.0667451168 0.0888238132 0.0211738900
0.1039848585 0.0923661397 0.0207291847
0.1370482669 0.0962332874 0.0196167634
0.1620639037 0.0992245171 0.0186621980
0.1849059906 0.1032565095 0.0181151712
0.2085231777 0.1075650897 0.0179484662
0.2383582823 0.1111988945 0.0184610857
0.2671698616 0.1153867155 0.0186831438
0.2944194736 0.1185586249 0.0185510420
0.3205471161 0.1214242636 0.0184578764
0.3456372380 0.1245734359 0.0187882245
0.3711916009 0.1272578436 0.0180005053
0.3979003618 0.1300528225 0.0164188466
0.4251738986 0.1328437397 0.0146590941
0.4529933463 0.1353240184 0.0128238026
0.4809223884 0.1377146983 0.0112567697
0.5018622719 0.1377388782 0.0101805892
0.5235524162 0.1373625379 0.0088725853
0.5479236565 0.1368363696 0.0077290524
0.5730527852 0.1364442674 0.0068091617
0.5978921018 0.1360515814 0.0063115892
0.6220077645 0.1355275561 0.0062210652
0.6449169621 0.1348693758 0.0057229333
0.6650075468 0.1341116368 0.0050858771
0.6833304319 0.1333350584 0.0045124213
0.7031454244 0.1319897243 0.0034159777
0.7213822763 0.1301348242 0.0019117419
0.7374741261 0.1278227561 0.0004552612
0.7524529393 0.1253762388 0.0000382961
0.7667478312 0.1229075492 0.0000001894
0.7950218740 0.1165393334 0.0000000000
0.0015594209 0.0782517700 0.0195919949
0.0284647291 0.0933497018 0.0223848713
0.0688731034 0.1060457806 0.0229871842
0.1064281760 0.1098502294 0.0225977207
0.1391879754 0.1137175443 0.0216550363
0.1684832304 0.1179917339 0.0204063038
0.1922799007 0.1215670306 0.0195176259
0.2165908971 0.1257027060 0.0192183002
0.2462770746 0.1294699614 0.0199022607
0.2748907920 0.1336294747 0.0204706574
0.3030015848 0.1379621607 0.0207543142
0.3299721740 0.1414630783 0.0207497972
0.3561506583 0.1445761796 0.0206702042
0.3818789771 0.1473848851 0.0198245500
0.4083822756 0.1501616650 0.0183068328
0.4357157333 0.1533017691 0.0164036553
0.4637497544 0.1563203497 0.0141531780
0.4918425184 0.1587571304 0.0118065666
0.5125713658 0.1588392399 0.0105893018
0.5354999233 0.1584905274 0.0091734772
0.5594930426 0.1579715555 0.0078077302
0.5847705024 0.1575192149 0.0061805434
0.6095508996 0.1573956909 0.0054094787
0.6341650204 0.1572499617 0.0055204597
0.6577413451 0.1571651103 0.0058264867
0.6780357808 0.1567385407 0.0053245474
0.6960583471 0.1561689668 0.0046276561
0.7156865787 0.1551246110 0.0035607270
0.7343444097 0.1536697870 0.0025643708
0.7510241139 0.1516655141 0.0009847855
0.7662048446 0.1496586981 0.0001136398
0.7810680993 0.1477965526 0.0000005134
0.8104826651 0.1430964194 0.0000000000
0.0000299316 0.0926783461 0.0222434671
0.0294426884 0.1085007759 0.0246436717
0.0717382239 0.1215891601 0.0245251166
0.1102794227 0.1258519755 0.0238825603
0.1433149891 0.1299496158 0.0228684758
0.1727517103 0.1343311122 0.0216633679
0.1993865371 0.1387323725 0.0203501470
0.2243508675 0.1427925708 0.0197669221
0.2541499211 0.1468503136 0.0204021852
0.2830184037 0.1512354893 0.0209207751
0.3112534897 0.1555680119 0.0213869603
0.3389469167 0.1599331115 0.0216906122
0.3659235727 0.1635285014 0.0217114049
0.3920858183 0.1664998273 0.0204702203
0.4184430077 0.1693690468 0.0187215591
0.4456211040 0.1724981374 0.0166728254
0.4737420349 0.1759430788 0.0141719745
0.5020234052 0.1786375056 0.0112561091
0.5228737696 0.1788058877 0.0097454538
0.5464705769 0.1784799919 0.0082819007
0.5708035510 0.1779413399 0.0067475794
0.5955172109 0.1772798449 0.0051460204
0.6204686838 0.1774154187 0.0039853454
0.6456628789 0.1777543319 0.0040890572
0.6693854349 0.1779045321 0.0044427109
0.6901242111 0.1780624149 0.0046878437
0.7079661796 0.1777144006 0.0040139329
0.7274705145 0.1769007712 0.0029581583
0.7464146111 0.1756375468 0.0019027604
0.7639433423 0.1740506603 0.0010636716
0.7792051624 0.1724652265 0.0001499426
0.7941591468 0.1711755528 0.0000010070
0.8262719927 0.1680784979 0.0000000000
0.0000000000 0.1082270573 0.0249861233
0.0293287473 0.1243229555 0.0269016146
0.0742299702 0.1372499578 0.0266061490
0.1136254313 0.1420498511 0.0256679891
0.1471192536 0.1464097298 0.0245431560
0.1769697084 0.1510729452 0.0233515839
0.2040270581 0.1557928034 0.0221308512
0.2306209688 0.1601329654 0.0209254765
0.2607047906 0.1645892971 0.0213745544
0.2897923409 0.1690546787 0.0217488153
0.3183350367 0.1734892112 0.0220801452
0.3463438153 0.1778477418 0.0224026750
0.3739155962 0.1819161057 0.0225832990
0.4007629154 0.1851971131 0.0212302258
0.4271932816 0.1882382166 0.0191836697
0.4543445460 0.1914741367 0.0168214559
0.4824859386 0.1949094028 0.0140865783
0.5109709781 0.1981528479 0.0110202456
0.5321906873 0.1984903089 0.0091665889
0.5561607810 0.1983090335 0.0074628451
0.5806966722 0.1979190915 0.0059255705
0.6051538714 0.1974124800 0.0043078494
0.6301510757 0.1972235132 0.0030979059
0.6555617343 0.1979835878 0.0030718623
0.6799739393 0.1984812791 0.0033624178
0.7004982912 0.1987302990 0.0036008392
0.7187104212 0.1989043608 0.0033929406
0.7380227455 0.1983841102 0.0023712695
0.7569934492 0.1973773328 0.0013011117
0.7748120664 0.1960088608 0.0003476232
0.7910093444 0.1949127606 0.0000489590
0.8060632745 0.1942826931 0.0000001646
0.8409992162 0.1927186193 0.0000000000
0.0000000000 0.1270993845 0.0288529529
0.0254827307 0.1423695885 0.0301098430
0.0725724245 0.1551859922 0.0303863912
0.1132927105 0.1613042774 0.0295936939
0.1470826307 0.1657526361 0.0285819876
0.1774880590 0.1708484753 0.0275571692
0.2052277123 0.1761597316 0.0265487013
0.2325900685 0.1811872017 0.0255920619
0.2634069089 0.1852089036 0.0248447361
0.2926115320 0.1894346239 0.0249823890
0.3213283041 0.1936613954 0.0250846374
0.3496315846 0.1978336382 0.0251457503
0.3773706831 0.2017644913 0.0250880263
0.4049998335 0.2049674810 0.0233311889
0.4322189652 0.2079411761 0.0208873723
0.4594748127 0.2111334005 0.0184015229
0.4879447270 0.2146525851 0.0157035311
0.5169992761 0.2180412187 0.0129197719
0.5392030303 0.2192964937 0.0109036443
0.5629387081 0.2195726998 0.0086685611
0.5871461609 0.2196940886 0.0070723546
0.6113564017 0.2198369886 0.0057337782
0.6367677706 0.2200494755 0.0046173851
0.6632748103 0.2205657570 0.0041409568
0.6876387930 0.2210700804 0.0041627070
0.7081873721 0.2212351217 0.0043739669
0.7266919727 0.2212421956 0.0042678626
0.7461919117 0.2210760370 0.0029921211
0.7649596799 0.2205397630 0.0016803012
0.7825254439 0.2197545557 0.0007242594
0.7989478529 0.2193431526 0.0000927313
0.8152562229 0.2193060622 0.0000016389
0.8514175860 0.2191061474 0.0000000000
0.0000000000 0.1447805990 0.0314176740
0.0232245818 0.1595931217 0.0328829553
0.0709468202 0.1719985731 0.0331215781
0.1118194961 0.1786765578 0.0328732428
0.1480494289 0.1852968891 0.0324283434
0.1788440454 0.1905524918 0.0314267940
0.2071546898 0.1963544231 0.0305363267
0.2348749229 0.2016971258 0.0296612711
0.2656647959 0.2057012504 0.0288954053
0.2956046275 0.2095689710 0.0275271095
0.3245432478 0.2136726636 0.0272394805
0.3530566651 0.2177475087 0.0269284126
0.3809103737 0.2216210941 0.0264016476
0.4087075687 0.2249677029 0.0246873455
0.4368871328 0.2280113487 0.0221066576
0.4649715907 0.2312063536 0.0194258322
0.4937682260 0.2346367057 0.0164438301
0.5233997942 0.2380782835 0.0136016760
0.5461408726 0.2396352223 0.0118261989
0.5692281928 0.2412466709 0.0101892644
0.5932815132 0.2419161558 0.0079453382
0.6173867911 0.2426368977 0.0066051998
0.6431453714 0.2431729176 0.0055496653
0.6704120468 0.2432528844 0.0048550061
0.6952313657 0.2434275451 0.0044854871
0.7161245630 0.2434100180 0.0044391042
0.7348359333 0.2434165934 0.0042689872
0.7541425121 0.2437722704 0.0030904445
0.7726510566 0.2438237203 0.0017415041
0.7900915804 0.2435176706 0.0006339599
0.8072264564 0.2435625531 0.0000900739
0.8247064822 0.2443162628 0.0000020090
0.8618593889 0.2451038577 0.0000000000
0.0000000000 0.1615087667 0.0332166858
0.0215335655 0.1760746542 0.0352676629
0.0695162985 0.1879712768 0.0352126430
0.1107460228 0.1952534368 0.0353721709
0.1476626456 0.2030045947 0.0353225562
0.1805169929 0.2101657036 0.0348336610
0.2092261506 0.2163738994 0.0338604085
0.2373822225 0.2220195250 0.0329606082
0.2682089514 0.2259691894 0.0320640131
0.2982066854 0.2297337109 0.0305386550
0.3278978338 0.2334189483 0.0287691448
0.3566097609 0.2373896530 0.0280085120
0.3845214521 0.2411506530 0.0269660769
0.4125415036 0.2445688931 0.0251000033
0.4409693813 0.2477883301 0.0225600361
0.4702251656 0.2510904460 0.0198085311
0.4997672205 0.2544944870 0.0165455577
0.5301101652 0.2579716582 0.0134012259
0.5531723790 0.2598490349 0.0118009646
0.5760021020 0.2619210973 0.0103687214
0.5993561227 0.2638835352 0.0086920341
0.6234705053 0.2651736543 0.0069370003
0.6495189755 0.2660576835 0.0058603015
0.6771179415 0.2661649098 0.0050661449
0.7026643245 0.2656065332 0.0044511837
0.7240844157 0.2653391748 0.0039157714
0.7430238314 0.2652935872 0.0036017276
0.7622393569 0.2660475181 0.0024448355
0.7803024839 0.2668207487 0.0014442992
0.7980052614 0.2669594455 0.0004722557
0.8153873899 0.2673688764 0.0000618625
0.8337168955 0.2685086649 0.0000012586
0.8720905506 0.2705744688 0.0000000000
0.0000000000 0.1773001013 0.0343776431
0.0141507633 0.1918379470 0.0368572985
0.0683274243 0.2031578678 0.0367426896
0.1100690348 0.2111609389 0.0371581524
0.1471762088 0.2197281940 0.0373912255
0.1812353386 0.2283062413 0.0372988850
0.2114500423 0.2359944740 0.0366889192
0.2399729843 0.2421260079 0.0355581396
0.2709549583 0.2459696460 0.0343439834
0.3010691729 0.2496361701 0.0325738629
0.3308704865 0.2532147451 0.0305897434
0.3602679414 0.2567104347 0.0284551308
0.3882230074 0.2603272319 0.0268299799
0.4164157751 0.2637266559 0.0246747558
0.4451372242 0.2670642759 0.0221367566
0.4747343098 0.2704948815 0.0193239877
0.5057582050 0.2740737157 0.0160743935
0.5370830476 0.2775545875 0.0123577671
0.5602827329 0.2798101747 0.0108896570
0.5828419237 0.2822656696 0.0096466422
0.6057882326 0.2849120943 0.0082586200
0.6295169507 0.2872711037 0.0068443118
0.6556886909 0.2885525584 0.0056280804
0.6838487807 0.2886564104 0.0047048792
0.7095808130 0.2879632149 0.0038906351
0.7317069967 0.2870918100 0.0031749956
0.7512033655 0.2867908619 0.0024544827
0.7702895861 0.2878087276 0.0013839840
0.7884133183 0.2889442425 0.0004043830
0.8056825190 0.2898424927 0.0000854328
0.8237558497 0.2906503016 0.0000154197
0.8427408389 0.2921639512 0.0000002928
0.8820652541 0.2954188106 0.0000000000
0.0000000000 0.1915599194 0.0348428488
0.0118329401 0.2059203548 0.0372810049
0.0672293189 0.2172365158 0.0373941423
0.1101005272 0.2265357836 0.0379405371
0.1478102424 0.2360818160 0.0383636720
0.1821183782 0.2453500039 0.0384240725
0.2131948882 0.2540805519 0.0380743795
0.2425724538 0.2611126682 0.0370776384
0.2738542013 0.2649174893 0.0351846333
0.3042724408 0.2685233621 0.0328525767
0.3343047679 0.2720350031 0.0305009187
0.3639299610 0.2754548966 0.0280303447
0.3920151458 0.2786728513 0.0253779329
0.4205762315 0.2821322883 0.0231719886
0.4496915858 0.2855175452 0.0205161080
0.4796997057 0.2889754377 0.0174963771
0.5111795371 0.2925589386 0.0139638678
0.5442347112 0.2961811163 0.0101838381
0.5670297679 0.2989741727 0.0086250102
0.5893117739 0.3019478922 0.0079578497
0.6122442174 0.3049595964 0.0069467733
0.6359679836 0.3080108177 0.0057257735
0.6620839837 0.3097341028 0.0044768298
0.6903821944 0.3097274374 0.0033150585
0.7166883168 0.3088868823 0.0022012164
0.7393776555 0.3078395549 0.0012812157
0.7592049585 0.3073758441 0.0006360941
0.7781268965 0.3085567114 0.0003018134
0.7963253173 0.3099514057 0.0000854340
0.8140579662 0.3113155377 0.0000126023
0.8324601852 0.3127037528 0.0000000635
0.8518781281 0.3146129996 0.0000000000
0.8917225662 0.3188984802 0.0000000000
0.0000000000 0.2080458918 0.0371050388
0.0077068335 0.2221895312 0.0391149049
0.0624811033 0.2334352952 0.0393997848
0.1074903008 0.2429337048 0.0388557164
0.1457083431 0.2526695081 0.0389609855
0.1806098484 0.2622565057 0.0386734255
0.2123593599 0.2712668993 0.0380484008
0.2428378383 0.2791527165 0.0371552205
0.2752452846 0.2836527491 0.0352289639
0.3060921079 0.2875578492 0.0329288600
0.3367833388 0.2914099704 0.0305731209
0.3669190568 0.2950775540 0.0281159136
0.3957677927 0.2989147820 0.0259189432
0.4242513319 0.3026685304 0.0229956779
0.4534016773 0.3062024662 0.0202611033
0.4834280058 0.3098199757 0.0171194292
0.5149500425 0.3136163969 0.0135078096
0.5488329504 0.3175661867 0.0097225724
0.5723592453 0.3206628385 0.0078764976
0.5947495748 0.3238092903 0.0070442233
0.6179510093 0.3270741453 0.0062182367
0.6424155180 0.3302883018 0.0052081493
0.6688552174 0.3329927799 0.0038130349
0.6971014516 0.3336422975 0.0024066425
0.7234891085 0.3333299091 0.0012027229
0.7464632855 0.3326923724 0.0004549255
0.7667511426 0.3321644822 0.0000890652
0.7860119707 0.3330877920 0.0000270038
0.8047261932 0.3343502763 0.0000096355
0.8230772217 0.3353193110 0.0000004886
0.8415374660 0.3363281707 0.0000000145
0.8606018032 0.3381706323 0.0000000000
0.8995733071 0.3424002468 0.0000000000
0.0000000000 0.2262320231 0.0400544105
0.0029834961 0.2399650480 0.0415580634
0.0558518930 0.2511231162 0.0418862303
0.1027563007 0.2607206327 0.0404610054
0.1425863466 0.2702855970 0.0392908696
0.1778434977 0.2797510827 0.0384575363
0.2102196002 0.2887947077 0.0372109271
0.2414808325 0.2968686595 0.0360889826
0.2751287583 0.3022340915 0.0344020394
0.3075190022 0.3073011033 0.0326512982
0.3389057186 0.3115928776 0.0304136960
0.3698383303 0.3158018042 0.0282556803
0.3994651338 0.3202438984 0.0264197573
0.4281433838 0.3243386467 0.0237285037
0.4568513333 0.3285165389 0.0206127233
0.4866354515 0.3323582014 0.0173125673
0.5179803628 0.3364563371 0.0136099617
0.5520563763 0.3407785496 0.0099182412
0.5763193124 0.3441022841 0.0079027900
0.5997585764 0.3474066831 0.0068244581
0.6233467196 0.3507706368 0.0057782607
0.6486681119 0.3541305516 0.0047033602
0.6755985530 0.3570624458 0.0033630443
0.7042025174 0.3591547788 0.0017214503
0.7305407322 0.3597509124 0.0006729291
0.7536465625 0.3599875489 0.0001032634
0.7740483134 0.3598950078 0.0000206698
0.7942880846 0.3599700145 0.0000000930
0.8135233872 0.3608677682 0.0000000001
0.8328553533 0.3613783737 0.0000000000
0.8513996581 0.3619670661 0.0000000000
0.8695719636 0.3629203600 0.0000000000
0.9066544693 0.3663072586 0.0000000000
0.0000000000 0.2456700759 0.0427057112
0.0014221443 0.2587595159 0.0440153505
0.0480847009 0.2697694053 0.0440622187
0.0967075772 0.2796231384 0.0422925194
0.1386671402 0.2890685520 0.0396514594
0.1752416449 0.2982645495 0.0375575591
0.2079635214 0.3071136599 0.0356147584
0.2400211565 0.3153358856 0.0339734732
0.2742434864 0.3212282270 0.0326947506
0.3080942207 0.3274280443 0.0315706591
0.3414824824 0.3332136543 0.0301567855
0.3733371454 0.3379319365 0.0280481786
0.4037321421 0.3429312141 0.0264085197
0.4325241543 0.3473276077 0.0238333924
0.4609396849 0.3516081151 0.0206994501
0.4898092868 0.3561626798 0.0173448374
0.5210057419 0.3605079909 0.0132976541
0.5553242122 0.3650963850 0.0094837294
0.5798303900 0.3685203017 0.0076913207
0.6044196449 0.3719109229 0.0064485888
0.6293429739 0.3753453609 0.0051719158
0.6553480448 0.3787822668 0.0038076546
0.6830816446 0.3819636843 0.0024328597
0.7113841453 0.3846745444 0.0010040137
0.7379435696 0.3868981845 0.0001528449
0.7612172177 0.3880435437 0.0000367409
0.7819112166 0.3886563313 0.0000003684
0.8025722148 0.3885877875 0.0000000000
0.8231539583 0.3878757057 0.0000000000
0.8432939460 0.3880175896 -0.0000000000
0.8620279719 0.3881522011 -0.0000000000
0.8792995043 0.3886140109 0.0000000000
0.9139085925 0.3905866902 0.0000000000
0.0000000000 0.2664860374 0.0448660647
0.0004350413 0.2793700265 0.0461859758
0.0392840880 0.2895817345 0.0457489772
0.0897227582 0.2994210880 0.0432532850
0.1331385951 0.3089977479 0.0399110028
0.1716475793 0.3180321297 0.0362805530
0.2057655870 0.3265973941 0.0329179739
0.2383422446 0.3347387931 0.0305512177
0.2735309989 0.3413578676 0.0297026180
0.3082193208 0.3481981195 0.0289544605
0.3429656132 0.3549766247 0.0281224499
0.3773756053 0.3614987162 0.0271723502
0.4085472235 0.3669992925 0.0254990744
0.4373408734 0.3716453402 0.0229421323
0.4654161048 0.3760712851 0.0197964315
0.4940225314 0.3807816066 0.0163148124
0.5241234119 0.3858580521 0.0124626948
0.5587954601 0.3905038523 0.0077911738
0.5836560070 0.3937952764 0.0066154873
0.6089201359 0.3971163135 0.0052939706
0.6354368162 0.4004768458 0.0038452500
0.6629106054 0.4038445892 0.0023874221
0.6909979382 0.4071695800 0.0009438293
0.7192394456 0.4103755832 0.0002000590
0.7459816561 0.4134636089 0.0000597345
0.7694176288 0.4159733873 0.0000004047
0.7905911444 0.4172482120 0.0000000001
0.8116126320 0.4168742965 0.0000000000
0.8336991492 0.4156721477 0.0000000000
0.8545870548 0.4142993073 -0.0000000000
0.8734378194 0.4139538193 -0.0000000000
0.8899965585 0.4141020389 -0.0000000000
0.9217819306 0.4145367871 0.0000000000
0.0000000000 0.2879402760 0.0462341319
0.0002621734 0.3004819556 0.0472836751
0.0286584930 0.3103034228 0.0466232010
0.0817170403 0.3199868322 0.0430686900
0.1273446896 0.3295044159 0.0387997521
0.1670747135 0.3385117158 0.0342777727
0.2024449988 0.3468893624 0.0298707396
0.2364335464 0.3548548600 0.0262038003
0.2729329538 0.3623344286 0.0257654347
0.3086416432 0.3697736152 0.0252254486
0.3444391115 0.3771280940 0.0245856775
0.3800024029 0.3843717413 0.0238288335
0.4127828518 0.3907258909 0.0229784568
0.4419216013 0.3956370649 0.0207384244
0.4696528360 0.3999833227 0.0175537215
0.4979904433 0.4046309595 0.0139244630
0.5280563740 0.4096473146 0.0099044970
0.5624523756 0.4148263839 0.0061775234
0.5878617971 0.4182656555 0.0045593761
0.6138306085 0.4217717803 0.0030236740
0.6415277302 0.4253626568 0.0015024438
0.6700632977 0.4289808901 0.0004329796
0.6987824138 0.4327757616 0.0001818827
0.7270419864 0.4368652991 0.0000557588
0.7541682391 0.4408982887 0.0000000006
0.7780279248 0.4443850840 0.0000000002
0.7998189834 0.4466743906 0.0000000000
0.8220055745 0.4459599947 0.0000000000
0.8448438247 0.4442083734 0.0000000000
0.8663908423 0.4421364637 -0.0000000000
0.8849387971 0.4408801684 -0.0000000000
0.9005003987 0.4404711492 -0.0000000000
0.9305121233 0.4397884332 0.0000000000
0.0000000000 0.3034187227 0.0466900106
0.0001685501 0.3174493021 0.0477316310
0.0188046664 0.3280832355 0.0474652131
0.0756605337 0.3376951462 0.0434185354
0.1227342351 0.3470979615 0.0391142277
0.1634447088 0.3559725787 0.0345886363
0.1997060341 0.3642224211 0.0301968956
0.2345864100 0.3720861932 0.0264565248
0.2722054734 0.3797729652 0.0246852807
0.3080765099 0.3867827427 0.0238488973
0.3440770420 0.3937052576 0.0229563261
0.3799115718 0.4004729677 0.0219679172
0.4131517471 0.4067389198 0.0207252711
0.4429478544 0.4119319234 0.0187025180
0.4711929446 0.4165356678 0.0157593659
0.4996980151 0.4212511100 0.0121894510
0.5298849847 0.4264605149 0.0084229104
0.5652306854 0.4319399946 0.0056224730
0.5910169097 0.4358903643 0.0033610692
0.6168748697 0.4396534175 0.0015602520
