2. reversing the negative/print paper LUTs/color/LOGO GmbH, Steinfurt/127 glossy fuji crystal 16_1_color only.cube
LUT_3D_SIZE 33
0.0007882148 0.0000000000 0.0000382143
0.0293610227 0.0012647814 0.0000000000
0.0543606600 0.0089061587 0.0004750085
0.0817029083 0.0122321220 0.0000051037
0.1064122151 0.0151418831 0.0000655759
0.1309621003 0.0179802861 0.0002156789
0.1571057842 0.0209116869 0.0001445882
0.1820143266 0.0236391682 0.0000488375
0.2057784455 0.0256953470 0.0000000000
0.2285172345 0.0269335916 0.0000000000
0.2503890558 0.0272543157 0.0000000000
0.2709609505 0.0265296889 0.0000000000
0.2949244397 0.0274814437 0.0000000000
0.3211617861 0.0290780578 0.0000000000
0.3480854830 0.0300707393 0.0000000000
0.3756830711 0.0303324982 0.0000000000
0.4041355998 0.0294618110 0.0000000000
0.4253034472 0.0290665927 0.0000000000
0.4456257974 0.0283038175 0.0000000000
0.4663558001 0.0271584121 0.0000000000
0.4888719736 0.0255243778 0.0000000000
0.5116302346 0.0237466807 0.0000000000
0.5330006929 0.0216941605 0.0000000000
0.5539120261 0.0184429161 0.0000000000
0.5736284821 0.0143881871 0.0000000000
0.5918422037 0.0101672666 0.0000000000
0.6061412214 0.0073762418 0.0000000000
0.6220388370 0.0038846299 0.0000000000
0.6387869284 0.0000000000 0.0000000000
0.6554048641 0.0000000000 0.0000000000
0.6733560318 0.0000000000 0.0000000000
0.6848207955 0.0000000000 0.0000000000
0.6923872751 0.0000000000 0.0000000000
0.0000000000 0.0153812467 0.0007009288
0.0400700243 0.0248578178 0.0008138010
0.0642842281 0.0233275518 0.0000000000
0.1008724530 0.0262546629 0.0000000000
0.1288730359 0.0290024980 0.0000000000
0.1526399360 0.0321115253 0.0000000000
0.1756156964 0.0379278269 0.0000000000
0.2021389710 0.0406838891 0.0000000000
0.2292639643 0.0429942179 0.0000000000
0.2563599185 0.0455259404 0.0000000000
0.2833733138 0.0481285610 0.0000000000
0.3077875011 0.0485129691 0.0000000000
0.3326069762 0.0491938243 0.0000000000
0.3579051355 0.0500137858 0.0000000000
0.3833214854 0.0507878913 0.0000000000
0.4088928995 0.0513529715 0.0000000000
0.4356050862 0.0505756977 0.0000000000
0.4563149572 0.0498605438 0.0000000000
0.4759781915 0.0489947332 0.0000000000
0.4964781569 0.0480563750 0.0000000000
0.5210748089 0.0471599077 0.0000000000
0.5454575839 0.0457019273 0.0000000000
0.5661182659 0.0433637552 0.0000000000
0.5868007896 0.0406901507 0.0000000000
0.6065428512 0.0379068699 0.0000000000
0.6247527840 0.0353325821 0.0000000000
0.6421233241 0.0330287116 0.0000000000
0.6591289609 0.0303317231 0.0000000000
0.6753375494 0.0273065971 0.0000000000
0.6898472746 0.0243095846 0.0000000000
0.7064105700 0.0211657011 0.0000000000
0.7185689592 0.0190947026 0.0000000000
0.7285938682 0.0195976683 0.0000000000
0.0000000000 0.0285931239 0.0035380367
0.0331966059 0.0357595611 0.0064464165
0.0676437591 0.0433970521 0.0064062702
0.1072569871 0.0471956771 0.0062731118
0.1367408956 0.0513428757 0.0066591201
0.1612295954 0.0558927130 0.0072217941
0.1830093108 0.0609819984 0.0077744297
0.2105675115 0.0643109782 0.0072432297
0.2393341370 0.0669830103 0.0067122218
0.2677688313 0.0696037327 0.0063554615
0.2957111723 0.0718977962 0.0060114223
0.3225627990 0.0739656442 0.0056155458
0.3485144937 0.0752417685 0.0044575374
0.3737002184 0.0760665000 0.0027873003
0.3989936444 0.0766284493 0.0018759025
0.4241490724 0.0768748734 0.0009326824
0.4494303976 0.0767355356 0.0005817092
0.4703558041 0.0764869697 0.0002327519
0.4901937176 0.0758742010 0.0000000000
0.5121657663 0.0751082869 0.0000000000
0.5369250645 0.0741642954 0.0000000000
0.5608847719 0.0728947746 0.0000000000
0.5816920035 0.0717331669 0.0000000000
0.6029795849 0.0698377729 0.0000000000
0.6237878644 0.0675088395 0.0000000000
0.6440285580 0.0650905268 0.0000000000
0.6606167518 0.0639025645 0.0000000000
0.6770518506 0.0623405366 0.0000000000
0.6929429769 0.0602326023 0.0000000000
0.7080705680 0.0572108567 0.0000000000
0.7232690080 0.0525965729 0.0000000000
0.7353263652 0.0477908776 0.0000000000
0.7446834734 0.0433120981 0.0000000000
0.0000000000 0.0468764774 0.0084197020
0.0295805418 0.0574331502 0.0112613375
0.0665347440 0.0657679020 0.0117201094
0.1100907486 0.0702402548 0.0122577246
0.1404665331 0.0736192689 0.0125095388
0.1660644240 0.0778659697 0.0131217307
0.1894027553 0.0830730969 0.0138515617
0.2171858430 0.0864182940 0.0130973867
0.2462004538 0.0895714560 0.0117126085
0.2748881602 0.0919188413 0.0108156642
0.3030804711 0.0943261335 0.0100662472
0.3301574848 0.0968850821 0.0092992724
0.3564553837 0.0984404699 0.0084461269
0.3825255348 0.0995944263 0.0072358088
0.4080016855 0.1001942535 0.0054563605
0.4334893594 0.1006453063 0.0039027676
0.4590922792 0.1009095942 0.0028638263
0.4805997322 0.1012645624 0.0014283293
0.5022434086 0.1014670539 0.0005868455
0.5249735855 0.1012111897 0.0000000000
0.5507534625 0.1010387541 0.0000000000
0.5744868676 0.1003213863 0.0000000000
0.5958207461 0.0990745459 0.0000000000
0.6170082430 0.0975645148 0.0000000000
0.6379316597 0.0957582563 0.0000000000
0.6568595237 0.0939880697 0.0000000000
0.6749257258 0.0928141583 0.0000000000
0.6917113076 0.0916360541 0.0000000000
0.7074163930 0.0897308826 0.0000000000
0.7219907659 0.0869175929 0.0000000000
0.7382983582 0.0816477547 0.0000000000
0.7505163909 0.0761775744 0.0000000000
0.7596227216 0.0716230270 0.0000000000
0.0000000000 0.0634345704 0.0119243394
0.0270039955 0.0757373163 0.0140633314
0.0676435012 0.0844163531 0.0145390308
0.1107873552 0.0889765944 0.0153944996
0.1457200774 0.0939839808 0.0155411963
0.1721319263 0.0977146104 0.0159178028
0.1966652272 0.1028108455 0.0164992579
0.2245155822 0.1061780940 0.0156655036
0.2532532866 0.1093839131 0.0141934234
0.2820517179 0.1129623472 0.0123227486
0.3104531480 0.1153909346 0.0108508212
0.3377721246 0.1180417177 0.0093361602
0.3642569862 0.1197462207 0.0085834831
0.3903654228 0.1209197243 0.0079819128
0.4165897182 0.1222261637 0.0073472548
0.4423026905 0.1227577542 0.0057712146
0.4682647497 0.1231392771 0.0047542165
0.4897956601 0.1238770526 0.0026368060
0.5131688482 0.1247761925 0.0014020031
0.5372739322 0.1254846293 0.0004728196
0.5635137681 0.1258501641 0.0000000000
0.5876009980 0.1256112823 0.0000000000
0.6088150336 0.1244757496 0.0000000000
0.6302489504 0.1229736728 0.0000000000
0.6512888716 0.1212696447 0.0000000000
0.6696788289 0.1197137958 0.0000000000
0.6875308448 0.1190973343 0.0000000000
0.7049391294 0.1182946692 0.0000000000
0.7209702669 0.1167724127 0.0000000000
0.7352682873 0.1140933594 0.0000000000
0.7516034694 0.1092240107 0.0000000000
0.7636554952 0.1040004153 0.0000000000
0.7729245409 0.0996804160 0.0000000000
0.0000000000 0.0797206119 0.0144636139
0.0258408898 0.0921634774 0.0161892652
0.0702837531 0.1009601832 0.0163860402
0.1135909646 0.1059400881 0.0172377699
0.1483939581 0.1111767229 0.0175598150
0.1786504846 0.1165632849 0.0174594080
0.2041576297 0.1214538411 0.0176147005
0.2322273913 0.1249306739 0.0163848798
0.2608988936 0.1282644147 0.0146149458
0.2895110218 0.1318391910 0.0125309222
0.3178239982 0.1356301465 0.0101945063
0.3452775051 0.1385052590 0.0078207224
0.3719947074 0.1403076715 0.0068531860
0.3982871873 0.1416189559 0.0066055130
0.4245072085 0.1429334251 0.0063724832
0.4506946805 0.1442594970 0.0060930618
0.4767970355 0.1446318152 0.0047608074
0.4988861552 0.1457970059 0.0026651538
0.5233167318 0.1470416901 0.0013850101
0.5483579719 0.1483514757 0.0004793821
0.5751854305 0.1496089573 0.0000000000
0.5999517006 0.1497853842 0.0000000000
0.6212057424 0.1488688935 0.0000000000
0.6433525634 0.1474615716 0.0000000000
0.6638140057 0.1458656274 0.0000000000
0.6823452081 0.1441999482 0.0000000000
0.6997323001 0.1439532915 0.0000000000
0.7172047189 0.1434913067 0.0000000000
0.7337010805 0.1428021819 0.0000000000
0.7484691446 0.1402487880 0.0000000000
0.7640660815 0.1358131109 0.0000000000
0.7759379351 0.1314297456 0.0000000000
0.7857967332 0.1274546361 0.0000000000
0.0000000000 0.0967149929 0.0162248767
0.0299545482 0.1087540745 0.0183206634
0.0742260643 0.1165794201 0.0179469813
0.1183575415 0.1223440237 0.0184875915
0.1535411920 0.1281426365 0.0186978937
0.1839348249 0.1339371620 0.0186241185
0.2116388365 0.1397078839 0.0182812872
0.2398206642 0.1435145169 0.0162928866
0.2685583006 0.1470822356 0.0138998774
0.2971950578 0.1508077576 0.0113120812
0.3254711224 0.1546735136 0.0085110486
0.3527171894 0.1584049051 0.0055153170
0.3796090787 0.1606223660 0.0045245455
0.4061463394 0.1621736435 0.0044177118
0.4325365082 0.1636172483 0.0043278049
0.4587355369 0.1649240848 0.0041962963
0.4847962207 0.1658911391 0.0038054594
0.5088086278 0.1677059915 0.0020460922
0.5334804136 0.1693730444 0.0007707298
0.5588817564 0.1710282565 0.0002218729
0.5861250492 0.1727659611 0.0000000000
0.6114500287 0.1733863544 0.0000000000
0.6331209354 0.1727218032 0.0000000000
0.6552276650 0.1714926795 0.0000000000
0.6759757281 0.1699842789 0.0000000000
0.6947075773 0.1685288506 0.0000000000
0.7114942271 0.1684837717 0.0000000000
0.7286358133 0.1682276767 0.0000000000
0.7455751141 0.1676773640 0.0000000000
0.7609611274 0.1663365818 0.0000000000
0.7755455967 0.1623870145 0.0000000000
0.7889009648 0.1585157753 0.0000000000
0.7993867542 0.1553864086 0.0000000000
0.0000000000 0.1152752790 0.0195064359
0.0258835526 0.1269317851 0.0207237669
0.0726556217 0.1346907342 0.0200756123
0.1175744696 0.1404919401 0.0199720944
0.1531172352 0.1463785293 0.0199980077
0.1839135944 0.1524150081 0.0198077162
0.2122092166 0.1585473954 0.0193100734
0.2412545968 0.1626199825 0.0175428837
0.2700839178 0.1662328964 0.0149975955
0.2988201960 0.1699889279 0.0123888223
0.3272520312 0.1738934087 0.0098148595
0.3548570000 0.1778844415 0.0074460387
0.3831076256 0.1810623451 0.0055781145
0.4101882480 0.1829943745 0.0051894309
0.4369645278 0.1847387006 0.0049237464
0.4636640239 0.1864385088 0.0046414816
0.4904651998 0.1882053557 0.0042834341
0.5151695460 0.1897672122 0.0020869956
0.5395252243 0.1915058135 0.0008278319
0.5646824619 0.1932005166 0.0001337974
0.5917703219 0.1949067298 0.0000000000
0.6182498263 0.1958764488 0.0000000000
0.6405508101 0.1956058929 0.0000000000
0.6626770984 0.1948275391 0.0000000000
0.6838023227 0.1937735911 0.0000000000
0.7030211714 0.1927524505 0.0000000000
0.7200465840 0.1928000662 0.0000000000
0.7370164729 0.1927616019 0.0000000000
0.7537442987 0.1924963636 0.0000000000
0.7694947533 0.1916835573 0.0000000000
0.7854528810 0.1883140489 0.0000000000
0.7991143663 0.1851236759 0.0000000000
0.8098893481 0.1826893133 0.0000000000
0.0000000000 0.1338217216 0.0224636081
0.0206143978 0.1452612795 0.0228556073
0.0693924004 0.1533119304 0.0223476584
0.1158957523 0.1593886240 0.0212075456
0.1517928367 0.1651095546 0.0208566554
0.1829564693 0.1711803401 0.0204121916
0.2117074333 0.1774654681 0.0196420812
0.2409071164 0.1816540692 0.0181442227
0.2704037155 0.1854514408 0.0163685161
0.2992309091 0.1891075244 0.0138016086
0.3278127328 0.1929406724 0.0113989091
0.3556428300 0.1969307620 0.0093482506
0.3843307850 0.2004383298 0.0077709149
0.4135720267 0.2036770783 0.0063312336
0.4408898370 0.2058118506 0.0056422982
0.4681777096 0.2079629384 0.0049929749
0.4958833744 0.2104761713 0.0042772336
0.5211076768 0.2119795020 0.0022380953
0.5449616209 0.2133307651 0.0009944545
0.5695823185 0.2149244830 0.0002346863
0.5964522608 0.2164966804 0.0000000000
0.6230462458 0.2177036163 0.0000000000
0.6469898885 0.2179599930 0.0000000000
0.6693496386 0.2176617179 0.0000000000
0.6908313985 0.2170814573 0.0000000000
0.7105758130 0.2165191223 0.0000000000
0.7276291077 0.2167357912 0.0000000000
0.7446145067 0.2168160302 0.0000000000
0.7611811162 0.2167573615 0.0000000000
0.7774293575 0.2162429223 0.0000000000
0.7947181066 0.2134770331 0.0000000000
0.8088506641 0.2108464386 0.0000000000
0.8197591259 0.2089184277 0.0000000000
0.0000000000 0.1518946290 0.0245873739
0.0164175871 0.1633884660 0.0245283461
0.0661596276 0.1713958720 0.0237307040
0.1129627239 0.1778474103 0.0227317206
0.1510380731 0.1840531243 0.0212196797
0.1823802737 0.1898486774 0.0202682932
0.2114598069 0.1960881812 0.0191033590
0.2407974956 0.2003239923 0.0178016139
0.2702984665 0.2041635574 0.0164157060
0.2998942236 0.2080984023 0.0150217405
0.3285849520 0.2117266792 0.0126102583
0.3565767494 0.2156140820 0.0106832563
0.3856364194 0.2193109071 0.0091545144
0.4153547043 0.2229377805 0.0076382923
0.4452288396 0.2268158760 0.0057554072
0.4730524218 0.2293344357 0.0045528009
0.5018253681 0.2324729316 0.0033080124
0.5272727390 0.2339806840 0.0017694866
0.5506818413 0.2350995251 0.0008417325
0.5744839547 0.2362857198 0.0002826483
0.6011789061 0.2376927093 0.0000000000
0.6278297136 0.2389035811 0.0000000000
0.6523140812 0.2397000004 0.0000000000
0.6762758043 0.2401934641 0.0000000000
0.6980939554 0.2400104822 0.0000000000
0.7183424807 0.2398146660 0.0000000000
0.7351907898 0.2402507852 0.0000000000
0.7521675911 0.2404197676 0.0000000000
0.7688147040 0.2404628225 0.0000000000
0.7855470689 0.2400794649 0.0000000000
0.8043223290 0.2379497215 0.0000000000
0.8187495907 0.2357698467 0.0000000000
0.8297531192 0.2341442382 0.0000000000
0.0000000000 0.1694731262 0.0259037835
0.0124430952 0.1813094508 0.0256609505
0.0628567773 0.1889568065 0.0243162905
0.1104395224 0.1956195436 0.0231048958
0.1489701479 0.2019501452 0.0213926775
0.1821949742 0.2080366188 0.0194770724
0.2114634850 0.2138351233 0.0175132708
0.2409466866 0.2181243481 0.0164501214
0.2705363176 0.2220607986 0.0154153701
0.3001510281 0.2260715557 0.0143509439
0.3296113573 0.2301311531 0.0132927960
0.3576944119 0.2338794704 0.0112939893
0.3871969662 0.2378671678 0.0095707221
0.4175270795 0.2420106735 0.0077958362
0.4479600765 0.2463743492 0.0056576498
0.4780760376 0.2507355066 0.0032537857
0.5087002864 0.2544106202 0.0016033377
0.5337183010 0.2558339801 0.0007931840
0.5567094932 0.2568872893 0.0002401613
0.5798109261 0.2577618334 0.0000435326
0.6060305574 0.2587477943 0.0000000000
0.6328758024 0.2599675364 0.0000000000
0.6576662888 0.2611540391 0.0000000000
0.6823799881 0.2621238690 0.0000000000
0.7054277683 0.2627581273 0.0000000000
0.7261826417 0.2628881912 0.0000000000
0.7429650535 0.2634562316 0.0000000000
0.7598235436 0.2637997339 0.0000000000
0.7764938981 0.2639614428 0.0000000000
0.7950367676 0.2635886341 0.0000000000
0.8140283991 0.2619309704 0.0000000000
0.8286641906 0.2603631819 0.0000000000
0.8399645075 0.2588323305 0.0000000000
0.0000000000 0.1860476925 0.0265199956
0.0026973962 0.1977553937 0.0256703693
0.0597813538 0.2052566264 0.0237906606
0.1086177745 0.2121168000 0.0219601077
0.1476489547 0.2186068279 0.0198092140
0.1813437141 0.2248475196 0.0174250041
0.2115884694 0.2308863987 0.0148664559
0.2413954116 0.2353487537 0.0140900590
0.2711920007 0.2394264118 0.0133822978
0.3009340267 0.2435394963 0.0126056913
0.3304190737 0.2476515935 0.0117573681
0.3589989922 0.2517062503 0.0107557362
0.3893140606 0.2562574116 0.0085168192
0.4204527113 0.2609924002 0.0061924416
0.4516052349 0.2658922969 0.0037498203
0.4825807629 0.2709092511 0.0015771420
0.5155215852 0.2757636884 0.0004359103
0.5397346538 0.2770295833 0.0002885537
0.5625361841 0.2779274280 0.0001327321
0.5855396080 0.2786742164 0.0000000000
0.6114289380 0.2793713974 0.0000000000
0.6383413626 0.2806818117 0.0000000000
0.6634778997 0.2821983307 0.0000000000
0.6888678224 0.2835271096 0.0000000000
0.7128177343 0.2846486462 0.0000000000
0.7340972617 0.2854037579 0.0000000000
0.7506079807 0.2859869004 0.0000000000
0.7676386102 0.2863770307 0.0000000000
0.7856346527 0.2866050577 0.0000000000
0.8048053685 0.2865547204 0.0000000000
0.8239365587 0.2852021440 0.0000000000
0.8389417338 0.2839278023 0.0000000000
0.8504280882 0.2828219328 0.0000000000
0.0000000000 0.2033627713 0.0284022514
0.0000000000 0.2146714427 0.0268548943
0.0547844464 0.2225133667 0.0248874478
0.1056695014 0.2298595816 0.0228177861
0.1457067029 0.2366692741 0.0205613779
0.1801480367 0.2432673142 0.0181294692
0.2114864592 0.2498456257 0.0156450566
0.2427733226 0.2546731140 0.0140465154
0.2729946665 0.2588920225 0.0133003591
0.3031118264 0.2631315887 0.0125583283
0.3330202748 0.2673698609 0.0116598526
0.3623065740 0.2716497297 0.0105593741
0.3924240645 0.2760644277 0.0082246129
0.4237448023 0.2810460569 0.0055620201
0.4549843449 0.2861307151 0.0028353623
0.4859389296 0.2912830751 0.0008847317
0.5195828921 0.2964416447 0.0000241885
0.5444788795 0.2981740034 0.0000000000
0.5672260171 0.2993310837 0.0000000000
0.5904896198 0.3003290001 0.0000000000
0.6170006726 0.3012647451 0.0000000000
0.6440243196 0.3024959582 0.0000000000
0.6690941150 0.3042301768 0.0000000000
0.6944155933 0.3057872471 0.0000000000
0.7185618296 0.3070784665 0.0000000000
0.7400837996 0.3081123980 0.0000000000
0.7570735889 0.3087675023 0.0000000000
0.7741464954 0.3093657717 0.0000000000
0.7935747320 0.3097162019 0.0000000000
0.8134207177 0.3100285057 0.0000000000
0.8329078692 0.3092811150 0.0000000000
0.8482682618 0.3084853386 0.0000000000
0.8601032512 0.3079351672 0.0000000000
0.0000000000 0.2211227652 0.0307837995
0.0000000000 0.2319668283 0.0285576688
0.0473590906 0.2399676489 0.0266741105
0.1022823461 0.2486951358 0.0247080871
0.1433979106 0.2557738736 0.0224916542
0.1789259890 0.2628339256 0.0202111765
0.2113479389 0.2699826338 0.0179044205
0.2434290582 0.2750805128 0.0161877803
0.2755492074 0.2797682989 0.0144171593
0.3061733847 0.2840949556 0.0133355986
0.3367146538 0.2884883252 0.0121874707
0.3667648881 0.2929772046 0.0108160381
0.3970861158 0.2974585065 0.0084501097
0.4274149755 0.3018770214 0.0052901302
0.4582184721 0.3068380904 0.0024963714
0.4886709240 0.3118367993 0.0006619344
0.5221898786 0.3168092150 0.0000200209
0.5476562014 0.3189735369 0.0000000000
0.5713161140 0.3207504604 0.0000000000
0.5949172441 0.3221391767 0.0000000000
0.6221339051 0.3235623440 0.0000000000
0.6496693050 0.3251351161 0.0000000000
0.6747891207 0.3267527033 0.0000000000
0.6996731347 0.3284556346 0.0000000000
0.7235208872 0.3298386242 0.0000000000
0.7449838976 0.3308702668 0.0000000000
0.7625077803 0.3317090122 0.0000000000
0.7804443967 0.3324741713 0.0000000000
0.8009463257 0.3330675891 0.0000000000
0.8211997442 0.3335256848 0.0000000000
0.8415820731 0.3338574051 0.0000000000
0.8572276951 0.3335921991 0.0000000000
0.8695325254 0.3335968287 0.0000000000
0.0000000000 0.2389411446 0.0327467149
0.0000000000 0.2493989128 0.0299527877
0.0382682524 0.2574145237 0.0278692870
0.0959516796 0.2667227552 0.0262024518
0.1414680810 0.2755015709 0.0243985034
0.1779330736 0.2828647530 0.0220670914
0.2113083467 0.2904772893 0.0198030629
0.2440631824 0.2957738839 0.0179936782
0.2768163626 0.3005969438 0.0160250231
0.3096818426 0.3054658542 0.0137591414
0.3408323429 0.3099890801 0.0122403010
0.3716126499 0.3146508342 0.0104463193
0.4020697816 0.3191405897 0.0079166839
0.4320846884 0.3234656186 0.0049222137
0.4612309374 0.3275782338 0.0020117671
0.4912727714 0.3324079103 0.0003135543
0.5247223917 0.3371683864 0.0000091183
0.5504632378 0.3396545224 0.0000000000
0.5749442667 0.3419779169 0.0000000000
0.5996645341 0.3440496672 0.0000000000
0.6275128617 0.3459356457 0.0000000000
0.6556108014 0.3478308950 0.0000000000
0.6805592754 0.3495580583 0.0000000000
0.7049676943 0.3509134113 0.0000000000
0.7285391880 0.3524047199 0.0000000000
0.7499390261 0.3534688474 0.0000000000
0.7676249743 0.3545781659 0.0000000000
0.7872729665 0.3554166122 0.0000000000
0.8085938268 0.3562572541 0.0000000000
0.8292702679 0.3569246712 0.0000000000
0.8502546165 0.3581270870 0.0000000000
0.8665224494 0.3586054010 0.0000000000
0.8793770419 0.3590550642 0.0000000000
0.0000000000 0.2570666059 0.0342159881
0.0000000000 0.2671217717 0.0309908389
0.0271932326 0.2749924242 0.0285314210
0.0889984181 0.2849882539 0.0270600186
0.1369812678 0.2944823735 0.0254652235
0.1770415414 0.3034165635 0.0235980706
0.2112355912 0.3113911952 0.0211490941
0.2447949796 0.3168734361 0.0190888211
0.2783085778 0.3218383673 0.0168675757
0.3118648122 0.3268509826 0.0143791808
0.3451559688 0.3318478082 0.0117749749
0.3767984304 0.3366868550 0.0093294315
0.4072797214 0.3411081842 0.0064923235
0.4368492469 0.3452424601 0.0036021390
0.4656568184 0.3492437698 0.0011934336
0.4938372734 0.3531845733 0.0000000000
0.5273331395 0.3577183339 0.0000000000
0.5533545956 0.3605194576 0.0000000000
0.5783250121 0.3631734131 0.0000000000
0.6041464955 0.3658294576 0.0000000000
0.6332621170 0.3684520091 0.0000000000
0.6616203694 0.3706258336 0.0000000000
0.6864341411 0.3723394259 0.0000000000
0.7108289378 0.3737366173 0.0000000000
0.7337126331 0.3748877707 0.0000000000
0.7550709352 0.3759925116 0.0000000000
0.7729563488 0.3772358921 0.0000000000
0.7941131744 0.3782919737 0.0000000000
0.8164636429 0.3791837003 0.0000000000
0.8376856543 0.3801343585 0.0000000000
0.8590992071 0.3818968932 0.0000000000
0.8762359275 0.3834785535 0.0000000000
0.8898669125 0.3842338983 0.0000000000
0.0000000000 0.2756259662 0.0349959521
0.0000000000 0.2852495378 0.0311192499
0.0190763607 0.2931201619 0.0283768101
0.0816649258 0.3040067310 0.0270729971
0.1326136914 0.3142455354 0.0255469484
0.1743696586 0.3238640269 0.0237524020
0.2107163330 0.3327777811 0.0215524599
0.2456680997 0.3386095533 0.0190748353
0.2803237055 0.3438209444 0.0163131803
0.3148840288 0.3490795982 0.0133049545
0.3491398020 0.3543240217 0.0102160224
0.3820623273 0.3594087557 0.0069916243
0.4125440818 0.3636261142 0.0038226311
0.4415066790 0.3673580947 0.0013561106
0.4698226313 0.3710213839 0.0000941470
0.4976137583 0.3747015191 0.0000000000
0.5302800659 0.3786228002 0.0000000000
0.5566004895 0.3818479240 0.0000000000
0.5821763927 0.3849499420 0.0000000000
0.6090086796 0.3880751214 0.0000000000
0.6392097488 0.3913806901 0.0000000000
0.6677704819 0.3939860261 0.0000000000
0.6922766700 0.3956737869 0.0000000000
0.7167809665 0.3970789390 0.0000000000
0.7397925150 0.3983052348 0.0000000000
0.7606902642 0.3994402419 0.0000000000
0.7787673670 0.4007105207 0.0000000000
0.8015372536 0.4018821926 0.0000000000
0.8246791125 0.4029814310 0.0000000000
0.8466084952 0.4042815034 0.0000000000
0.8686994660 0.4067386239 0.0000000000
0.8870817014 0.4089607186 0.0000000000
0.9011053788 0.4105877924 0.0000000000
0.0000000000 0.2886981938 0.0344496938
0.0000000000 0.2992504249 0.0292738083
0.0159347169 0.3076985429 0.0262128670
0.0742934232 0.3189811499 0.0247118935
0.1272507403 0.3291985256 0.0231012853
0.1704357177 0.3389499523 0.0213712776
0.2081065075 0.3481509663 0.0194066321
0.2445400540 0.3546187475 0.0166549624
0.2798909997 0.3600471710 0.0138403328
0.3148312596 0.3653524815 0.0108732997
0.3496545152 0.3707093672 0.0077667857
0.3834124279 0.3761031226 0.0046070879
0.4144976349 0.3802207117 0.0021275141
0.4437930358 0.3838728487 0.0005395328
0.4722591746 0.3875373063 0.0000124148
0.5001430303 0.3911159427 0.0000000000
0.5333974882 0.3947917394 0.0000000000
0.5604808600 0.3991353868 0.0000000000
0.5860030892 0.4025644105 0.0000000000
0.6131313796 0.4060883487 0.0000000000
0.6436453833 0.4099337337 0.0000000000
0.6728306846 0.4131010844 0.0000000000
0.6977576966 0.4152029249 0.0000000000
0.7221958308 0.4169048355 0.0000000000
0.7452957036 0.4182625751 0.0000000000
0.7662859270 0.4194183767 0.0000000000
0.7859942967 0.4207498492 0.0000000000
0.8086020215 0.4221943760 0.0000000000
0.8315224018 0.4232814392 0.0000000000
0.8536282071 0.4243726613 0.0000000000
0.8763452718 0.4270228355 0.0000000000
0.8948417023 0.4292119805 0.0000000000
0.9076867729 0.4307973777 0.0000000000
0.0000000000 0.3013731058 0.0336020578
0.0000000000 0.3130134399 0.0270382320
0.0122254374 0.3217969216 0.0236404500
0.0662062783 0.3334836009 0.0222291466
0.1218993777 0.3439012383 0.0205796966
0.1664818954 0.3536950158 0.0187131102
0.2051363698 0.3629373137 0.0167368945
0.2424549948 0.3695629460 0.0141593794
0.2791289867 0.3755837552 0.0112984170
0.3148913529 0.3812457354 0.0083147339
0.3501569290 0.3868044984 0.0050296318
0.3846235592 0.3926082515 0.0027454987
0.4160540864 0.3967778746 0.0011342251
0.4457236304 0.4001490829 0.0001479175
0.4745314501 0.4036188813 0.0000000000
0.5027752574 0.4072127894 0.0000000000
0.5364326769 0.4106951680 0.0000000000
0.5635849066 0.4153503183 0.0000000000
0.5898082490 0.4200200303 0.0000000000
0.6172975193 0.4239584498 0.0000000000
0.6481622247 0.4283667039 0.0000000000
