2. reversing the negative/print paper LUTs/color/LOGO GmbH, Steinfurt/127 lustre fuji crystal 16_1_color only.cube
LUT_3D_SIZE 5
0.0000000202 0.0000000185 0.0000000000
0.1931694706 0.0320711952 0.0024915570
0.3906337983 0.0434248580 0.0000282719
0.5737758076 0.0375750602 0.0000000000
0.7167503103 0.0007098484 0.0000000000
0.0000000000 0.1270993845 0.0288529529
0.2634069089 0.1852089036 0.0248447361
0.4879447270 0.2146525851 0.0157035311
0.6876387930 0.2210700804 0.0041627070
0.8514175860 0.2191061474 0.0000000000
0.0000000000 0.2664860374 0.0448660647
0.2735309989 0.3413578676 0.0297026180
0.5241234119 0.3858580521 0.0124626948
0.7459816561 0.4134636089 0.0000597345
0.9217819306 0.4145367871 0.0000000000
0.0000000000 0.4016109563 0.0482386440
0.2618093423 0.4900742602 0.0181605915
0.5499274150 0.5468742668 0.0001599456
0.7867222138 0.5821753711 0.0000000000
0.9899347333 0.5991577759 0.0000000000
0.0000000000 0.5141145606 0.0366068526
0.2373361185 0.6233456479 0.0000000001
0.5571373832 0.6964460138 0.0000000000
0.8313516441 0.7559400314 0.0000000000
1.0000000000 0.8052097654 0.0000000000
0.0000000000 0.0204582858 0.1769553482
0.1967424543 0.0578363197 0.1932306896
0.3954507299 0.0725617784 0.1966168447
0.5845083869 0.0658787554 0.1901257851
0.7428613774 0.0402312957 0.1965484724
0.0000000000 0.1897868569 0.2402558537
0.2500000000 0.2500000000 0.2500000000
0.4843017504 0.2797638709 0.2509203926
0.7047180573 0.2973441665 0.2496162863
0.8878888204 0.2971439065 0.2408259794
0.0000000000 0.3530624076 0.2697943897
0.2368194490 0.4300854394 0.2810484978
0.5163591459 0.4775371735 0.2791528931
0.7487994030 0.5028574205 0.2634726628
0.9547558653 0.5091574099 0.2589455622
0.0000000000 0.4885413921 0.2879823522
0.1815064446 0.5826258728 0.2873202211
0.5170589903 0.6473899425 0.2723702304
0.7816415034 0.6893519063 0.2625245355
0.9999999982 0.7100771554 0.2418586304
0.0000000000 0.5802690923 0.3045041631
0.0884536536 0.7005766518 0.2808878121
0.5090303500 0.7913095417 0.2661803038
0.8060705512 0.8588052824 0.2424450002
1.0000000000 0.9038625108 0.2097694141
0.0000000000 0.0139748559 0.3496423651
0.1981055909 0.0512699853 0.3711160999
0.3988210717 0.0668100788 0.3816691494
0.5885492580 0.0661254704 0.3862332716
0.7537564824 0.0340469825 0.3939705651
0.0000000000 0.2019567981 0.4267292930
0.2383308794 0.2661209603 0.4522795546
0.4807580220 0.3052573902 0.4646704542
0.7062740412 0.3196520447 0.4649048615
0.8946250963 0.3099471552 0.4625931249
0.0000000000 0.3831070718 0.4779168179
0.2011980458 0.4545562866 0.4917677613
0.5000000000 0.5000000000 0.5000000000
0.7454299379 0.5344248006 0.5014739999
0.9559375503 0.5349591436 0.4950691398
0.0000000000 0.5252955933 0.5075622952
0.0877517989 0.6220164942 0.5220949003
0.4878555580 0.6860067218 0.5251980769
0.7623453944 0.7286178466 0.5202014929
0.9999999977 0.7482124373 0.5080557490
0.0000000000 0.6124248134 0.5177233694
0.0000000000 0.7405742700 0.5328558414
0.4513242920 0.8355420821 0.5351289439
0.7725214073 0.9131798982 0.5296224181
1.0000000000 0.9672229432 0.5094903677
0.0000000000 0.0000000000 0.4816728153
0.2051252735 0.0339407366 0.5281752626
0.4016247936 0.0489077270 0.5423238637
0.5977310641 0.0419447654 0.5548093315
0.7602888455 0.0044319633 0.5625558743
0.0000000000 0.2050763558 0.5934484111
0.2309090199 0.2666205064 0.6268062212
0.4832518555 0.3044115303 0.6469363297
0.7063195568 0.3219443903 0.6550438687
0.8888873319 0.3191801715 0.6584987796
0.0000000000 0.3903615706 0.6458021735
0.1680299238 0.4704482730 0.6838278913
0.4900646331 0.5191195922 0.7039304405
0.7376178384 0.5515237576 0.7147037013
0.9640541318 0.5550347635 0.7165132819
0.0000000000 0.5459888256 0.6968918270
0.0024307976 0.6455732734 0.7279741332
0.4604246229 0.7087188681 0.7481954812
0.7500000000 0.7500000000 0.7500000000
1.0000000000 0.7816194651 0.7551029046
0.0000000000 0.6412757703 0.7250191185
0.0000000000 0.7680627998 0.7538395876
0.3904545438 0.8645894543 0.7723193369
0.7440129259 0.9488523963 0.7750410412
1.0000000000 0.9998757883 0.7726938807
0.0000000000 0.0000000000 0.5983440667
0.2159653788 0.0000000000 0.6547814214
0.4140437633 0.0000004602 0.6820607196
0.6043470317 0.0000000000 0.7003342338
0.7544553078 0.0000000000 0.7101167976
0.0000000000 0.2036011787 0.7319245018
0.2317588847 0.2560802286 0.7836192517
0.4878602297 0.3004375409 0.8162177014
0.7117648162 0.3138600020 0.8311265504
0.8967857342 0.3071282850 0.8387403229
0.0000000000 0.4020439198 0.8053793641
0.1506541725 0.4777912612 0.8701544692
0.4837577366 0.5228170716 0.9008541777
0.7384645083 0.5539791908 0.9139900116
0.9736006501 0.5767737076 0.9360308937
0.0000000000 0.5563828428 0.8668826524
0.0000000000 0.6598303652 0.9292789391
0.4357889862 0.7207059691 0.9569310727
0.7500681907 0.7818022281 0.9834747298
0.9929381306 0.8040264417 0.9857129442
0.0000000000 0.6501073109 0.8967030055
0.0000000000 0.7798809643 0.9571742895
0.3543003245 0.8802129011 0.9951409918
0.7129324254 0.9622121313 1.0000000000
0.9999995051 1.0000000000 1.0000000000
