2. reversing the negative/print paper LUTs/color/LOGO GmbH, Steinfurt/127 glossy fuji crystal 16_1_color only.cube
LUT_3D_SIZE 5
0.0007882148 0.0000000000 0.0000382143
0.2057784455 0.0256953470 0.0000000000
0.4041355998 0.0294618110 0.0000000000
0.5736284821 0.0143881871 0.0000000000
0.6923872751 0.0000000000 0.0000000000
0.0000000000 0.1338217216 0.0224636081
0.2704037155 0.1854514408 0.0163685161
0.4958833744 0.2104761713 0.0042772336
0.6908313985 0.2170814573 0.0000000000
0.8197591259 0.2089184277 0.0000000000
0.0000000000 0.2756259662 0.0349959521
0.2803237055 0.3438209444 0.0163131803
0.5302800659 0.3786228002 0.0000000000
0.7397925150 0.3983052348 0.0000000000
0.9011053788 0.4105877924 0.0000000000
0.0000000000 0.3830371195 0.0278075965
0.2661275758 0.4703429801 0.0000000000
0.5570225048 0.5220429215 0.0000000000
0.7795834546 0.5570146359 0.0000000000
0.9631568166 0.5713879554 0.0000000000
0.0000000000 0.4818881751 0.0143461624
0.2416621366 0.6025028211 0.0000000000
0.5567576784 0.6742717948 0.0000000000
0.8255724193 0.7352768137 0.0000000000
1.0000000000 0.7664785123 0.0000000000
0.0000000000 0.0097344114 0.1839756413
0.2032716248 0.0439877742 0.2018771473
0.4064977773 0.0489852282 0.2025935045
0.5833077075 0.0389128668 0.1972597890
0.7146776056 0.0080218424 0.2036325349
0.0000000000 0.1915999527 0.2385435072
0.2499994928 0.2500004185 0.2499988531
0.4899619925 0.2795036762 0.2542217137
0.6997536573 0.2892937776 0.2482076104
0.8540121196 0.2836957778 0.2455711207
0.0000000000 0.3533683970 0.2617550806
0.2240570454 0.4298384143 0.2727537944
0.5161130404 0.4788144471 0.2713244340
0.7492128666 0.5027088015 0.2581885702
0.9328797243 0.5091980525 0.2542881406
0.0000000000 0.4768902216 0.2807731586
0.1632970591 0.5754390359 0.2799229577
0.5136212489 0.6432997425 0.2694806862
0.7798017677 0.6852541049 0.2532244867
1.0000000000 0.7070811197 0.2406288317
0.0000000000 0.5593529417 0.2867361345
0.0595557348 0.6824660109 0.2780626258
0.5003766440 0.7757251692 0.2522804397
0.7951703179 0.8421015082 0.2189166410
1.0000000000 0.8790970503 0.1945340714
0.0000000000 0.0000093530 0.3593792395
0.2051506076 0.0301570665 0.3821771586
0.4044039065 0.0416438038 0.3947510806
0.5882139324 0.0233135754 0.4028356448
0.7192058717 0.0000000000 0.3971142364
0.0000000000 0.2070219992 0.4322654299
0.2331271429 0.2641330502 0.4549653779
0.4821227553 0.2935508649 0.4624361816
0.7019888655 0.3068586692 0.4655398022
0.8620575279 0.3009279093 0.4671050291
0.0000000000 0.3782870532 0.4771283461
0.1819592844 0.4594933000 0.4962142330
0.4999997551 0.5000010691 0.5000034519
0.7435420869 0.5336260409 0.5058986432
0.9340242322 0.5387527289 0.5054947483
0.0000000000 0.5099651707 0.5011919014
0.0446986871 0.6150454069 0.5168757429
0.4796582838 0.6782860126 0.5232823230
0.7596413510 0.7260413857 0.5191258450
0.9958038913 0.7568394664 0.5176285298
0.0000000000 0.5902833563 0.5076645701
0.0000000000 0.7216152540 0.5333843865
0.4350045848 0.8179282655 0.5265518765
0.7647465358 0.8926469276 0.5240724595
1.0000000000 0.9378149314 0.5092258963
0.0000000000 0.0000000000 0.4830840920
0.2095985998 0.0011378289 0.5198670372
0.4087442996 0.0177112774 0.5304072304
0.5906451560 0.0000000000 0.5468630488
0.7223314684 0.0000000000 0.5552862239
0.0000000000 0.2010299460 0.5794793815
0.2326938781 0.2617586199 0.6239430209
0.4834227259 0.2939411054 0.6413882995
0.7030070907 0.3050592318 0.6484337329
0.8651338121 0.2999267522 0.6535374584
0.0000000000 0.3894695395 0.6384617673
0.1500866061 0.4697725775 0.6882607612
0.4951825082 0.5238894310 0.7094692280
0.7383935410 0.5490543922 0.7131677330
0.9387592296 0.5616990413 0.7245668140
0.0000000000 0.5270494843 0.6795363030
0.0045602109 0.6384626511 0.7278830739
0.4606119704 0.7039580723 0.7396830604
0.7499984960 0.7500015022 0.7499972879
0.9855073398 0.7795637055 0.7505406663
0.0000000000 0.6109943257 0.7016260460
0.0000000000 0.7409253195 0.7346996463
0.3848872708 0.8469200098 0.7631304850
0.7402052663 0.9242321060 0.7684111332
1.0000000000 0.9754818184 0.7644494751
0.0000000000 0.0000000000 0.5826069601
0.2198457009 0.0000000000 0.6218809711
0.4162235596 0.0000000000 0.6561013720
0.5927014628 0.0000000000 0.6756476999
0.7333985156 0.0000000000 0.6886685751
0.0000000000 0.1946660950 0.7073976023
0.2340896796 0.2544744914 0.7673661371
0.4873482812 0.2827298193 0.7964127217
0.7073418363 0.2946161796 0.8150037382
0.8693820621 0.2884375687 0.8225351375
0.0000000000 0.3954598702 0.7910031818
0.1330558461 0.4712397451 0.8564829625
0.4855631493 0.5187778475 0.8857617570
0.7422463781 0.5528576392 0.9089236395
0.9363682516 0.5592901389 0.9164441952
0.0000000000 0.5379574268 0.8425893646
0.0000000000 0.6471409217 0.9123893418
0.4314569389 0.7171471260 0.9490926086
0.7438931943 0.7741896807 0.9658031611
0.9787382877 0.7988222977 0.9722448287
0.0000000000 0.6265793587 0.8708765742
0.0000000000 0.7564937641 0.9401784374
0.3540764943 0.8655606930 0.9775102695
0.7147336362 0.9443258815 0.9922455580
0.9999099163 0.9998667461 1.0000000000
