2. reversing the negative/print paper LUTs/color/LOGO GmbH, Steinfurt/152 lustre fuji crystal 16_1_color only.cube
LUT_3D_SIZE 33
0.0000000000 0.0001669302 0.0000223414
0.0278817440 0.0059139289 0.0002688348
0.0500436781 0.0108014138 0.0014274017
0.0801333369 0.0167532062 0.0003542864
0.1040510359 0.0211981307 0.0005842897
0.1261617259 0.0247766531 0.0010811427
0.1487363420 0.0280848969 0.0009522103
0.1753120172 0.0316272946 0.0004943336
0.2018387811 0.0346351374 0.0001294687
0.2263166511 0.0367823806 0.0000000000
0.2481580318 0.0379972655 0.0000000000
0.2669481477 0.0382564124 0.0000000000
0.2886613202 0.0396298754 0.0000000000
0.3145892943 0.0422016557 0.0000000000
0.3432056970 0.0443382792 0.0000000000
0.3742478879 0.0456360369 0.0000000000
0.4054725113 0.0459863629 0.0000000000
0.4269586900 0.0454972007 0.0000000000
0.4466696310 0.0444796150 0.0000000000
0.4673199633 0.0430039059 0.0000000000
0.4887702845 0.0411782464 0.0000000000
0.5113452141 0.0394658865 0.0000000000
0.5370657839 0.0390216230 0.0000000000
0.5608160649 0.0374808527 0.0000000000
0.5811635729 0.0355237784 0.0000000000
0.5984112524 0.0336360955 0.0000000000
0.6183696663 0.0303776060 0.0000000000
0.6375458881 0.0264619227 0.0000000000
0.6547820049 0.0220642796 0.0000000000
0.6703087957 0.0175646205 0.0000000000
0.6881783150 0.0151547965 0.0000000000
0.7035785529 0.0098368723 0.0000000000
0.7128674969 0.0049663730 0.0000000000
0.0009621108 0.0202893261 0.0047741582
0.0401032655 0.0289653854 0.0038112162
0.0621636009 0.0259442644 0.0002583066
0.0958883507 0.0293968454 0.0000148320
0.1220875216 0.0324240287 0.0000000000
0.1434802693 0.0355845719 0.0000000000
0.1648026045 0.0408738516 0.0000000000
0.1920373915 0.0443283552 0.0000000000
0.2199255699 0.0474470890 0.0000000000
0.2464332845 0.0509691954 0.0000000000
0.2697952584 0.0533627531 0.0000000000
0.2903990853 0.0545634372 0.0000000000
0.3124541088 0.0561929217 0.0000000000
0.3375008048 0.0583080687 0.0000000000
0.3644278724 0.0605846389 0.0000000000
0.3937100271 0.0623828627 0.0000000000
0.4223391623 0.0632051189 0.0000000000
0.4449490686 0.0630171931 0.0000000000
0.4671446774 0.0624066995 0.0000000000
0.4904941733 0.0617648269 0.0000000000
0.5144190672 0.0610721481 0.0000000000
0.5381997407 0.0605388761 0.0000000000
0.5624969827 0.0586735592 0.0000000000
0.5846251469 0.0568471073 0.0000000000
0.6038705427 0.0551880124 0.0000000000
0.6198837749 0.0538715162 0.0000000000
0.6404754498 0.0506543869 0.0000000000
0.6601706770 0.0466229324 0.0000000000
0.6780132287 0.0422713042 0.0000000000
0.6937561246 0.0388726848 0.0000000000
0.7096506733 0.0367502700 0.0000000000
0.7257928059 0.0358185175 0.0000000000
0.7444285703 0.0370747217 0.0000000000
0.0047833607 0.0337742438 0.0102068578
0.0355785885 0.0391020796 0.0119031524
0.0659138508 0.0489652111 0.0110419970
0.1019727355 0.0518373460 0.0096103417
0.1290343183 0.0550045113 0.0089572693
0.1512778832 0.0586315319 0.0086505611
0.1713625427 0.0630349968 0.0084489900
0.1994219543 0.0669614790 0.0082627525
0.2286172776 0.0705230236 0.0081862735
0.2558030179 0.0738247921 0.0081991386
0.2804644018 0.0766749941 0.0082814614
0.3024995047 0.0789891089 0.0083067481
0.3255391515 0.0811860815 0.0078261040
0.3505579560 0.0833313983 0.0068283957
0.3774462767 0.0853601968 0.0057218982
0.4053248728 0.0870325160 0.0047744150
0.4321198447 0.0882931979 0.0037266134
0.4549440768 0.0885738534 0.0026409382
0.4782889167 0.0884277544 0.0015355748
0.5030280086 0.0880155742 0.0006228792
0.5280294759 0.0873856226 0.0001461473
0.5525064326 0.0866261872 0.0001457123
0.5767344282 0.0862156601 0.0001297762
0.5991478310 0.0849662701 0.0001399459
0.6185744021 0.0834712128 0.0001564617
0.6355252290 0.0820048574 0.0001564617
0.6550193864 0.0795526307 0.0000659774
0.6740096668 0.0761529530 0.0000000000
0.6921090018 0.0717856198 0.0000000000
0.7088753807 0.0669061462 0.0000000000
0.7224202663 0.0658550158 0.0000000000
0.7368890999 0.0644156345 0.0000000000
0.7538724722 0.0620073974 0.0000000000
0.0038896273 0.0499830198 0.0123366245
0.0294017079 0.0590559796 0.0168647516
0.0629847159 0.0698035643 0.0179481886
0.1023751127 0.0735049315 0.0177680940
0.1306798413 0.0757845617 0.0170871037
0.1543691330 0.0792899224 0.0169754422
0.1763700096 0.0841661744 0.0171083294
0.2057718124 0.0882833045 0.0165689221
0.2360629650 0.0920217857 0.0157996145
0.2637199138 0.0950101313 0.0152964359
0.2890806904 0.0979502834 0.0151347438
0.3121906055 0.1007422170 0.0149672690
0.3359380637 0.1032219413 0.0144222343
0.3615221637 0.1055596527 0.0132017498
0.3889147126 0.1074425634 0.0119884912
0.4163199398 0.1092121718 0.0109686094
0.4429867511 0.1108629743 0.0102807163
0.4662880565 0.1112137079 0.0086990748
0.4900817820 0.1111288215 0.0068574545
0.5150193853 0.1109212790 0.0051052949
0.5398801891 0.1107914040 0.0037968364
0.5644513028 0.1106352733 0.0028088871
0.5893259331 0.1099651476 0.0029251209
0.6119753403 0.1092291075 0.0026802359
0.6315909846 0.1084070261 0.0028487621
0.6482948279 0.1076486125 0.0030654788
0.6690855951 0.1056561812 0.0017069787
0.6883931840 0.1029259666 0.0004852711
0.7063697859 0.0997885230 0.0000661219
0.7226835703 0.0965980460 0.0000000000
0.7379243113 0.0946277278 0.0000000000
0.7532597451 0.0932897689 0.0000000000
0.7711416274 0.0914468980 0.0000000000
0.0020246286 0.0656069214 0.0156689528
0.0240079613 0.0775262417 0.0206827907
0.0627213297 0.0884890359 0.0224145304
0.1013482140 0.0920254513 0.0226613205
0.1343700455 0.0966120896 0.0222444635
0.1593090012 0.0993787377 0.0219248499
0.1828574970 0.1041593110 0.0220040857
0.2124950540 0.1080955612 0.0215502919
0.2430531275 0.1120847440 0.0206043243
0.2720560411 0.1163932558 0.0192839156
0.2981255130 0.1191544765 0.0184060772
0.3223700638 0.1220840823 0.0176403261
0.3467645946 0.1246327326 0.0170337589
0.3721971499 0.1268092374 0.0163279468
0.3997854591 0.1293752644 0.0153562784
0.4268920472 0.1312075518 0.0140129621
0.4536172873 0.1329532470 0.0131096212
0.4773420389 0.1334007073 0.0117410525
0.5013047184 0.1334194357 0.0100747168
0.5261556798 0.1333206086 0.0081090107
0.5511302692 0.1332422325 0.0057899342
0.5757650861 0.1334532940 0.0044623532
0.6009346473 0.1331603374 0.0051198374
0.6241637178 0.1329700043 0.0060549466
0.6444888114 0.1324419634 0.0057342241
0.6611771024 0.1320849472 0.0059200984
0.6819248833 0.1306040263 0.0045855750
0.7017746112 0.1287999805 0.0032072448
0.7198860717 0.1262310506 0.0007351459
0.7361662878 0.1239429000 0.0000000000
0.7518267632 0.1218337209 0.0000000000
0.7674945653 0.1204952441 0.0000000000
0.7862524837 0.1190196380 0.0000000000
0.0000060239 0.0820617000 0.0198754343
0.0207094592 0.0938721409 0.0243251370
0.0643224818 0.1049213656 0.0256716289
0.1029624217 0.1088021529 0.0260560957
0.1356612381 0.1135018787 0.0259289462
0.1650500293 0.1187188849 0.0253859453
0.1898246031 0.1232680745 0.0251127461
0.2198562735 0.1272219150 0.0243695372
0.2503918099 0.1312144380 0.0232225433
0.2793418184 0.1354756533 0.0217459208
0.3069013939 0.1398503915 0.0199782749
0.3322845262 0.1429185910 0.0184074368
0.3574621036 0.1454364159 0.0173782162
0.3831029272 0.1476298666 0.0168470615
0.4100834404 0.1500561936 0.0161835513
0.4368692626 0.1526581861 0.0152835298
0.4637559284 0.1544788529 0.0138085669
0.4879063333 0.1550024253 0.0122896568
0.5120542299 0.1550830144 0.0106246026
0.5367160533 0.1550072427 0.0087548451
0.5614513747 0.1549532371 0.0065178611
0.5864488116 0.1551472043 0.0042851715
0.6119141487 0.1554410858 0.0051819967
0.6359916446 0.1556352701 0.0066447736
0.6566973138 0.1557728450 0.0077492735
0.6738027362 0.1555895592 0.0073309930
0.6943747031 0.1545845719 0.0057500402
0.7143408078 0.1531709249 0.0041964168
0.7326800259 0.1514240808 0.0026869634
0.7492681614 0.1494596918 0.0004410477
0.7645464418 0.1476481697 0.0000000000
0.7806163815 0.1461043974 0.0000000000
0.8006439843 0.1448135231 0.0000000000
0.0000000000 0.0988707839 0.0250772761
0.0229791131 0.1104218578 0.0281188939
0.0674042852 0.1200570707 0.0284912143
0.1069630689 0.1248298549 0.0286437259
0.1400934758 0.1301055838 0.0284899041
0.1696704973 0.1356729342 0.0280734859
0.1964908615 0.1413433568 0.0274376918
0.2269134493 0.1457708166 0.0260080326
0.2578988320 0.1500733248 0.0242706930
0.2873083640 0.1544830375 0.0223069405
0.3153443423 0.1588024315 0.0201286318
0.3417366914 0.1627156504 0.0180351044
0.3674581992 0.1655903914 0.0167786340
0.3932920142 0.1679423409 0.0161278032
0.4198921431 0.1704286381 0.0153547828
0.4466758824 0.1729272459 0.0143978645
0.4735920778 0.1752408088 0.0132865483
0.4978202141 0.1759020221 0.0115443659
0.5219840791 0.1760696363 0.0096185930
0.5467200630 0.1760039125 0.0074221651
0.5714283555 0.1757771298 0.0051513847
0.5962677416 0.1758246375 0.0033387308
0.6222452705 0.1768613382 0.0042331701
0.6470225480 0.1775163699 0.0055683111
0.6681563904 0.1779474580 0.0069096160
0.6857124009 0.1782391242 0.0076506130
0.7059987991 0.1776850921 0.0058313420
0.7257742419 0.1766382645 0.0040131735
0.7445403829 0.1751652111 0.0021818562
0.7614295641 0.1734456079 0.0002675993
0.7761799326 0.1721758351 0.0000000000
0.7929885239 0.1704717951 0.0000000000
0.8133538444 0.1685894927 0.0000000000
0.0000000000 0.1180636164 0.0298596448
0.0196394570 0.1292967356 0.0310569960
0.0668037185 0.1388391935 0.0310234848
0.1074742309 0.1442958293 0.0308942161
0.1409879826 0.1496349237 0.0307991937
0.1710815378 0.1554258935 0.0305680726
0.1988457689 0.1615947888 0.0302807362
0.2300624644 0.1661282279 0.0283997546
0.2611904861 0.1704196670 0.0264165950
0.2908138901 0.1747885664 0.0242854176
0.3190443525 0.1790300976 0.0221226033
0.3456423992 0.1829860538 0.0201350995
0.3726062618 0.1861976328 0.0184734284
0.3991583038 0.1886705467 0.0176015878
0.4257617475 0.1912050987 0.0166960150
0.4530395685 0.1938253673 0.0157963757
0.4809452924 0.1963469229 0.0149714749
0.5054068325 0.1977937629 0.0129268181
0.5294856096 0.1983113651 0.0108041633
0.5541101265 0.1986315182 0.0085660626
0.5788234445 0.1988463472 0.0062160737
0.6039868358 0.1992155430 0.0043873366
0.6310649618 0.2007152565 0.0048655937
0.6561576512 0.2017400635 0.0060537910
0.6776328003 0.2024228814 0.0074380429
0.6955591338 0.2029501308 0.0085793045
0.7158485200 0.2023156495 0.0061147745
0.7354175668 0.2015081159 0.0038574539
0.7537999554 0.2002346443 0.0018859752
0.7707020632 0.1987307853 0.0002488473
0.7861992958 0.1982914786 0.0000000000
0.8033302323 0.1973681956 0.0000000000
0.8243451608 0.1960904390 0.0000000000
0.0000000000 0.1372612390 0.0337606550
0.0160233832 0.1485152306 0.0332055832
0.0651296272 0.1582047959 0.0327956655
0.1067961472 0.1644854910 0.0327457106
0.1414201394 0.1701885733 0.0326682412
0.1720317500 0.1760427583 0.0324901608
0.2005071272 0.1826605510 0.0322953250
0.2318806444 0.1874095645 0.0307022451
0.2633402481 0.1916812858 0.0284584537
0.2930294220 0.1958654553 0.0262432133
0.3214157880 0.2000437927 0.0240413234
0.3481794853 0.2040305291 0.0220343024
0.3754138851 0.2073314432 0.0205865158
0.4033929392 0.2099461383 0.0194338451
0.4306757013 0.2125884011 0.0184028575
0.4584988052 0.2152324970 0.0173356607
0.4874889145 0.2178702257 0.0165593439
0.5120842336 0.2196570503 0.0146996315
0.5361748346 0.2212359007 0.0124144746
0.5607634695 0.2220452749 0.0098470749
0.5854309812 0.2228128866 0.0075273120
0.6107767993 0.2237544084 0.0056739803
0.6392950276 0.2255653921 0.0057318426
0.6648591530 0.2268661266 0.0064949245
0.6866787118 0.2277795180 0.0076728032
0.7049876496 0.2284685295 0.0088513913
0.7251238912 0.2278777378 0.0060472371
0.7442418495 0.2269193618 0.0034583160
0.7622373440 0.2257388563 0.0011085007
0.7790403320 0.2243691747 0.0001929941
0.7957647046 0.2250136940 0.0000000000
0.8134451896 0.2248596388 0.0000000000
0.8349713464 0.2248080484 0.0000000000
0.0000000000 0.1552940887 0.0366685850
0.0144597651 0.1672151368 0.0348033788
0.0638456933 0.1766860164 0.0335371172
0.1052798121 0.1835472263 0.0340450395
0.1426395133 0.1907612842 0.0340274911
0.1737465505 0.1966441852 0.0337069928
0.2027208323 0.2035837551 0.0333751713
0.2341763157 0.2084914885 0.0318901292
0.2654582820 0.2128042917 0.0298500658
0.2954179200 0.2171437909 0.0276361122
0.3239717919 0.2212863128 0.0252219068
0.3509065964 0.2252464120 0.0230291291
0.3783712930 0.2286259484 0.0215456996
0.4067707738 0.2313594763 0.0205914700
0.4356753027 0.2342303587 0.0194634262
0.4643324630 0.2369048598 0.0181595160
0.4943496809 0.2395277415 0.0171131818
0.5190475371 0.2415603441 0.0153166800
0.5429029428 0.2436062935 0.0131602319
0.5672866348 0.2455732873 0.0107346085
0.5921165041 0.2468352188 0.0079048728
0.6176809374 0.2483495244 0.0059493252
0.6467730666 0.2503783076 0.0060252631
0.6735980554 0.2519408578 0.0064666884
0.6958879190 0.2530513067 0.0068474047
0.7146068607 0.2538713169 0.0078056727
0.7344646474 0.2534606917 0.0050574171
0.7529467507 0.2522673722 0.0024750553
0.7706596483 0.2510119707 0.0000203226
0.7875362197 0.2497055058 0.0000000000
0.8051466131 0.2509668533 0.0000000000
0.8236364628 0.2522542126 0.0000000000
0.8457578557 0.2532042842 0.0000000000
0.0000000000 0.1718508118 0.0386589076
0.0136266492 0.1844724920 0.0358615856
0.0627973298 0.1938268282 0.0332802572
0.1046901472 0.2015330405 0.0340417710
0.1419613316 0.2095480527 0.0343359201
0.1761095563 0.2173723891 0.0341954065
0.2053942261 0.2243855175 0.0334103033
0.2368066265 0.2292637673 0.0319237317
0.2679986054 0.2335285361 0.0299659299
0.2978971115 0.2378230051 0.0278298277
0.3267152615 0.2420029514 0.0255689388
0.3538206119 0.2458160084 0.0230120552
0.3815339989 0.2491658333 0.0213306024
0.4102936102 0.2520288916 0.0204049610
0.4397615929 0.2550193347 0.0193645009
0.4703969366 0.2580533802 0.0181321709
0.5014379018 0.2606184736 0.0165214005
0.5260446884 0.2629409292 0.0146623586
0.5497402012 0.2653102007 0.0125045641
0.5739981001 0.2678717896 0.0101541962
0.5987048046 0.2701562290 0.0074486167
0.6246064889 0.2720677373 0.0049147425
0.6542362572 0.2743506919 0.0048881911
0.6816402360 0.2761581222 0.0051147771
0.7048511359 0.2774994700 0.0053427102
0.7241466362 0.2784777482 0.0053340246
0.7436582159 0.2780856344 0.0029324487
0.7618767595 0.2769437252 0.0004109874
0.7788976636 0.2754001169 0.0000022847
0.7966260692 0.2739656939 0.0000000000
0.8144532038 0.2758267963 0.0000000000
0.8336309907 0.2782583919 0.0000000000
0.8564143429 0.2803511062 0.0000000000
0.0000000000 0.1865385783 0.0399055311
0.0097658226 0.2001510615 0.0357253055
0.0620890487 0.2100286492 0.0322387566
0.1051304990 0.2185495081 0.0329487409
0.1427922128 0.2271565904 0.0332433907
0.1774115942 0.2356092575 0.0331063070
0.2081518573 0.2435360858 0.0324489899
0.2395751252 0.2484754044 0.0307895101
0.2707860506 0.2527038960 0.0287536997
0.3007343340 0.2569482219 0.0265475671
0.3296609963 0.2610582512 0.0241993132
0.3568893519 0.2648505287 0.0217895059
0.3850395087 0.2682876548 0.0199506646
0.4143121541 0.2712835331 0.0189213454
0.4443537359 0.2743788499 0.0177483806
0.4758913551 0.2774331515 0.0163271473
0.5080536398 0.2802888535 0.0147685409
0.5327078390 0.2831018421 0.0127309942
0.5563008513 0.2858545244 0.0103959343
0.5807048615 0.2887482290 0.0078817670
0.6055296137 0.2916658914 0.0053009232
0.6315885681 0.2941477380 0.0028615729
0.6616448874 0.2966429018 0.0025610151
0.6897172605 0.2986792876 0.0024454818
0.7135858952 0.3002473365 0.0024085105
0.7331837223 0.3014616723 0.0022346234
0.7522026898 0.3009420609 0.0011319441
0.7703427170 0.2997205946 0.0001445871
0.7878638794 0.2980864808 0.0000000000
0.8055480853 0.2967231955 0.0000000000
0.8236540128 0.2991254130 0.0000000000
0.8434564411 0.3022689851 0.0000000000
0.8665887097 0.3054665493 0.0000000000
0.0000000000 0.2033057812 0.0416372886
0.0046986165 0.2172570612 0.0371844448
0.0585342027 0.2276844097 0.0333578661
0.1032768423 0.2365977561 0.0337463651
0.1414612235 0.2454370286 0.0339769651
0.1763791797 0.2541358427 0.0338249013
0.2080505087 0.2623669078 0.0332623404
0.2411659684 0.2683044059 0.0316503136
0.2727224099 0.2727336331 0.0295638408
0.3029472741 0.2770779324 0.0273131530
0.3322864003 0.2813376360 0.0249725940
0.3603691872 0.2855982800 0.0227532459
0.3885058645 0.2892653869 0.0201565556
0.4181183693 0.2924140510 0.0189359088
0.4484963171 0.2956299649 0.0175140755
0.4803721445 0.2988363587 0.0157648248
0.5127593181 0.3019290828 0.0138969287
0.5382315285 0.3050662653 0.0117180419
0.5618768815 0.3081930737 0.0092706980
0.5864043733 0.3114121672 0.0066740994
0.6116762584 0.3145858333 0.0041144986
0.6380415995 0.3176438367 0.0018205215
0.6683410773 0.3204195444 0.0011151605
0.6965546109 0.3227095881 0.0007367126
0.7207611602 0.3244599183 0.0005459339
0.7405096084 0.3258520660 0.0003634405
0.7600895308 0.3254220617 0.0000522193
0.7782847044 0.3243221308 0.0000000000
0.7967069948 0.3227531915 0.0000000000
0.8145743466 0.3212642013 0.0000000000
0.8323534759 0.3234042944 0.0000000000
0.8518947583 0.3264679016 0.0000000000
0.8749299070 0.3300478760 0.0000000000
0.0000000000 0.2227572836 0.0438574162
0.0018106641 0.2366976917 0.0399278262
0.0515285287 0.2473003391 0.0368715579
0.0988720746 0.2563280809 0.0367022437
0.1375709751 0.2649839501 0.0367911933
0.1730409335 0.2736071792 0.0366201759
0.2054990213 0.2818965868 0.0360983124
0.2398357083 0.2883812512 0.0345760120
0.2733762785 0.2940222124 0.0325951594
0.3044115063 0.2987328343 0.0303497307
0.3345802123 0.3034394387 0.0281406539
0.3636993510 0.3082650625 0.0261044187
0.3925463644 0.3124083410 0.0236483103
0.4218871047 0.3160734741 0.0206402195
0.4520833946 0.3194331084 0.0188244297
0.4839539570 0.3228848604 0.0165663521
0.5160587278 0.3262815699 0.0141062960
0.5419024153 0.3296994961 0.0117377700
0.5663735533 0.3330992099 0.0092385644
0.5911286664 0.3364223607 0.0065208737
0.6168776538 0.3397136084 0.0040577858
0.6438715377 0.3428871267 0.0020575647
0.6746629277 0.3459538218 0.0008184892
0.7025990353 0.3484921123 0.0002665804
0.7265466264 0.3504565606 0.0000000000
0.7462304992 0.3519326825 0.0000000000
0.7669198967 0.3517263002 0.0000000000
0.7860622962 0.3509617426 0.0000000000
0.8055347708 0.3496986082 0.0000000000
0.8241653320 0.3482752033 0.0000000000
0.8410237895 0.3491615750 0.0000000000
0.8598515371 0.3517171329 0.0000000000
0.8815186120 0.3542108006 0.0000000000
0.0000000000 0.2431215752 0.0455740702
0.0000000000 0.2572553644 0.0428705432
0.0430916282 0.2678175012 0.0400957690
0.0924953347 0.2770106438 0.0400566890
0.1337710697 0.2856919549 0.0396171859
0.1696329600 0.2941306953 0.0392402661
0.2027994377 0.3024089582 0.0386212204
0.2379384306 0.3091643660 0.0372066998
0.2728799982 0.3156418465 0.0354761843
0.3063654232 0.3220133347 0.0335825435
0.3375739622 0.3271591513 0.0312846245
0.3677593292 0.3325008695 0.0292990261
0.3972281481 0.3370207992 0.0268158115
0.4262170407 0.3407179258 0.0235852886
0.4556091303 0.3446557633 0.0196487048
0.4875508708 0.3483473695 0.0166505966
0.5194496065 0.3520602851 0.0133472615
0.5454137067 0.3556507504 0.0109422276
0.5705676958 0.3591765910 0.0087645456
0.5962699885 0.3625588268 0.0062982758
0.6224696201 0.3657365979 0.0036830941
0.6503284108 0.3688109701 0.0017314385
0.6810245475 0.3717661425 0.0003843859
0.7088844967 0.3742172645 0.0000012418
0.7326505976 0.3762481579 0.0000000000
0.7522339008 0.3777761352 0.0000000000
0.7732633862 0.3778045679 0.0000000000
0.7949022704 0.3772362866 0.0000000000
0.8152641423 0.3764657225 0.0000000000
0.8349807776 0.3753888020 0.0000000000
0.8509815585 0.3757127846 0.0000000000
0.8678674543 0.3762793082 0.0000000000
0.8884409317 0.3777234856 0.0000000000
0.0000000000 0.2640132937 0.0464517477
0.0000000000 0.2784000794 0.0452669334
0.0325585562 0.2888148619 0.0428006107
0.0855480604 0.2981282090 0.0427016212
0.1280197590 0.3069527691 0.0422045724
0.1662291246 0.3153262372 0.0414347616
0.1999790669 0.3234295369 0.0404342347
0.2362560740 0.3307194978 0.0391273456
0.2722427489 0.3377847839 0.0375514888
0.3070705330 0.3450100268 0.0358834516
0.3412588477 0.3521274174 0.0341105626
0.3725702357 0.3575992191 0.0319481032
0.4022471732 0.3620157035 0.0290936431
0.4308911988 0.3654397973 0.0253205242
0.4601448115 0.3690923763 0.0207721100
0.4911427089 0.3728365534 0.0156485646
0.5229001125 0.3764639103 0.0110843258
0.5491284105 0.3798485376 0.0087195075
0.5747670704 0.3832809225 0.0066541490
0.6014261418 0.3867513069 0.0046783338
0.6287470241 0.3901631668 0.0025405785
0.6571212258 0.3934791873 0.0004860498
0.6877486416 0.3966444060 0.0000595758
0.7156616011 0.3994341518 0.0000000000
0.7390355399 0.4017035223 0.0000000000
0.7585744931 0.4036068322 0.0000000000
0.7801566531 0.4038631424 0.0000000000
0.8032472733 0.4034801803 0.0000000000
0.8256167152 0.4027246804 0.0000000000
0.8464377752 0.4019261580 0.0000000000
0.8615710558 0.4016911938 0.0000000000
0.8766129458 0.4008028195 0.0000000000
0.8957212682 0.4009999711 0.0000000000
0.0000000000 0.2847055294 0.0465468144
0.0000000000 0.2992008956 0.0463414694
0.0202502967 0.3095816802 0.0447652150
0.0782572167 0.3189228968 0.0444098572
0.1222058473 0.3278413342 0.0437371777
0.1613812274 0.3363303543 0.0427808200
0.1968842529 0.3442993797 0.0414866103
0.2346783599 0.3522248201 0.0402188361
0.2720834048 0.3595884530 0.0387303177
0.3081240325 0.3668296823 0.0371139565
0.3435436410 0.3738655036 0.0353553927
0.3770719168 0.3803188888 0.0335075992
0.4072247242 0.3850765451 0.0302392246
0.4354655406 0.3886190119 0.0256444825
0.4645869635 0.3923926374 0.0201768658
0.4957474714 0.3964325784 0.0140236625
0.5264641695 0.4005858254 0.0076005565
0.5530149113 0.4043388371 0.0053373121
0.5792125958 0.4081028568 0.0035777180
0.6067086861 0.4119528723 0.0018018089
0.6350488873 0.4157889919 0.0005880056
0.6639903037 0.4194979778 0.0000648017
0.6943782562 0.4229463273 0.0000000000
0.7224360540 0.4260091395 0.0000000000
0.7459949554 0.4285157057 0.0000000000
0.7652289941 0.4306084823 0.0000000000
0.7878322322 0.4310438259 0.0000000000
0.8120274561 0.4308947949 0.0000000000
0.8360481784 0.4303609487 0.0000000000
0.8578708879 0.4296319248 0.0000000000
0.8720070513 0.4285246598 0.0000000000
0.8862283136 0.4268467203 0.0000000000
0.9035352309 0.4252921151 0.0000000000
0.0000000000 0.3011446339 0.0463962865
0.0000000000 0.3162666955 0.0457692050
0.0085926780 0.3269550364 0.0444775704
0.0709655012 0.3363080402 0.0438324380
0.1164160370 0.3451583545 0.0430666334
0.1566691191 0.3535808861 0.0421281517
0.1934959206 0.3607766130 0.0409973710
0.2329008187 0.3683422927 0.0388586337
0.2709591779 0.3758430482 0.0371211133
0.3074837876 0.3830429851 0.0352995833
0.3432876452 0.3900943500 0.0333110210
0.3774802728 0.3969395603 0.0312002844
0.4089655027 0.4021883499 0.0277894389
0.4377064774 0.4060249228 0.0228553848
0.4670245382 0.4099996965 0.0172428654
0.4988242285 0.4142060603 0.0111299587
0.5301232018 0.4183957039 0.0052012293
0.5567057049 0.4225092776 0.0024380977
0.5829173491 0.4264985956 0.0014379632
0.6105667441 0.4306128622 0.0006516524
0.6391283165 0.4347411207 0.0000000000
0.6684307253 0.4388164047 0.0000000000
0.6994350956 0.4427860829 0.0000000000
0.7274791837 0.4461878533 0.0000000000
0.7512293339 0.4489323790 0.0000000000
0.7705947207 0.4511659901 0.0000000000
0.7947209335 0.4519201549 0.0000000000
0.8191495185 0.4520054339 0.0000000000
0.8435747210 0.4516245253 0.0000000000
0.8658464217 0.4509940783 0.0000000000
0.8801487061 0.4502041206 0.0000000000
0.8943486315 0.4487858918 0.0000000000
0.9125912763 0.4471088403 0.0000000000
0.0000000000 0.3170986206 0.0459374809
0.0000000000 0.3330591632 0.0446358910
0.0028514927 0.3441192984 0.0432863937
0.0619864197 0.3531623944 0.0426130914
0.1105167994 0.3614197788 0.0417759345
0.1518978151 0.3693638436 0.0407674882
0.1898889410 0.3763719649 0.0396702372
0.2303484031 0.3837967318 0.0374874982
0.2696011527 0.3913870194 0.0347175753
0.3064251157 0.3987457662 0.0324099908
0.3424758156 0.4060704779 0.0300158762
0.3770432763 0.4131496511 0.0274654076
0.4090720953 0.4186347666 0.0240328163
0.4389830350 0.4227265530 0.0190492367
0.4692202855 0.4268421390 0.0136943702
0.5016774961 0.4312292424 0.0075748780
0.5336960101 0.4356045532 0.0025594290
0.5603415435 0.4399609881 0.0010729268
0.5865534181 0.4443252724 0.0003191623
0.6142099080 0.4486546758 0.0000000000
0.6428201715 0.4530129398 0.0000000000
