2. reversing the negative/print paper LUTs/color/LOGO GmbH, Steinfurt/152 glossy fuji crystal 16_1_color only.cube
LUT_3D_SIZE 5
0.0009756376 0.0000000000 0.0000571752
0.1774988414 0.0277280198 0.0000000000
0.3900728177 0.0410526453 0.0000000000
0.5528699724 0.0275791602 0.0000000000
0.6862778073 0.0000000000 0.0000000000
0.0000496916 0.1294554144 0.0273163027
0.2561368134 0.1888896158 0.0304275912
0.4750836362 0.2137797716 0.0155748042
0.6679752467 0.2152690627 0.0020891601
0.8407870559 0.2412380872 0.0000000000
0.0000000000 0.2709250019 0.0420132884
0.2633923247 0.3346085598 0.0265023126
0.5227141391 0.3806449984 0.0014814346
0.7212835631 0.4017968246 0.0000000000
0.9058937756 0.4096386237 0.0000000000
0.0000000000 0.4084022427 0.0418652115
0.2547420910 0.4832528780 0.0060858969
0.5501653186 0.5386527832 0.0000000000
0.7905182902 0.5846346315 0.0000000000
0.9741638071 0.5820234322 0.0000000000
0.0000000000 0.5039293468 0.0380135742
0.2229093229 0.6011569546 0.0000000000
0.5509231782 0.6755062506 0.0000000000
0.8097752218 0.7387130593 0.0000000000
1.0000000000 0.7740054027 0.0000000000
0.0000000000 0.0166521707 0.1648836618
0.1848443775 0.0515502275 0.1853774325
0.3879200556 0.0643921501 0.1910520337
0.5709473908 0.0590293772 0.1907489272
0.7160002699 0.0263174514 0.1889085360
0.0000000000 0.2023707324 0.2470317012
0.2499988348 0.2499986309 0.2499995209
0.4752083664 0.2734760386 0.2480583544
0.6900784980 0.2946601205 0.2505938159
0.8553092287 0.2778779526 0.2370206330
0.0000000000 0.3549997103 0.2703609994
0.2339910252 0.4340308433 0.2779874208
0.5261827070 0.4870577529 0.2794193942
0.7342003746 0.4977916483 0.2665075709
0.9411158368 0.5048278341 0.2557104450
0.0000000000 0.4978631990 0.2953160711
0.1824634556 0.5747500447 0.2848776340
0.5171550765 0.6345338420 0.2718084818
0.7776204486 0.6841090154 0.2618169242
1.0000000000 0.7047695688 0.2390226004
0.0000000000 0.5666572116 0.2861938749
0.0656994043 0.6738840249 0.2802261460
0.4931658760 0.7666578908 0.2631708646
0.8087900734 0.8431287773 0.2446519317
1.0000000000 0.8821491507 0.2126172884
0.0000000000 0.0153522802 0.3313504313
0.1907942037 0.0470089354 0.3594356053
0.3798485896 0.0597982145 0.3658867976
0.5812835724 0.0667298619 0.3826084295
0.7304692246 0.0252717424 0.4002241859
0.0000000000 0.2111574410 0.4237907912
0.2317821410 0.2652962216 0.4466201025
0.4679390273 0.2905830268 0.4518550372
0.6905929243 0.3100607449 0.4605540284
0.8679510131 0.3101170572 0.4643989645
0.0000000000 0.3857777572 0.4715222696
0.2009864002 0.4617187748 0.4958124505
0.4999999850 0.5000034097 0.4999978035
0.7425674330 0.5401913858 0.5045388859
0.9400106113 0.5290781132 0.4904204029
0.0000000000 0.5223435593 0.5028413381
0.0855072902 0.6153132362 0.5177877239
0.4775874961 0.6751168492 0.5176888507
0.7548061766 0.7213055296 0.5072777197
0.9996207135 0.7517681723 0.5154892012
0.0000000000 0.6009757601 0.5076634528
0.0000000000 0.7290285946 0.5312504062
0.4426942570 0.8156212939 0.5219367208
0.7643253322 0.8913988300 0.5123566181
1.0000000000 0.9435584864 0.5206580081
0.0000000000 0.0000000000 0.4664598190
0.2080484472 0.0276117712 0.5145174619
0.4030789727 0.0401342733 0.5294681300
0.5865886292 0.0342987942 0.5312465001
0.7313860589 0.0000000000 0.5339054849
0.0000000000 0.2162983939 0.5806916721
0.2303809740 0.2644413500 0.6156685634
0.4870130010 0.3037033844 0.6429944021
0.7064919369 0.3268249026 0.6628183660
0.8665896746 0.3007712650 0.6477798761
0.0000000000 0.3849833847 0.6378016991
0.1581209438 0.4669814391 0.6779217641
0.4822298997 0.5152511611 0.7005534478
0.7333415534 0.5602708227 0.7173239159
0.9417068664 0.5421016068 0.7081339324
0.0000000000 0.5556858195 0.7031743723
0.0000000000 0.6277181297 0.7188034872
0.4742012804 0.7162633242 0.7446622043
0.7500003036 0.7500024095 0.7499978631
0.9946881187 0.7842546005 0.7495009942
0.0000000000 0.6220439279 0.7063187861
0.0000000000 0.7511825990 0.7496403537
0.3935143313 0.8466226917 0.7584656176
0.7284634444 0.9252114078 0.7636183765
1.0000000000 0.9755551068 0.7565200003
0.0000000000 0.0000000000 0.5757896368
0.2151233953 0.0000000000 0.6385073009
0.4041684684 0.0000000000 0.6606538531
0.5922068290 0.0000000000 0.6802346995
0.7374182100 0.0000000000 0.6899806583
0.0000000000 0.2029200509 0.7102490748
0.2265991142 0.2515647071 0.7585108018
0.5044686433 0.3076636892 0.7995728970
0.6893838239 0.2988401331 0.8047291544
0.8811549944 0.3094887197 0.8184311941
0.0000000000 0.4038747413 0.7888575046
0.1570897988 0.4887501457 0.8550816778
0.4922142538 0.5306322538 0.8829289200
0.7312325970 0.5442555077 0.8958109774
0.9536033335 0.5900339731 0.9195525292
0.0000000000 0.5473015422 0.8432111433
0.0000000000 0.6374333858 0.9019760088
0.4324786094 0.7127458209 0.9346512258
0.7426331523 0.7787272950 0.9608799199
0.9860554906 0.7947195004 0.9667029058
0.0000000000 0.6314924734 0.8714191094
0.0000000000 0.7598247404 0.9325023472
0.3475786868 0.8649325537 0.9690465780
0.7027141974 0.9466927697 0.9867547650
0.9998767923 0.9999177288 1.0000000000
