2. reversing the negative/print paper LUTs/color/LOGO GmbH, Steinfurt/152 glossy fuji crystal 16_1_color only.cube
LUT_3D_SIZE 33
0.0009756376 0.0000000000 0.0000571752
0.0242960562 0.0059056289 0.0006395235
0.0444011694 0.0096701696 0.0010179928
0.0685330275 0.0130435901 0.0004524377
0.0888700645 0.0162204838 0.0003271059
0.1075400259 0.0192686725 0.0001670467
0.1275284202 0.0223655353 0.0000000000
0.1533249899 0.0257079363 0.0000000000
0.1774988414 0.0277280198 0.0000000000
0.1983990144 0.0285239421 0.0000000000
0.2165707937 0.0285448472 0.0000000000
0.2403713007 0.0305650725 0.0000000000
0.2722931968 0.0345301041 0.0000000000
0.3096259555 0.0381024051 0.0000000000
0.3443682822 0.0404925891 0.0000000000
0.3703096916 0.0416399679 0.0000000000
0.3900728177 0.0410526453 0.0000000000
0.4046759765 0.0397530194 0.0000000000
0.4180036294 0.0381911312 0.0000000000
0.4329052493 0.0367101828 0.0000000000
0.4545318346 0.0365474959 0.0000000000
0.4807277814 0.0348017997 0.0000000000
0.5084859125 0.0320603329 0.0000000000
0.5297303764 0.0294515914 0.0000000000
0.5528699724 0.0275791602 0.0000000000
0.5745350207 0.0258634898 0.0000000000
0.5910475582 0.0238553628 0.0000000000
0.6026366714 0.0217367452 0.0000000000
0.6183032117 0.0181018966 0.0000000000
0.6366632603 0.0132470659 0.0000000000
0.6558444608 0.0071462822 0.0000000000
0.6736339232 0.0000000000 0.0000000000
0.6862778073 0.0000000000 0.0000000000
0.0079446194 0.0187941569 0.0026446010
0.0376831086 0.0259378468 0.0029705511
0.0621523077 0.0243931287 0.0002146792
0.0947731533 0.0271465662 0.0003523897
0.1170616718 0.0301286585 0.0003599070
0.1360308215 0.0350143351 0.0002938286
0.1560159695 0.0398031229 0.0002011890
0.1816632504 0.0414225658 0.0000813208
0.2056707504 0.0434667223 0.0000000000
0.2273081086 0.0456707761 0.0000000000
0.2460265790 0.0460824808 0.0000000000
0.2680181169 0.0473661249 0.0000000000
0.2960479134 0.0495351423 0.0000000000
0.3272065672 0.0517325937 0.0000000000
0.3545539243 0.0533232486 0.0000000000
0.3762068647 0.0539583484 0.0000000000
0.3995130074 0.0541330261 0.0000000000
0.4185007625 0.0543875720 0.0000000000
0.4368020165 0.0547391896 0.0000000000
0.4584193427 0.0555126015 0.0000000000
0.4782352775 0.0543794249 0.0000000000
0.5049821740 0.0527000643 0.0000000000
0.5303324374 0.0509979386 0.0000000000
0.5506042497 0.0495634328 0.0000000000
0.5772156301 0.0474815761 0.0000000000
0.6009172319 0.0446725881 0.0000000000
0.6175758407 0.0418991210 0.0000000000
0.6320760132 0.0389825534 0.0000000000
0.6463276884 0.0361097993 0.0000000000
0.6617019491 0.0327163584 0.0000000000
0.6792453305 0.0287608237 0.0000000000
0.6986790623 0.0242626151 0.0000000000
0.7194996597 0.0190980084 0.0000000000
0.0090225681 0.0295756805 0.0031561678
0.0306549573 0.0400101339 0.0080228271
0.0687285241 0.0481994662 0.0095571731
0.1040277422 0.0517709733 0.0098619399
0.1277977007 0.0560328168 0.0105663506
0.1474677240 0.0607011079 0.0113511371
0.1673065833 0.0649832721 0.0114829457
0.1942017853 0.0667336441 0.0106241153
0.2187909735 0.0680182226 0.0098054391
0.2408030710 0.0694607443 0.0091635117
0.2608107206 0.0711062219 0.0086567612
0.2842122582 0.0726704797 0.0072532731
0.3107809043 0.0741247137 0.0053956219
0.3404244546 0.0754942265 0.0034777368
0.3652619965 0.0765096467 0.0022535675
0.3844655599 0.0771567212 0.0015199803
0.4091896461 0.0776861793 0.0009905317
0.4295709875 0.0780655868 0.0008064001
0.4491002553 0.0784959751 0.0007417726
0.4701042931 0.0789050711 0.0006186129
0.4934929594 0.0787156073 0.0003911461
0.5213238190 0.0780172011 0.0000039786
0.5468122159 0.0767931124 0.0000000000
0.5675071714 0.0757304623 0.0000000000
0.5929869309 0.0743140220 0.0000000000
0.6167909309 0.0726422254 0.0000000000
0.6346230901 0.0704507270 0.0000000000
0.6488521554 0.0680948773 0.0000000000
0.6629885596 0.0656582458 0.0000000000
0.6789900895 0.0629341587 0.0000000000
0.6972492952 0.0592931193 0.0000000000
0.7179156347 0.0545147505 0.0000000000
0.7417557497 0.0486998845 0.0000000000
0.0099378197 0.0494038594 0.0090358138
0.0282380175 0.0608781427 0.0117101358
0.0665017380 0.0690338649 0.0132845427
0.1040974880 0.0727780641 0.0151194516
0.1284829359 0.0756761472 0.0159410215
0.1490032798 0.0797677531 0.0170244618
0.1699816116 0.0838739579 0.0177924183
0.1984387612 0.0868031459 0.0172327925
0.2256287217 0.0901679340 0.0163329072
0.2491693869 0.0919747787 0.0152749504
0.2708160434 0.0946757151 0.0147096990
0.2955055398 0.0967769703 0.0137164915
0.3250106231 0.0991386746 0.0118024502
0.3556072175 0.1012124518 0.0095808405
0.3815039367 0.1025570084 0.0075352988
0.4016476739 0.1037508663 0.0061440558
0.4267250915 0.1039110243 0.0051282491
0.4478050749 0.1039847510 0.0042945351
0.4689406853 0.1042351347 0.0034061991
0.4953944980 0.1048171837 0.0025919673
0.5170589559 0.1041607260 0.0019246068
0.5421870667 0.1033377324 0.0011866137
0.5676962807 0.1023395100 0.0004265375
0.5869900591 0.1016940345 0.0000117833
0.6115809697 0.1007880214 0.0000000000
0.6350039224 0.0995595002 0.0000000000
0.6535039974 0.0978340051 0.0000000000
0.6689883253 0.0960379157 0.0000000000
0.6836847961 0.0945858041 0.0000000000
0.6993992751 0.0927000236 0.0000000000
0.7182663471 0.0901169436 0.0000000000
0.7413262355 0.0865356189 0.0000000000
0.7679037975 0.0823782084 0.0000000000
0.0089043193 0.0634774075 0.0135184535
0.0271812500 0.0755396518 0.0141034354
0.0674068471 0.0837084258 0.0149352982
0.1035450853 0.0875881192 0.0173527525
0.1309715312 0.0918378765 0.0186215215
0.1520595604 0.0952546964 0.0195545296
0.1737435418 0.0992805831 0.0203834360
0.2024654542 0.1027181177 0.0201130043
0.2307888807 0.1074068975 0.0193919022
0.2570329583 0.1119295937 0.0183498295
0.2801146953 0.1148566344 0.0170482193
0.3057632364 0.1173969388 0.0160271855
0.3357259076 0.1197042341 0.0144045075
0.3675139941 0.1227407340 0.0123863306
0.3947043531 0.1248391548 0.0101748683
0.4154746306 0.1262150119 0.0082859131
0.4405546134 0.1262088756 0.0073153309
0.4622788141 0.1259475547 0.0063400952
0.4853554127 0.1258553802 0.0050318608
0.5139476477 0.1262612596 0.0030781222
0.5353451796 0.1258329424 0.0024500848
0.5597005719 0.1249885876 0.0017871692
0.5837480589 0.1240668547 0.0012849554
0.6013083699 0.1233146142 0.0004732077
0.6254067034 0.1228906317 0.0000478049
0.6492234244 0.1222305034 0.0000000000
0.6679137857 0.1212937768 0.0000000000
0.6840716048 0.1197795584 0.0000000000
0.6994529970 0.1192515817 0.0000000000
0.7160649792 0.1186681713 0.0000000000
0.7358833484 0.1177160230 0.0000000000
0.7609959915 0.1159864430 0.0000000000
0.7864851794 0.1131570202 0.0000000000
0.0068071409 0.0753259961 0.0169347107
0.0292334307 0.0878875194 0.0161793582
0.0699374430 0.0960869264 0.0159208711
0.1055991290 0.1003585833 0.0185652357
0.1324350139 0.1047361220 0.0201660259
0.1554709213 0.1089922013 0.0211970172
0.1777676809 0.1130106627 0.0217951700
0.2071422442 0.1172532672 0.0214160270
0.2358099060 0.1224191498 0.0206794270
0.2631238612 0.1279749456 0.0195961176
0.2882421960 0.1326936723 0.0183443575
0.3147841962 0.1356717944 0.0168233792
0.3453735224 0.1382021472 0.0151593333
0.3772780761 0.1412594806 0.0131279395
0.4056402165 0.1441912321 0.0110547473
0.4270342560 0.1459185075 0.0089848546
0.4527018355 0.1459038497 0.0076193872
0.4755486988 0.1453970402 0.0063723938
0.4999602648 0.1449246483 0.0050389085
0.5274199356 0.1449157888 0.0027814234
0.5495933206 0.1448053671 0.0021162674
0.5748913860 0.1441607497 0.0015685595
0.5970364303 0.1433244733 0.0012372358
0.6134958909 0.1426271339 0.0007197483
0.6369024967 0.1424106488 0.0001328506
0.6613024078 0.1421917132 0.0000065902
0.6804655589 0.1417009703 0.0000000000
0.6963088945 0.1407683920 0.0000000000
0.7122498047 0.1410030284 0.0000000000
0.7304460907 0.1415282665 0.0000000000
0.7519181427 0.1419493023 0.0000000000
0.7772411905 0.1421582638 0.0000000000
0.8015425968 0.1413688115 0.0000000000
0.0044985402 0.0886694274 0.0202256845
0.0311799667 0.1017932337 0.0187400908
0.0729840194 0.1103288702 0.0178541936
0.1086735648 0.1153653880 0.0205664657
0.1358235998 0.1202626150 0.0222946372
0.1593818995 0.1250809332 0.0234779954
0.1823862183 0.1287691731 0.0238545353
0.2125022511 0.1337497487 0.0231377956
0.2416017766 0.1393354224 0.0221808994
0.2690794675 0.1446656991 0.0209942781
0.2947995702 0.1494620628 0.0197357928
0.3224194776 0.1534899875 0.0181939293
0.3531898297 0.1564603878 0.0163258072
0.3855256863 0.1598330824 0.0141421047
0.4141182228 0.1629254224 0.0120384573
0.4361685979 0.1652111324 0.0101298004
0.4630568732 0.1656677529 0.0082266444
0.4878391666 0.1652247928 0.0066149469
0.5133526074 0.1646426204 0.0049468638
0.5387562898 0.1641289969 0.0031112046
0.5620700917 0.1643228899 0.0022299062
0.5881291764 0.1639560789 0.0016179371
0.6087927788 0.1632112199 0.0011606832
0.6245155827 0.1625344808 0.0007546766
0.6473590253 0.1623787520 0.0002650694
0.6720865711 0.1625062434 0.0000273140
0.6916318923 0.1622076950 0.0000000000
0.7071076826 0.1616209441 0.0000000000
0.7241038400 0.1629721924 0.0000000000
0.7424450099 0.1645690771 0.0000000000
0.7667685326 0.1663736637 0.0000000000
0.7914334108 0.1682703806 0.0000000000
0.8150183377 0.1701237013 0.0000000000
0.0029403089 0.1096254940 0.0245214527
0.0284140584 0.1232978394 0.0242058619
0.0722783964 0.1336574205 0.0243704313
0.1122918435 0.1418979329 0.0264417200
0.1410237234 0.1478184296 0.0280936678
0.1666038168 0.1540039668 0.0292399583
0.1915415397 0.1589262881 0.0296663700
0.2203142413 0.1604099664 0.0279793509
0.2488600355 0.1645764831 0.0267999720
0.2758288154 0.1683113352 0.0254924706
0.3010077918 0.1713811808 0.0242231186
0.3280653978 0.1746322397 0.0227247463
0.3583522358 0.1780757684 0.0207851289
0.3903712115 0.1815827580 0.0184866178
0.4186786531 0.1850853194 0.0164794476
0.4406051924 0.1880625947 0.0149948989
0.4699458331 0.1899372493 0.0120447948
0.4973273749 0.1900913433 0.0100987285
0.5233288290 0.1901738175 0.0082243689
0.5499378951 0.1904105853 0.0064293541
0.5746199933 0.1904809326 0.0048868355
0.5991079961 0.1902454662 0.0035771870
0.6192907129 0.1896100113 0.0027338408
0.6349329953 0.1888922222 0.0022208339
0.6574293298 0.1883711086 0.0012733794
0.6814611309 0.1883327134 0.0003067382
0.7005157447 0.1880615885 0.0000283114
0.7153732588 0.1874621101 0.0000000000
0.7344070122 0.1901175851 0.0000000000
0.7561906872 0.1942390951 0.0000000000
0.7795870661 0.1972641847 0.0000000000
0.8038357174 0.2010790113 0.0000000000
0.8278353725 0.2057497496 0.0000000000
0.0000496916 0.1294554144 0.0273163027
0.0263557429 0.1441735201 0.0292366576
0.0704510019 0.1551576363 0.0300382889
0.1161101587 0.1675289161 0.0317250695
0.1484615268 0.1758827797 0.0328399622
0.1755620905 0.1832806212 0.0336831329
0.2018549031 0.1893905007 0.0338912252
0.2294371783 0.1895488056 0.0323798813
0.2561368134 0.1888896158 0.0304275912
0.2826642891 0.1913096265 0.0287556598
0.3074833074 0.1929007589 0.0272437727
0.3340813891 0.1955751564 0.0258183733
0.3637723730 0.1997198591 0.0242823297
0.3952941034 0.2043733817 0.0222795296
0.4234018132 0.2081537673 0.0200766083
0.4452006589 0.2115500880 0.0186080532
0.4750836362 0.2137797716 0.0155748042
0.5069725852 0.2158000311 0.0126915680
0.5338226692 0.2164920083 0.0101539744
0.5618149066 0.2174498662 0.0078088120
0.5868382628 0.2175805861 0.0065426171
0.6095135930 0.2169475402 0.0054812458
0.6298013768 0.2163738071 0.0041434701
0.6455859011 0.2156433779 0.0035953111
0.6679752467 0.2152690627 0.0020891601
0.6905584439 0.2144566698 0.0010634090
0.7091513911 0.2140116106 0.0002136343
0.7235454010 0.2132432008 0.0000325601
0.7437530954 0.2164853370 0.0000000000
0.7675814874 0.2222453787 0.0000000000
0.7927007243 0.2290634265 0.0000000000
0.8168345801 0.2343751561 0.0000000000
0.8407870559 0.2412380872 0.0000000000
0.0000000000 0.1470140637 0.0288137561
0.0248244607 0.1631587129 0.0335104900
0.0693986524 0.1750266500 0.0342464306
0.1171784574 0.1899024788 0.0358089357
0.1556221010 0.2028159326 0.0362321478
0.1853833302 0.2123582906 0.0364563972
0.2122551902 0.2188777786 0.0362641790
0.2389466015 0.2174750594 0.0347171404
0.2650311083 0.2153485155 0.0327948435
0.2899103946 0.2128815727 0.0306896059
0.3141657498 0.2130695540 0.0287449186
0.3401464059 0.2155194357 0.0272690696
0.3693191324 0.2200883506 0.0259205444
0.4004421919 0.2255276674 0.0242853749
0.4280712754 0.2303854116 0.0224256062
0.4497733234 0.2340549564 0.0205497964
0.4818857238 0.2369455773 0.0172208900
0.5146508780 0.2395946937 0.0138632599
0.5441922917 0.2419137619 0.0105887159
0.5737150864 0.2434029523 0.0072789534
0.5971190668 0.2435384602 0.0060788482
0.6197319178 0.2429611213 0.0050474772
0.6398510155 0.2420261061 0.0042511952
0.6560333713 0.2412905397 0.0031262817
0.6780149745 0.2408175559 0.0017750759
0.7005030787 0.2399355077 0.0007098565
0.7174200234 0.2387413111 0.0001733172
0.7327079576 0.2376375894 0.0000281060
0.7534850810 0.2416502430 0.0000000000
0.7777293990 0.2484207361 0.0000000000
0.8031466886 0.2567367655 0.0000000000
0.8283612467 0.2655217631 0.0000000000
0.8536238784 0.2736967224 0.0000000000
0.0000000000 0.1623043358 0.0295764174
0.0203386212 0.1795013453 0.0356233682
0.0691855860 0.1934075422 0.0371958720
0.1201611934 0.2110233449 0.0381730012
0.1602008897 0.2259927772 0.0382380566
0.1937735609 0.2383511058 0.0378659222
0.2218958760 0.2455537840 0.0372506413
0.2479995651 0.2425732700 0.0355130151
0.2736501260 0.2389547072 0.0334307613
0.2982573031 0.2350820111 0.0312123294
0.3203646347 0.2317928849 0.0291125957
0.3459690412 0.2340890593 0.0275364092
0.3747195143 0.2389752036 0.0262207560
0.4055376357 0.2447196838 0.0246256170
0.4328323934 0.2501208326 0.0229598533
0.4542407030 0.2542731152 0.0212660569
0.4889253378 0.2580319933 0.0173318286
0.5223609485 0.2612349015 0.0133713643
0.5534132170 0.2642922446 0.0094327789
0.5846110541 0.2666515057 0.0054519340
0.6065257402 0.2667678042 0.0041957774
0.6292260572 0.2662072998 0.0030072053
0.6497050772 0.2652936570 0.0024658312
0.6659427599 0.2645623583 0.0019889575
0.6874956855 0.2637812890 0.0008369913
0.7095332925 0.2626210384 0.0002829862
0.7263152611 0.2611590519 0.0000806441
0.7422980892 0.2598365171 0.0000171449
0.7631312073 0.2645012404 0.0000000000
0.7875288953 0.2721737626 0.0000000000
0.8130903152 0.2815295742 0.0000000000
0.8389326591 0.2919581358 0.0000000000
0.8670544836 0.3019296381 0.0000000000
0.0000000000 0.1782748164 0.0315725238
0.0157313093 0.1961543107 0.0375609631
0.0661650727 0.2091406622 0.0388668119
0.1182923630 0.2273005897 0.0393605654
0.1586756799 0.2422061082 0.0390054126
0.1925986298 0.2544441562 0.0382227361
0.2236139304 0.2640742474 0.0372720417
0.2506872819 0.2615494895 0.0354684147
0.2766126180 0.2577294973 0.0333531687
0.3022562271 0.2545666403 0.0313448403
0.3257817220 0.2524625785 0.0295945475
0.3505070595 0.2527631368 0.0273569146
0.3790160957 0.2576604637 0.0259077331
0.4096056388 0.2633004180 0.0241298561
0.4367774809 0.2685647919 0.0223584661
0.4580270443 0.2727555545 0.0207391175
0.4942138340 0.2770549058 0.0168564361
0.5276238505 0.2805127900 0.0127681327
0.5590341174 0.2837804041 0.0088221480
0.5912473717 0.2868216595 0.0047682997
0.6124532225 0.2872066697 0.0028951972
0.6350467690 0.2868721242 0.0016382156
0.6557085902 0.2862390787 0.0010468864
0.6720491358 0.2857912679 0.0006438868
0.6955677968 0.2861792641 0.0002144321
0.7177956276 0.2853557645 0.0000000000
0.7366851001 0.2843963658 0.0000000000
0.7536086078 0.2836933269 0.0000000000
0.7729356496 0.2858860982 0.0000000000
0.7964860882 0.2934230459 0.0000000000
0.8213905963 0.3026160494 0.0000000000
0.8466723509 0.3124792418 0.0000000000
0.8757585745 0.3218489038 0.0000000000
0.0000000000 0.1963435274 0.0348012452
0.0114174373 0.2147499003 0.0396232848
0.0630316401 0.2277218012 0.0407757628
0.1132323424 0.2415356093 0.0393775402
0.1524194225 0.2547851369 0.0385809014
0.1854590766 0.2655099137 0.0374006186
0.2161967135 0.2740904132 0.0363151735
0.2468291756 0.2753400593 0.0347770285
0.2750020182 0.2741056238 0.0329933015
0.3023093005 0.2726567921 0.0312109243
0.3277568622 0.2725385792 0.0298135868
0.3536570745 0.2739491124 0.0278955947
0.3824550709 0.2775466192 0.0251998572
0.4129532204 0.2826136243 0.0229288013
0.4400875528 0.2872982299 0.0207823446
0.4613483510 0.2909702813 0.0189693551
0.4982124500 0.2954080963 0.0157658518
0.5309190951 0.2989035435 0.0122472763
0.5620001972 0.3022248686 0.0087512075
0.5940168127 0.3054702787 0.0054653301
0.6153341243 0.3063853297 0.0026146070
0.6378773248 0.3067090139 0.0010753873
0.6585218892 0.3065212143 0.0004445538
0.6749199450 0.3064454119 0.0001716509
0.7003304852 0.3081871129 0.0000000000
0.7264725182 0.3098671864 0.0000000000
0.7490155372 0.3102163040 0.0000000000
0.7676687727 0.3107166607 0.0000000000
0.7861540199 0.3124713502 0.0000000000
0.8057036656 0.3148244324 0.0000000000
0.8286371889 0.3219852249 0.0000000000
0.8524011583 0.3295882997 0.0000000000
0.8802358833 0.3359103102 0.0000000000
0.0000000000 0.2163240709 0.0376789144
0.0063997267 0.2353431205 0.0413034003
0.0591383476 0.2477654885 0.0418106757
0.1079098375 0.2582107825 0.0394624406
0.1451072281 0.2670881756 0.0373148999
0.1770745244 0.2761037900 0.0355317374
0.2076306423 0.2838406142 0.0341060259
0.2396709523 0.2869537640 0.0331585793
0.2731935569 0.2916480045 0.0321438022
0.3037140386 0.2933941766 0.0306246648
0.3308627198 0.2950261321 0.0292244961
0.3576863532 0.2971791233 0.0273012977
0.3862261181 0.3001573005 0.0244858524
0.4167548152 0.3032471064 0.0208718982
0.4438974997 0.3071746308 0.0179897279
0.4651920892 0.3101503364 0.0156414958
0.5027043563 0.3148087053 0.0130968673
0.5346089153 0.3188421021 0.0113497958
0.5652759757 0.3223258447 0.0082421405
0.5966488449 0.3258070974 0.0053989071
0.6181528401 0.3271308012 0.0022880134
0.6409486276 0.3283983189 0.0003847682
0.6616307989 0.3288870740 0.0000327544
0.6781117196 0.3291837935 0.0000000000
0.7045630662 0.3319096436 0.0000000000
0.7364129400 0.3365999742 0.0000000000
0.7635684479 0.3393354018 0.0000000000
0.7840162127 0.3414672320 0.0000000000
0.8015762659 0.3426679687 0.0000000000
0.8188029799 0.3434862732 0.0000000000
0.8363940759 0.3432306930 0.0000000000
0.8585715852 0.3478636327 0.0000000000
0.8850847388 0.3512153001 0.0000000000
0.0000000000 0.2344486110 0.0396640349
0.0022403923 0.2538802334 0.0423157793
0.0549800974 0.2653892324 0.0418632038
0.1031137248 0.2736897026 0.0389300736
0.1388999385 0.2793849854 0.0358875489
0.1693280294 0.2849921954 0.0331375806
0.1996141584 0.2919061233 0.0312129418
0.2337268716 0.2972117868 0.0306441463
0.2684990395 0.3035624020 0.0299506638
0.3040087609 0.3103451731 0.0290682210
0.3339920802 0.3149753114 0.0277931112
0.3615088325 0.3177030946 0.0255588709
0.3899958385 0.3202251682 0.0223772695
0.4204517535 0.3228339077 0.0184016017
0.4476099179 0.3251466622 0.0144217612
0.4689850015 0.3276208445 0.0114370962
0.5067247057 0.3325663485 0.0094783417
0.5384800195 0.3370119615 0.0082236528
0.5684985936 0.3411991344 0.0070114345
0.5990897333 0.3449401977 0.0043856405
0.6206405690 0.3467699786 0.0013204924
0.6437239994 0.3485777147 0.0000641389
0.6645590738 0.3500929472 0.0000000000
0.6811407195 0.3509030297 0.0000000000
0.7087939991 0.3548511540 0.0000000000
0.7444501137 0.3612498440 0.0000000000
0.7759426517 0.3669554299 0.0000000000
0.7982628732 0.3710926954 0.0000000000
0.8150001985 0.3716295588 0.0000000000
0.8304143673 0.3704064452 0.0000000000
0.8465505535 0.3677994886 0.0000000000
0.8648418011 0.3644822059 0.0000000000
0.8895498113 0.3647979998 0.0000000000
0.0000000000 0.2486218550 0.0407376009
0.0000000000 0.2680631074 0.0424668263
0.0510345608 0.2788347001 0.0412080598
0.0986342651 0.2845790886 0.0374337779
0.1338024265 0.2887539306 0.0338818772
0.1634171896 0.2925641566 0.0306581934
0.1929643052 0.2975113022 0.0282621541
0.2293248440 0.3052297380 0.0279420306
0.2659468185 0.3137742164 0.0273535385
0.3028270511 0.3222081222 0.0265055369
0.3354250559 0.3298033301 0.0254572915
0.3644196442 0.3340208589 0.0231411702
0.3930172989 0.3362854844 0.0194907378
0.4235382362 0.3385768922 0.0149740167
0.4507621658 0.3406258676 0.0106573935
0.4725581821 0.3422617731 0.0069812652
0.5100478270 0.3475053770 0.0056076550
0.5415379013 0.3520381861 0.0047852882
0.5715943586 0.3562577175 0.0038825235
0.6012599260 0.3603638426 0.0023819544
0.6226686692 0.3625451584 0.0003142216
0.6458569483 0.3648324097 0.0000641389
0.6670530030 0.3668407371 0.0000000000
0.6837191062 0.3683339580 0.0000000000
0.7126577806 0.3737661006 0.0000000000
0.7522059488 0.3821624296 0.0000000000
0.7849283961 0.3895872312 0.0000000000
0.8089295003 0.3954465283 0.0000000000
0.8249472870 0.3951251753 0.0000000000
0.8387512826 0.3919039025 0.0000000000
0.8538081015 0.3869530359 0.0000000000
0.8724390021 0.3809520469 0.0000000000
0.8931786217 0.3759538760 0.0000000000
0.0000000000 0.2709250019 0.0420132884
0.0000000000 0.2882062796 0.0418285126
0.0373528419 0.2980605868 0.0402570024
0.0887410635 0.3042331806 0.0367431180
0.1261505892 0.3088352135 0.0335096952
0.1573284012 0.3131063930 0.0307377551
0.1883195229 0.3180639008 0.0284608955
0.2265692502 0.3259782989 0.0273266839
0.2633923247 0.3346085598 0.0265023126
0.3006157226 0.3434330495 0.0254211872
0.3342608209 0.3514274162 0.0242783791
0.3663452548 0.3580960483 0.0215073977
0.3984368923 0.3634495211 0.0170480245
0.4301832794 0.3671841124 0.0122115330
0.4597907810 0.3711151696 0.0076489523
0.4853169884 0.3745788736 0.0037882370
0.5227141391 0.3806449984 0.0014814346
0.5543439959 0.3858336697 0.0009114133
0.5844169653 0.3903227838 0.0004133007
0.6116225059 0.3940858069 0.0000000000
0.6325413154 0.3944772845 0.0000000000
0.6553187359 0.3959893517 0.0000000000
0.6760979684 0.3969003733 0.0000000000
0.6922689295 0.3969451536 0.0000000000
0.7212835631 0.4017968246 0.0000000000
0.7611677825 0.4100111941 0.0000000000
0.7927561745 0.4172937355 0.0000000000
0.8157909034 0.4229932643 0.0000000000
0.8327250535 0.4239386666 0.0000000000
0.8478850230 0.4221582337 0.0000000000
0.8643280497 0.4185785440 0.0000000000
0.8841514550 0.4137985352 0.0000000000
0.9058937756 0.4096386237 0.0000000000
0.0000000000 0.2906251230 0.0426253545
0.0000000000 0.3046936042 0.0407078350
0.0218339398 0.3142552946 0.0387974934
0.0788274885 0.3217820996 0.0362494002
0.1191964259 0.3273964557 0.0335027048
0.1516676489 0.3323334721 0.0308421310
0.1838825715 0.3379792519 0.0287497247
0.2232780492 0.3464552086 0.0275497731
0.2615328719 0.3545826611 0.0259642050
0.2990965707 0.3630591740 0.0244849538
0.3333641590 0.3712144586 0.0230112780
0.3664639611 0.3788159770 0.0200103532
0.4007005619 0.3865905185 0.0152491947
0.4373499348 0.3955529841 0.0096412892
0.4689679652 0.4013301744 0.0048570988
0.4981981455 0.4065447158 0.0012812995
0.5348687962 0.4123650638 0.0000020010
0.5655408003 0.4170354510 0.0000000000
0.5959486773 0.4219983461 0.0000000000
0.6217056343 0.4258072392 0.0000000000
0.6423563118 0.4255284022 0.0000000000
0.6637874357 0.4233063737 0.0000000000
0.6842158902 0.4229995848 0.0000000000
0.7002646652 0.4220827864 0.0000000000
0.7301187498 0.4267674285 0.0000000000
0.7689468953 0.4340230943 0.0000000000
0.7989410643 0.4404557275 0.0000000000
0.8211059617 0.4457122550 0.0000000000
0.8381186313 0.4471861454 0.0000000000
0.8545111594 0.4467468831 0.0000000000
0.8739176049 0.4462587143 0.0000000000
0.8946475833 0.4432982019 0.0000000000
0.9179024021 0.4407681812 0.0000000000
0.0000000000 0.3086831458 0.0429032185
0.0000000000 0.3207741851 0.0398473083
0.0140834761 0.3300819135 0.0372632100
0.0681137407 0.3393810379 0.0355287124
0.1116059725 0.3463389702 0.0334151598
0.1459167180 0.3519745639 0.0309597814
0.1791074683 0.3579299096 0.0286993850
0.2198029789 0.3662037220 0.0273400098
0.2589407040 0.3747383713 0.0256039186
0.2975160850 0.3828945890 0.0235621781
0.3324615600 0.3909638475 0.0216124924
0.3666703981 0.3994094642 0.0182550562
0.4025433886 0.4087513631 0.0131497214
0.4415098599 0.4199745935 0.0071885105
0.4775866297 0.4304232650 0.0019364086
0.5099883371 0.4372565996 0.0002268405
0.5466909062 0.4427667529 0.0000000000
0.5775601572 0.4470309451 0.0000000000
0.6051825064 0.4510162603 0.0000000000
0.6312467664 0.4550641934 0.0000000000
0.6515104136 0.4538798089 0.0000000000
