2. reversing the negative/print paper LUTs/color/LOGO GmbH, Steinfurt/152 lustre fuji crystal 16_1_color only.cube
LUT_3D_SIZE 5
0.0000000000 0.0001669302 0.0000223414
0.2018387811 0.0346351374 0.0001294687
0.4054725113 0.0459863629 0.0000000000
0.5811635729 0.0355237784 0.0000000000
0.7128674969 0.0049663730 0.0000000000
0.0000000000 0.1372612390 0.0337606550
0.2633402481 0.1916812858 0.0284584537
0.4874889145 0.2178702257 0.0165593439
0.6866787118 0.2277795180 0.0076728032
0.8349713464 0.2248080484 0.0000000000
0.0000000000 0.2847055294 0.0465468144
0.2720834048 0.3595884530 0.0387303177
0.5264641695 0.4005858254 0.0076005565
0.7459949554 0.4285157057 0.0000000000
0.9035352309 0.4252921151 0.0000000000
0.0000000000 0.4122619191 0.0412823779
0.2588744435 0.5037197267 0.0167475041
0.5600222211 0.5632595028 0.0000000000
0.7924474056 0.5990791997 0.0000000000
0.9928084436 0.6160718809 0.0000000000
0.0000000000 0.5143500394 0.0421101392
0.2325887324 0.6272146407 0.0000000000
0.5597339764 0.7010309734 0.0000000000
0.8303143368 0.7621092592 0.0000000000
1.0000000000 0.8065788980 0.0000000000
0.0000000000 0.0170913929 0.1749501774
0.2027638472 0.0542476265 0.1953981942
0.4022304252 0.0665395065 0.1957752255
0.5903639917 0.0611225183 0.1940373095
0.7374909325 0.0352226205 0.1960610873
0.0000000000 0.1891377141 0.2361992948
0.2499997555 0.2500004985 0.2500000277
0.4842509711 0.2787082961 0.2462155549
0.7035819031 0.2974331751 0.2493348574
0.8640270458 0.2879891999 0.2404550236
0.0000000000 0.3610750823 0.2719697132
0.2343078617 0.4336498619 0.2759849792
0.5220946772 0.4846463767 0.2751760293
0.7515247367 0.5082443840 0.2606121703
0.9393338027 0.5105809306 0.2581281749
0.0000000000 0.4910727010 0.2863850500
0.1854276374 0.5821690607 0.2834707236
0.5195369089 0.6495331757 0.2722230979
0.7840531481 0.6906767534 0.2572966909
1.0000000000 0.7080873887 0.2377361380
0.0000000000 0.5742241424 0.2920918562
0.0923270848 0.6916338191 0.2857342532
0.5152965135 0.7895589499 0.2651079667
0.8091193529 0.8567446685 0.2388278033
1.0000000000 0.8934728206 0.1960757780
0.0000000000 0.0143198765 0.3554085838
0.2026445323 0.0509416494 0.3734946463
0.4035562388 0.0663052680 0.3915064678
0.5937792928 0.0642749381 0.4008773099
0.7511076565 0.0316715315 0.4031820894
0.0000000000 0.2024346288 0.4353372567
0.2370444771 0.2640462005 0.4552235417
0.4737271536 0.3030513253 0.4700874698
0.7034936890 0.3127056447 0.4662644565
0.8718498544 0.3073399526 0.4634783088
0.0000000000 0.3907211938 0.4849628790
0.2016239369 0.4575002868 0.4910592137
0.5000026315 0.5000003681 0.5000090038
0.7428055824 0.5364110009 0.5050586757
0.9364513417 0.5361192389 0.4952159314
0.0000000000 0.5269990652 0.5118312923
0.0915012647 0.6223767113 0.5208305796
0.4914453047 0.6884567080 0.5283926738
0.7656246013 0.7300542328 0.5184167301
1.0000000000 0.7459943978 0.5179855553
0.0000000000 0.6087323046 0.5148511641
0.0000000000 0.7328228313 0.5388739782
0.4558823653 0.8289756776 0.5321559053
0.7782104845 0.9114920722 0.5300134310
1.0000000000 0.9549304920 0.5131747056
0.0000000000 0.0000000000 0.4853194150
0.2133098932 0.0304304270 0.5305327249
0.4060753887 0.0445043920 0.5460972769
0.6035015484 0.0362477915 0.5583040345
0.7566709299 0.0003535718 0.5650064996
0.0000000000 0.2052582657 0.5926054022
0.2346998315 0.2637690699 0.6252775127
0.4806014327 0.3024500173 0.6451053628
0.7054526846 0.3173500350 0.6550138807
0.8662376611 0.3118290236 0.6576969936
0.0000000000 0.3946685748 0.6448785182
0.1692649856 0.4728838713 0.6865481004
0.4900257649 0.5221515201 0.7087001706
0.7404357908 0.5586227284 0.7225709072
0.9423543372 0.5569158770 0.7217620286
0.0000000000 0.5452811369 0.6988909376
0.0261549617 0.6431970552 0.7289494989
0.4637734420 0.7076406204 0.7480632900
0.7499992722 0.7500017951 0.7499962876
0.9899888402 0.7808753629 0.7496489355
0.0000000000 0.6369171859 0.7226348235
0.0000000000 0.7615944372 0.7542816388
0.3972773375 0.8597116124 0.7735686000
0.7523605640 0.9454478491 0.7722331551
1.0000000000 0.9883299529 0.7718360272
0.0000000000 0.0000000000 0.5981916325
0.2210741955 0.0000000000 0.6515287584
0.4216088567 0.0082763519 0.6889442209
0.6100874436 0.0000000000 0.7047160366
0.7501648577 0.0000000000 0.7118231151
0.0000000000 0.1985608891 0.7242111269
0.2339637275 0.2570536988 0.7759985491
0.4934198114 0.2983916292 0.8136408468
0.7075784119 0.3075503890 0.8249752909
0.8727186435 0.3028904735 0.8336427897
0.0000000000 0.4059176922 0.8036464985
0.1549863338 0.4858935536 0.8680057871
0.4855879919 0.5269521079 0.8989859356
0.7389225807 0.5572901739 0.9112750946
0.9523009548 0.5838541288 0.9255953327
0.0000000000 0.5526428449 0.8596899932
0.0000000000 0.6568648092 0.9192365636
0.4409812789 0.7204504685 0.9496643257
0.7536794458 0.7889291731 0.9739993870
0.9735684530 0.7973705996 0.9749724448
0.0000000000 0.6488859043 0.8911348235
0.0000000000 0.7735146504 0.9451746719
0.3654129333 0.8713029148 0.9786790502
0.7201244725 0.9546804305 0.9954324005
0.9999384153 0.9998994010 1.0000000000
