2. reversing the negative/print paper LUTs/color/LOGO GmbH, Steinfurt/305 glossy fuji supreme 16_1_color only.cube
LUT_3D_SIZE 33
0.0000000000 0.0000859157 0.0000661240
0.0267078389 0.0040294964 0.0017453132
0.0499621027 0.0108624733 0.0025579791
0.0756287538 0.0135644507 0.0014971807
0.0961619835 0.0164209516 0.0011335043
0.1150792824 0.0193736439 0.0007035770
0.1334788487 0.0223659435 0.0001000089
0.1602332659 0.0270839755 0.0011150848
0.1841443874 0.0302164860 0.0021651493
0.2058121582 0.0319913482 0.0031989918
0.2236454432 0.0328603773 0.0043672747
0.2454783961 0.0347807392 0.0046379071
0.2760401622 0.0385774052 0.0035707406
0.3137774764 0.0422461248 0.0025836081
0.3503305916 0.0447927594 0.0017046353
0.3766375354 0.0458218498 0.0008195496
0.3980020620 0.0457015102 0.0007631685
0.4112433633 0.0447627504 0.0010023355
0.4226326509 0.0436615037 0.0010899819
0.4344937780 0.0425156029 0.0009785500
0.4549156861 0.0429431429 0.0002006335
0.4777153634 0.0425449589 0.0000000000
0.5006150427 0.0412753341 0.0000000000
0.5204678797 0.0397688519 0.0000000000
0.5415243982 0.0372774595 0.0000000000
0.5664595975 0.0333229002 0.0000000000
0.5847205259 0.0314355153 0.0000000000
0.5980445037 0.0309828574 0.0000000000
0.6113541458 0.0283643815 0.0000000000
0.6291945862 0.0207273528 0.0000000000
0.6481475015 0.0172003031 0.0000000000
0.6639412891 0.0146382998 0.0000000000
0.6719729796 0.0082193941 0.0000000000
0.0043943928 0.0200044049 0.0055006800
0.0394271346 0.0272892931 0.0051161653
0.0636676748 0.0258072038 0.0016790932
0.0967773621 0.0290608410 0.0017252086
0.1193160829 0.0321406236 0.0016467898
0.1376490129 0.0365432684 0.0014808146
0.1550599651 0.0419331766 0.0012993197
0.1818174744 0.0440345768 0.0013072007
0.2079690532 0.0463643012 0.0011536749
0.2303378197 0.0484716887 0.0008119582
0.2486236930 0.0491394074 0.0007542268
0.2686332187 0.0505143782 0.0006209120
0.2946145760 0.0530287363 0.0004185148
0.3252754822 0.0558923553 0.0001668203
0.3539018449 0.0583044076 0.0000000000
0.3753336744 0.0593262875 0.0000000000
0.3994771691 0.0592019969 0.0000000000
0.4181528509 0.0586291420 0.0000000000
0.4347858936 0.0581479441 0.0000000000
0.4551499545 0.0586731334 0.0000000000
0.4736651544 0.0584900882 0.0000000000
0.4951757487 0.0580776116 0.0000000000
0.5182364992 0.0578797492 0.0000000000
0.5384060118 0.0573760956 0.0000000000
0.5603803626 0.0563187889 0.0000000000
0.5877725330 0.0534572898 0.0000000000
0.6071778866 0.0509075141 0.0000000000
0.6224857021 0.0488185824 0.0000000000
0.6368276464 0.0467778497 0.0000000000
0.6524336964 0.0433056923 0.0000000000
0.6702822773 0.0399540820 0.0000000000
0.6888920889 0.0372727930 0.0000000000
0.7068186382 0.0346624198 0.0000000000
0.0063772527 0.0273285884 0.0075283723
0.0320365306 0.0387478081 0.0128074030
0.0684224043 0.0485851828 0.0135863089
0.1042487247 0.0531355353 0.0134818080
0.1282116896 0.0578704026 0.0136917281
0.1473501579 0.0627021361 0.0139179311
0.1636250311 0.0675829936 0.0140797393
0.1921094002 0.0697625401 0.0131352455
0.2192544794 0.0711763583 0.0122014800
0.2417934868 0.0724657493 0.0115257228
0.2608260749 0.0737284411 0.0110625588
0.2817699207 0.0753412306 0.0103200422
0.3058852634 0.0774427263 0.0098345312
0.3346449688 0.0796477527 0.0093359107
0.3604203033 0.0815231748 0.0088609586
0.3791771049 0.0828958800 0.0085687201
0.4043095106 0.0829653125 0.0062158023
0.4247788645 0.0823364859 0.0038636889
0.4432346958 0.0817347690 0.0020887072
0.4626194329 0.0812319119 0.0009550146
0.4831427649 0.0816744517 0.0005817076
0.5070704021 0.0823496337 0.0002302475
0.5312459096 0.0825971427 0.0000137404
0.5523521230 0.0826063083 0.0000000000
0.5751727852 0.0821825736 0.0000000000
0.6023120624 0.0808967847 0.0000000000
0.6220227175 0.0790350596 0.0000000000
0.6372299631 0.0769828870 0.0000190762
0.6513642486 0.0745667340 0.0000019465
0.6680324846 0.0712375362 0.0000000000
0.6868419225 0.0666938129 0.0000000000
0.7068353197 0.0609557597 0.0000000000
0.7263899976 0.0543979847 0.0000000000
0.0025842274 0.0462626148 0.0130039520
0.0256419107 0.0604264728 0.0183900386
0.0640948620 0.0708096535 0.0200642995
0.1037798686 0.0747608893 0.0187797607
0.1286642414 0.0779719276 0.0184540065
0.1488200269 0.0821030089 0.0183668923
0.1666528845 0.0865511259 0.0183296387
0.1963006886 0.0897067133 0.0180324067
0.2252609829 0.0931886441 0.0174079147
0.2489438059 0.0949023562 0.0165658227
0.2691891533 0.0973122154 0.0163198638
0.2911927208 0.0996474441 0.0160542135
0.3184714512 0.1028813403 0.0153105947
0.3491478128 0.1061679401 0.0145025257
0.3761728059 0.1085462623 0.0137976651
0.3960058803 0.1107022468 0.0135322546
0.4223260416 0.1106914490 0.0118341714
0.4446377326 0.1099120503 0.0098323205
0.4648258455 0.1092897736 0.0073694299
0.4872599488 0.1091487433 0.0052803826
0.5063764387 0.1086287148 0.0038170456
0.5284017947 0.1080074478 0.0023293286
0.5525442220 0.1079617318 0.0010964053
0.5737062708 0.1078643004 0.0003855915
0.5963811025 0.1078272534 0.0001334617
0.6238179942 0.1073503924 0.0000183512
0.6434694975 0.1060096730 0.0000000000
0.6591617023 0.1044946864 0.0000000000
0.6736232059 0.1032080323 0.0000265228
0.6896957262 0.1015219678 0.0000000000
0.7081035060 0.0986586398 0.0000000000
0.7280435024 0.0944477639 0.0000000000
0.7483662291 0.0899949379 0.0000000000
0.0003135389 0.0607985126 0.0162734680
0.0216630948 0.0758799434 0.0215064260
0.0631534865 0.0861131737 0.0230937072
0.1023097462 0.0899657967 0.0217072683
0.1309841287 0.0940035164 0.0198732138
0.1518462923 0.0972265534 0.0191008860
0.1705661819 0.1011300928 0.0185322684
0.2006282192 0.1048100472 0.0187967625
0.2302971687 0.1098288518 0.0186933849
0.2557477422 0.1140345279 0.0182027085
0.2768555130 0.1166263445 0.0174330077
0.2998627814 0.1195380933 0.0171685521
0.3279429651 0.1228159544 0.0166762237
0.3603148506 0.1273398080 0.0158510739
0.3888724954 0.1308926117 0.0148622153
0.4095430636 0.1333503915 0.0139456550
0.4364332952 0.1333678396 0.0127258146
0.4599998805 0.1323702478 0.0116164853
0.4811991741 0.1314873726 0.0099800967
0.5056477812 0.1312165202 0.0076319628
0.5250316628 0.1307528638 0.0058056673
0.5466859908 0.1298895424 0.0037751004
0.5695093617 0.1289077488 0.0022109374
0.5897111080 0.1282900976 0.0008367230
0.6124062296 0.1282907668 0.0002175571
0.6395865325 0.1285983484 0.0000482562
0.6596810463 0.1286011339 0.0000125176
0.6757817697 0.1274088079 0.0000000000
0.6906324263 0.1269852637 0.0000000000
0.7068106135 0.1273929400 0.0000000000
0.7252611330 0.1273165413 0.0000000000
0.7459722054 0.1258978214 0.0000000000
0.7674106798 0.1233213453 0.0000000000
0.0000000000 0.0732852702 0.0184107010
0.0212732696 0.0883411567 0.0239546031
0.0640119118 0.0983886522 0.0249074884
0.1032516830 0.1023943207 0.0231005129
0.1317438253 0.1063615472 0.0210216118
0.1551451544 0.1101515837 0.0190171919
0.1744161198 0.1135461214 0.0178889940
0.2053172705 0.1180989143 0.0182054204
0.2349893360 0.1235426684 0.0182576863
0.2612405760 0.1290367885 0.0180283211
0.2836343690 0.1333000266 0.0175704091
0.3075960006 0.1366336798 0.0168211156
0.3365763027 0.1402126443 0.0162846958
0.3692419124 0.1449067984 0.0154014839
0.3992064105 0.1496686707 0.0143420914
0.4206594707 0.1526612280 0.0131860944
0.4485866424 0.1528269622 0.0120127119
0.4727434033 0.1516374960 0.0111592997
0.4947392783 0.1504900131 0.0103852896
0.5194988688 0.1497474737 0.0083113129
0.5396807505 0.1493996302 0.0061680241
0.5621293797 0.1485733366 0.0038884934
0.5845437331 0.1474208484 0.0020921913
0.6035957107 0.1463726823 0.0010364054
0.6251096993 0.1461506301 0.0000359079
0.6525880833 0.1469117358 0.0000000000
0.6729311384 0.1473429515 0.0000000000
0.6891180599 0.1473114502 0.0000000000
0.7044042179 0.1476095458 0.0000000000
0.7209738382 0.1495113782 0.0000000000
0.7402446454 0.1517865243 0.0000000000
0.7621301849 0.1536294590 0.0000000000
0.7836273258 0.1536048692 0.0000000000
0.0000000000 0.0848326987 0.0199405864
0.0229775092 0.0999035845 0.0258279092
0.0653713529 0.1090054380 0.0266402065
0.1052208690 0.1134599593 0.0240578952
0.1338899265 0.1175149812 0.0215424340
0.1573199859 0.1212697369 0.0192827856
0.1780657595 0.1248360313 0.0172178170
0.2100067400 0.1304529673 0.0173056432
0.2399116151 0.1365586954 0.0172526398
0.2663500759 0.1423235387 0.0170473046
0.2893848245 0.1473217570 0.0167453993
0.3143573306 0.1517904256 0.0162377452
0.3442423489 0.1559984316 0.0154118250
0.3776364150 0.1610859202 0.0142243352
0.4079247566 0.1659968740 0.0128716232
0.4301438114 0.1696556937 0.0117389744
0.4594229550 0.1703431240 0.0107879742
0.4844086742 0.1691124294 0.0100691608
0.5070982889 0.1676976522 0.0093150256
0.5306256992 0.1662395332 0.0083036517
0.5516907219 0.1660170909 0.0058554381
0.5753661069 0.1652886120 0.0033193729
0.5980561882 0.1641174082 0.0013580270
0.6164568380 0.1629700081 0.0003868904
0.6367196245 0.1625759204 0.0000000444
0.6639239446 0.1637256774 0.0000000000
0.6846073959 0.1643937012 0.0000000000
0.7010296555 0.1647111383 0.0000000000
0.7162541033 0.1658625350 0.0000000000
0.7330273784 0.1691459288 0.0000000000
0.7538493433 0.1734182346 0.0000000000
0.7769925456 0.1779523536 0.0000000000
0.7981257825 0.1818144250 0.0000000000
0.0000000000 0.1067694604 0.0235309795
0.0183687432 0.1223025934 0.0286121899
0.0649379396 0.1338007340 0.0303551305
0.1084043149 0.1422072577 0.0286622099
0.1386935917 0.1477734866 0.0268080731
0.1641874572 0.1534312914 0.0252967566
0.1871892610 0.1590927578 0.0240254348
0.2188893504 0.1606525473 0.0226998864
0.2481007091 0.1649433215 0.0222199923
0.2739971198 0.1686514737 0.0217337870
0.2964970788 0.1715159555 0.0212344169
0.3210635771 0.1748318046 0.0204203370
0.3506846250 0.1792583201 0.0191443419
0.3836121678 0.1843305879 0.0178287779
0.4136134119 0.1895199975 0.0166074142
0.4358561996 0.1936826327 0.0158063218
0.4670140659 0.1962880080 0.0141853364
0.4927630712 0.1960028258 0.0130602243
0.5162850598 0.1955983873 0.0122482213
0.5411012507 0.1953987057 0.0114749914
0.5640319681 0.1953252877 0.0085841644
0.5884820966 0.1949087185 0.0053982316
0.6107789096 0.1940160427 0.0029075160
0.6289433509 0.1929898339 0.0013348579
0.6488828164 0.1919823809 0.0002801374
0.6748400031 0.1918595815 0.0000000000
0.6946069654 0.1921291298 0.0000000000
0.7102106024 0.1919051591 0.0000000000
0.7255587610 0.1936240869 0.0000000000
0.7443689800 0.1995703344 0.0000000000
0.7668266604 0.2047770635 0.0000000000
0.7898608012 0.2112232901 0.0000000000
0.8115845162 0.2179173387 0.0000000000
0.0000000000 0.1260826836 0.0253217499
0.0165557972 0.1431342515 0.0304333608
0.0638563642 0.1552931929 0.0323631662
0.1117180176 0.1687238850 0.0323078298
0.1454819371 0.1777648774 0.0312353577
0.1727769130 0.1848932312 0.0299382669
0.1980207113 0.1922568338 0.0289472708
0.2283477498 0.1919870293 0.0276405293
0.2559127342 0.1905964256 0.0258054375
0.2813832344 0.1927161129 0.0247552387
0.3035895434 0.1938477767 0.0238370879
0.3278607774 0.1963644706 0.0229710838
0.3571004213 0.2012977428 0.0220039078
0.3894742921 0.2072733004 0.0206411836
0.4193311711 0.2125813857 0.0190778692
0.4416235131 0.2170764585 0.0181534790
0.4731261586 0.2202477763 0.0166171056
0.5011150208 0.2226258405 0.0150979363
0.5255961824 0.2230772989 0.0136512055
0.5517001407 0.2239743745 0.0125089653
0.5753384343 0.2239826481 0.0097804924
0.6000886751 0.2234744764 0.0068010103
0.6228217851 0.2227370293 0.0037117808
0.6411802232 0.2218482066 0.0018005759
0.6608578607 0.2208458731 0.0005352661
0.6850925749 0.2190569370 0.0000000000
0.7037257547 0.2179736144 0.0000000000
0.7187459278 0.2170690489 0.0000000000
0.7343518931 0.2188507668 0.0000000000
0.7549734472 0.2266800672 0.0000000000
0.7791709133 0.2362076577 0.0000000000
0.8022736387 0.2440905057 0.0000000000
0.8248680598 0.2531021550 0.0000000000
0.0000000000 0.1423315113 0.0258597267
0.0158315854 0.1610591304 0.0313416911
0.0634380454 0.1739695116 0.0330164298
0.1128947533 0.1900016311 0.0337561916
0.1511605185 0.2039120722 0.0339233260
0.1814611906 0.2139361153 0.0330743360
0.2083781435 0.2227027163 0.0320056643
0.2377182905 0.2204274467 0.0304497771
0.2646858364 0.2171902178 0.0284675799
0.2887185304 0.2138859761 0.0264058294
0.3105044933 0.2135893189 0.0248878288
0.3344075963 0.2156292766 0.0238059268
0.3632857716 0.2210066286 0.0229672365
0.3952553662 0.2276521641 0.0217605333
0.4246756202 0.2340058654 0.0203142460
0.4470986413 0.2388103077 0.0188953288
0.4791411087 0.2427249078 0.0172076618
0.5079904156 0.2458082502 0.0154957049
0.5342030310 0.2484445822 0.0138094848
0.5615066695 0.2502178663 0.0117891065
0.5859378930 0.2503952070 0.0090621493
0.6103967805 0.2500282122 0.0060413013
0.6334141851 0.2492303718 0.0034363797
0.6522650750 0.2484527331 0.0013423960
0.6717985114 0.2473117759 0.0002060341
0.6952807368 0.2449462813 0.0000000000
0.7123095087 0.2420989623 0.0000000000
0.7265730911 0.2401434452 0.0000000000
0.7425806327 0.2419212157 0.0000000000
0.7646046213 0.2509055603 0.0000000000
0.7893088939 0.2622756225 0.0000000000
0.8135767468 0.2738227221 0.0000000000
0.8366138938 0.2841487897 0.0000000000
0.0000000000 0.1555873588 0.0257020419
0.0126076226 0.1753836409 0.0310536484
0.0635960273 0.1900532471 0.0328121147
0.1155285011 0.2093183031 0.0340851284
0.1549633641 0.2255286986 0.0345364402
0.1884932981 0.2387761246 0.0343944639
0.2173872669 0.2493525145 0.0335416439
0.2461717726 0.2450874725 0.0315519883
0.2727864682 0.2400603160 0.0292373422
0.2966052682 0.2352451569 0.0269581875
0.3169641781 0.2311918470 0.0248935134
0.3405074225 0.2328680898 0.0235278246
0.3690339223 0.2384998380 0.0226227102
0.4006651611 0.2454667126 0.0213470406
0.4298547953 0.2523243715 0.0198830508
0.4520872835 0.2575765261 0.0184999871
0.4848480027 0.2624537836 0.0164673635
0.5145039234 0.2662912035 0.0143910921
0.5417555675 0.2698337638 0.0123206459
0.5704531301 0.2728780276 0.0099326751
0.5945741809 0.2731825367 0.0070561515
0.6197045414 0.2729904333 0.0042348985
0.6429045577 0.2723924561 0.0019425368
0.6620034013 0.2717205855 0.0010192458
0.6813456263 0.2702658825 0.0000286239
0.7039958818 0.2669996602 0.0000000000
0.7208203324 0.2635133735 0.0000000000
0.7343275234 0.2604345643 0.0000000000
0.7503249877 0.2622610094 0.0000000000
0.7730564362 0.2721864540 0.0000000000
0.7981592706 0.2847625992 0.0000000000
0.8234536445 0.2982942765 0.0000000000
0.8469050307 0.3103473891 0.0000000000
0.0000000000 0.1699905518 0.0273363628
0.0077587876 0.1904639618 0.0322913861
0.0611369313 0.2045583159 0.0334453675
0.1142806488 0.2247091229 0.0346876265
0.1543617823 0.2415135643 0.0350943036
0.1881654054 0.2553525381 0.0348763765
0.2194089136 0.2681310443 0.0344607661
0.2498646270 0.2645587726 0.0320437246
0.2769126452 0.2592237299 0.0295674439
0.3016713895 0.2546717162 0.0272508240
0.3233183870 0.2514188953 0.0252333897
0.3458388222 0.2505425205 0.0230952360
0.3739864827 0.2561916914 0.0219969836
0.4052284119 0.2630429087 0.0204778579
0.4341775102 0.2697936871 0.0188508589
0.4561343549 0.2747424785 0.0174085112
0.4892459881 0.2802057069 0.0152316672
0.5193333376 0.2844839989 0.0129251448
0.5470772016 0.2883051981 0.0107038936
0.5766789968 0.2921432339 0.0084261697
0.6005901231 0.2930220513 0.0054900187
0.6255055991 0.2931094954 0.0027186077
0.6488515350 0.2928900837 0.0007339325
0.6680187391 0.2926803422 0.0000276282
0.6891974786 0.2927900304 0.0000000000
0.7118337660 0.2896926005 0.0000000000
0.7291123105 0.2865096773 0.0000000000
0.7441382100 0.2838807862 0.0000000000
0.7589740198 0.2833038234 0.0000000000
0.7815186723 0.2931712599 0.0000000000
0.8062271003 0.3056056698 0.0000000000
0.8313836595 0.3186396316 0.0000000000
0.8544208523 0.3303261089 0.0000000000
0.0000000000 0.1878269237 0.0318721539
0.0023139010 0.2086570484 0.0362214967
0.0557786584 0.2228908047 0.0373777262
0.1089536051 0.2389507371 0.0366645774
0.1483810774 0.2541648388 0.0365100682
0.1814771749 0.2664357353 0.0358517740
0.2116439964 0.2772497415 0.0349971469
0.2463921579 0.2778623973 0.0323494890
0.2758381098 0.2751538526 0.0299559846
0.3025758797 0.2724780515 0.0277312020
0.3263270558 0.2712439045 0.0258351922
0.3504990169 0.2719218138 0.0238388460
0.3780512508 0.2757468755 0.0214104036
0.4088756868 0.2819274345 0.0194481082
0.4374089349 0.2878118134 0.0174704024
0.4589978248 0.2919410906 0.0158446248
0.4920301141 0.2968489308 0.0136208785
0.5219772859 0.3009482057 0.0114615931
0.5497058665 0.3046937134 0.0094707784
0.5794754690 0.3085338559 0.0077224869
0.6031967099 0.3102263605 0.0048351171
0.6276314944 0.3111870308 0.0022564453
0.6505853948 0.3115298974 0.0005339193
0.6695162843 0.3119071869 0.0000000000
0.6909647987 0.3129714325 0.0000000000
0.7182823460 0.3140728765 0.0000000000
0.7374504072 0.3127201424 0.0000000000
0.7544198883 0.3117482736 0.0000000000
0.7715114672 0.3121116068 0.0000000000
0.7911972565 0.3161674508 0.0000000000
0.8140713189 0.3261147789 0.0000000000
0.8373878896 0.3359770306 0.0000000000
0.8586693569 0.3436447243 0.0000000000
0.0000000000 0.2085195726 0.0365978811
0.0000000000 0.2300585280 0.0404048239
0.0486212870 0.2444040054 0.0412209204
0.1025911140 0.2564382291 0.0391869917
0.1409560834 0.2669985345 0.0374417576
0.1730617415 0.2774570295 0.0361591058
0.2020235160 0.2863699751 0.0347572727
0.2389216007 0.2893319459 0.0325263692
0.2755609048 0.2942845276 0.0301117454
0.3053453908 0.2945214746 0.0277442909
0.3312390533 0.2953460744 0.0257059437
0.3565955177 0.2971213520 0.0236000126
0.3834010700 0.3000574572 0.0210491959
0.4127751417 0.3029481761 0.0175980789
0.4410226976 0.3078089139 0.0149265722
0.4622060113 0.3109411756 0.0128148545
0.4951907463 0.3157682641 0.0108372995
0.5250799774 0.3197822903 0.0096127544
0.5527384043 0.3233475518 0.0075755432
0.5826564984 0.3270520721 0.0059994604
0.6061605917 0.3292717269 0.0034077394
0.6299747540 0.3316914051 0.0014866919
0.6523395032 0.3332054227 0.0003743539
0.6709896255 0.3341852610 0.0000000000
0.6927734460 0.3361689875 0.0000000000
0.7243728778 0.3408060772 0.0000000000
0.7491955515 0.3434821551 0.0000000000
0.7690275886 0.3447018194 0.0000000000
0.7868741340 0.3458742930 0.0000000000
0.8045098882 0.3476330708 0.0000000000
0.8222852216 0.3473973677 0.0000000000
0.8438730471 0.3540726135 0.0000000000
0.8636459276 0.3581522464 0.0000000000
0.0000000000 0.2283202521 0.0405401069
0.0000000000 0.2507025082 0.0440361341
0.0402507467 0.2645996010 0.0442315737
0.0962129847 0.2742193084 0.0414106854
0.1340643955 0.2807006398 0.0384535286
0.1648977437 0.2869594348 0.0358900869
0.1925173073 0.2940049915 0.0337626734
0.2323269429 0.2998769567 0.0317498949
0.2707654088 0.3071223343 0.0294371540
0.3073531547 0.3142001190 0.0270061655
0.3364077972 0.3181650080 0.0246434754
0.3626538393 0.3207289422 0.0221443130
0.3888544985 0.3228100762 0.0192646592
0.4176948443 0.3247646532 0.0155029980
0.4444587481 0.3264387546 0.0117083940
0.4653598240 0.3287225706 0.0088211632
0.4982533879 0.3332914136 0.0069122721
0.5282505853 0.3373023653 0.0059807879
0.5557516619 0.3407536994 0.0051168682
0.5857570033 0.3440905229 0.0031937158
0.6087837570 0.3467954403 0.0016020211
0.6324548985 0.3498043621 0.0003425084
0.6542556370 0.3527448714 0.0000000000
0.6724168693 0.3547741797 0.0000000000
0.6945813269 0.3576988084 0.0000000000
0.7285878080 0.3644254516 0.0000000000
0.7585870461 0.3708078698 0.0000000000
0.7828003304 0.3756077620 0.0000000000
0.8017218038 0.3779495400 0.0000000000
0.8173855491 0.3771480875 0.0000000000
0.8335280492 0.3740466109 0.0000000000
0.8496311425 0.3701359478 0.0000000000
0.8693405312 0.3715039832 0.0000000000
0.0000000000 0.2434014279 0.0430539340
0.0000000000 0.2661513278 0.0460928891
0.0327431002 0.2790812572 0.0457470628
0.0906545117 0.2856460623 0.0418929086
0.1284753707 0.2903812850 0.0383374028
0.1586880864 0.2945768198 0.0351796028
0.1855103842 0.2993648730 0.0324435442
0.2280373463 0.3082262315 0.0303445889
0.2687545252 0.3180072971 0.0278299663
0.3073510267 0.3271999984 0.0251688576
0.3397504391 0.3344260700 0.0226074836
0.3669300303 0.3377137493 0.0197984158
0.3927685064 0.3390816685 0.0164998694
0.4213086843 0.3401934898 0.0122706632
0.4478762633 0.3411053305 0.0079783061
0.4679278158 0.3416971468 0.0047742011
0.5007318001 0.3461734677 0.0032858448
0.5307053511 0.3500783924 0.0027219192
0.5583080075 0.3533878631 0.0021624298
0.5883155674 0.3567576729 0.0012373093
0.6105622270 0.3600477565 0.0007050874
0.6339369857 0.3636072669 0.0002981336
0.6558373504 0.3672402884 0.0000000000
0.6737688260 0.3702394347 0.0000000000
0.6965919046 0.3747642160 0.0000000000
0.7335724747 0.3843934889 0.0000000000
0.7659933493 0.3929680582 0.0000000000
0.7923036343 0.3999745698 0.0000000000
0.8117245354 0.4023221181 0.0000000000
0.8261815589 0.3990131921 0.0000000000
0.8410375885 0.3931930532 0.0000000000
0.8562601069 0.3865009945 0.0000000000
0.8741857326 0.3821585962 0.0000000000
0.0000000000 0.2645048106 0.0428815106
0.0000000000 0.2854012101 0.0452067185
0.0179256171 0.2977702985 0.0450286714
0.0815597872 0.3048501174 0.0414474033
0.1212483298 0.3098214695 0.0380656018
0.1525169874 0.3142850129 0.0351887068
0.1799278860 0.3186256715 0.0326480689
0.2242727762 0.3284316633 0.0300331340
0.2654067297 0.3380067579 0.0273502615
0.3042787792 0.3470224560 0.0246141319
0.3376612590 0.3546809586 0.0220701837
0.3684126976 0.3607252801 0.0190843797
0.3976686156 0.3645278775 0.0153040907
0.4273892968 0.3666102724 0.0108746799
0.4558644441 0.3688156546 0.0064366426
0.4781197792 0.3711487914 0.0033548453
0.5122405544 0.3764752042 0.0011399982
0.5428265501 0.3811105530 0.0003950020
0.5709813590 0.3847817670 0.0000613854
0.6002260953 0.3882570484 0.0000382866
0.6221507889 0.3893158159 0.0000261306
0.6448471049 0.3922343550 0.0000000000
0.6661300454 0.3949211992 0.0000000000
0.6836426220 0.3965663742 0.0000000000
0.7060122128 0.4003532789 0.0000000000
0.7437307487 0.4105102344 0.0000000000
0.7760135857 0.4195841111 0.0000000000
0.8018207389 0.4270590010 0.0000000000
0.8216596181 0.4309313930 0.0000000000
0.8361393152 0.4285966306 0.0000000000
0.8509181894 0.4235741048 0.0000000000
0.8667043392 0.4176258391 0.0000000000
0.8865439893 0.4128156332 0.0000000000
0.0000000000 0.2829331100 0.0409984752
0.0000000000 0.3007908587 0.0429998361
0.0136046065 0.3125652053 0.0428172021
0.0725354446 0.3217599760 0.0404206382
0.1149226817 0.3284637438 0.0378461285
0.1473424653 0.3336846376 0.0352461811
0.1756696119 0.3386431246 0.0330366273
0.2208461595 0.3481243962 0.0303742539
0.2625622640 0.3568367473 0.0275085490
0.3013670570 0.3654522946 0.0245623016
0.3351237588 0.3732699039 0.0218747932
0.3668166125 0.3801035234 0.0188475153
0.3985036291 0.3861930315 0.0150596682
0.4344785118 0.3940357081 0.0105818857
0.4651204496 0.3982973068 0.0058166784
0.4896416927 0.4024527866 0.0027768616
0.5244005765 0.4081899277 0.0004448970
0.5552700419 0.4131251594 0.0000000000
0.5846853360 0.4176234872 0.0000000000
0.6129418959 0.4216008464 0.0000000000
0.6344870052 0.4217841079 0.0000000000
0.6563404784 0.4203315789 0.0000000000
0.6772208840 0.4205558728 0.0000000000
0.6946812677 0.4207866238 0.0000000000
0.7168656590 0.4236095652 0.0000000000
0.7538533335 0.4334893610 0.0000000000
0.7847081562 0.4417035314 0.0000000000
0.8093342485 0.4487000206 0.0000000000
0.8286956223 0.4526457806 0.0000000000
0.8434960218 0.4518384522 0.0000000000
0.8594164157 0.4512198405 0.0000000000
0.8782640505 0.4474550236 0.0000000000
0.8988694987 0.4445257604 0.0000000000
0.0000000000 0.2992863238 0.0388902907
0.0000000000 0.3147722845 0.0410698913
0.0102900440 0.3258834466 0.0406073849
0.0633584653 0.3366650625 0.0391606612
0.1086267913 0.3446689818 0.0373727049
0.1423826857 0.3509586228 0.0352907835
0.1713651478 0.3564530792 0.0331422405
0.2172213579 0.3656349031 0.0303780663
0.2597028175 0.3746880187 0.0274560402
0.2986738315 0.3830328216 0.0245391908
0.3327485845 0.3908900290 0.0216167026
0.3653862191 0.3983732444 0.0184092265
0.3989233111 0.4059588498 0.0146181815
0.4371590085 0.4159775028 0.0099230579
0.4736598899 0.4257947209 0.0050751797
0.5004301637 0.4318761682 0.0019729073
0.5359857527 0.4380380771 0.0000536844
0.5672479947 0.4427901998 0.0000000000
0.5963215093 0.4469797099 0.0000000000
0.6243638717 0.4516855075 0.0000000000
0.6453204430 0.4506835254 0.0000000000
