2. reversing the negative/print paper LUTs/color/LOGO GmbH, Steinfurt/305 silk fuji professional DPII 16_1_color only.cube
LUT_3D_SIZE 33
0.0000000000 0.0000850609 0.0001012384
0.0280113646 0.0043760011 0.0000000000
0.0704232967 0.0108467878 0.0000104426
0.1225658993 0.0162755959 0.0000015132
0.1571778080 0.0182727694 0.0000000000
0.1839823025 0.0190192602 0.0000000000
0.2113066635 0.0193451295 0.0000000000
0.2408449368 0.0194358227 0.0000000000
0.2671328809 0.0173193028 0.0000000000
0.2827997467 0.0138746670 0.0000000000
0.2931559626 0.0086800138 0.0000000000
0.3014070394 0.0033547761 0.0000000000
0.3150471692 0.0000000000 0.0000000000
0.3395733867 0.0000000000 0.0000000000
0.3651961346 0.0000000000 0.0000000000
0.3922286098 0.0000000000 0.0000000000
0.4200605955 0.0000000000 0.0000000000
0.4461458469 0.0000000000 0.0000000000
0.4667501873 0.0000000000 0.0000000000
0.4870881210 0.0000000000 0.0000000000
0.5081465767 0.0000000000 0.0000000000
0.5299576404 0.0000000000 0.0000000000
0.5514765129 0.0000000000 0.0000000000
0.5696003117 0.0000000000 0.0000000000
0.5857650194 0.0000000000 0.0000000000
0.6014835107 0.0000000000 0.0000000000
0.6174878849 0.0000000000 0.0000000000
0.6333760353 0.0000000000 0.0000000000
0.6497071006 0.0000000000 0.0000000000
0.6691898233 0.0000000000 0.0000000000
0.6916854688 0.0000000000 0.0000000000
0.7091097216 0.0000000000 0.0000000000
0.7143882605 0.0000000000 0.0000000000
0.0000000000 0.0249473034 0.0052650702
0.0381155228 0.0324373013 0.0006999201
0.0781313998 0.0351729504 0.0000000000
0.1241957697 0.0340179387 0.0000000000
0.1553763910 0.0325857042 0.0000000000
0.1784349525 0.0320204950 0.0000000000
0.1984847360 0.0317499004 0.0000000000
0.2164975451 0.0316923118 0.0000000000
0.2591501784 0.0319140249 0.0000000000
0.2881312424 0.0341132343 0.0000000000
0.3040099514 0.0324781949 0.0000000000
0.3181272935 0.0309825418 0.0000000000
0.3350011553 0.0299173010 0.0000000000
0.3578163855 0.0295344715 0.0000000000
0.3823841257 0.0287574259 0.0000000000
0.4082702351 0.0274797130 0.0000000000
0.4347899785 0.0252974941 0.0000000000
0.4601698335 0.0224124832 0.0000000000
0.4819882434 0.0201644309 0.0000000000
0.5037381644 0.0179423512 0.0000000000
0.5254743852 0.0155351073 0.0000000000
0.5480506245 0.0133669775 0.0000000000
0.5733612220 0.0088814941 0.0000000000
0.5962193169 0.0046062467 0.0000000000
0.6140685054 0.0003686118 0.0000000000
0.6309373038 0.0000000000 0.0000000000
0.6460266034 0.0000000000 0.0000000000
0.6612745498 0.0000000000 0.0000000000
0.6784915822 0.0000000000 0.0000000000
0.6960523125 0.0000000000 0.0000000000
0.7124154356 0.0000000000 0.0000000000
0.7261508430 0.0000000000 0.0000000000
0.7331474582 0.0000000000 0.0000000000
0.0000000000 0.0528126748 0.0093941704
0.0418155432 0.0582501302 0.0080403409
0.0810659208 0.0692571407 0.0068623255
0.1259366207 0.0662589371 0.0031036767
0.1528769700 0.0627933196 0.0013412754
0.1720694645 0.0598214332 0.0000000000
0.1892451171 0.0576649388 0.0000000000
0.2041798139 0.0564904888 0.0000000000
0.2496495206 0.0598683016 0.0000000000
0.2845895948 0.0634024774 0.0000000000
0.3104824829 0.0666369795 0.0000000000
0.3325614468 0.0695479672 0.0000000000
0.3513465290 0.0696294048 0.0000000000
0.3737791583 0.0693971559 0.0000000000
0.3979721610 0.0687219593 0.0000000000
0.4223975307 0.0674998244 0.0000000000
0.4471426701 0.0657261140 0.0000000000
0.4721959082 0.0636357497 0.0000000000
0.4946408250 0.0622554767 0.0000000000
0.5174656624 0.0605887320 0.0000000000
0.5411589461 0.0586482464 0.0000000000
0.5651135789 0.0565186762 0.0000000000
0.5920158978 0.0556378538 0.0000000000
0.6163892297 0.0545308623 0.0000000000
0.6379583278 0.0533745937 0.0000000000
0.6587195304 0.0517953513 0.0000000000
0.6747250375 0.0478954041 0.0000000000
0.6893161970 0.0427478409 0.0000000000
0.7046058650 0.0365641867 0.0000000000
0.7201763034 0.0280931332 0.0000000000
0.7336922790 0.0240465065 0.0000000000
0.7496398409 0.0218058688 0.0000000000
0.7629654509 0.0203603274 0.0000000000
0.0000000000 0.0746861144 0.0100345656
0.0279150254 0.0841864100 0.0128599534
0.0720103057 0.0970274457 0.0130547671
0.1228655650 0.1015535691 0.0112613536
0.1512795360 0.0983199465 0.0084460586
0.1720920365 0.0962702573 0.0067445104
0.1899964671 0.0950115053 0.0054953781
0.2064056838 0.0946334556 0.0045732823
0.2548507362 0.0981366747 0.0035015016
0.2895311728 0.1017914892 0.0022756256
0.3159054589 0.1050726367 0.0015661252
0.3381140643 0.1080204853 0.0010785738
0.3599688340 0.1098798720 0.0005974572
0.3838520267 0.1100740477 0.0000000000
0.4081555936 0.1099258048 0.0000000000
0.4328928565 0.1093498975 0.0000000000
0.4581704604 0.1082451226 0.0000000000
0.4836411668 0.1071610167 0.0000000000
0.5079292871 0.1073600189 0.0000000000
0.5315254887 0.1069398286 0.0000000000
0.5559757439 0.1064544633 0.0000000000
0.5805283520 0.1057504530 0.0000000000
0.6089244376 0.1052369943 0.0000000000
0.6331763200 0.1053881758 0.0000000000
0.6541753709 0.1050767010 0.0000000000
0.6769841166 0.1043665283 0.0000000000
0.6959079441 0.1022475843 0.0000000000
0.7109768463 0.0992578805 0.0000000000
0.7252329596 0.0952648264 0.0000000000
0.7404365399 0.0895359859 0.0000000000
0.7550920187 0.0851194351 0.0000000000
0.7724884634 0.0788016389 0.0000000000
0.7874037584 0.0731802327 0.0000000000
0.0000000000 0.0928657935 0.0111679917
0.0126050694 0.1046334634 0.0143316372
0.0609572589 0.1165896631 0.0144304402
0.1140544856 0.1219722000 0.0131019643
0.1516029219 0.1245001433 0.0114928752
0.1743862529 0.1230737737 0.0097434599
0.1943189226 0.1227529778 0.0085447082
0.2128274089 0.1234804122 0.0077134745
0.2628167533 0.1266510234 0.0067941664
0.2952023749 0.1300897926 0.0055113994
0.3210571498 0.1330793961 0.0041293232
0.3429721613 0.1358667105 0.0032699691
0.3648274562 0.1377591523 0.0021952677
0.3893235798 0.1382126956 0.0006135936
0.4151034183 0.1385051216 0.0000722949
0.4404075843 0.1383041452 0.0000000000
0.4662968232 0.1376468153 0.0000000000
0.4924609427 0.1371444151 0.0000000000
0.5176116318 0.1383037650 0.0000000000
0.5429503336 0.1395239219 0.0000000000
0.5680231415 0.1400434153 0.0000000000
0.5929995238 0.1405027642 0.0000000000
0.6210548624 0.1403836460 0.0000000000
0.6447710508 0.1394498926 0.0000000000
0.6667931532 0.1391334542 0.0000000000
0.6896401169 0.1382187031 0.0000000000
0.7079974537 0.1373087749 0.0000000000
0.7250018251 0.1357644517 0.0000000000
0.7402421634 0.1330662556 0.0000000000
0.7565749675 0.1287615559 0.0000000000
0.7723394948 0.1248657507 0.0000000000
0.7893934358 0.1184715094 0.0000000000
0.8034356566 0.1123150590 0.0000000000
0.0000000000 0.1125321809 0.0139279956
0.0038865753 0.1214611891 0.0158251480
0.0536060508 0.1319788390 0.0145912156
0.1078963829 0.1383993135 0.0134302571
0.1471509737 0.1418979850 0.0121383601
0.1772570464 0.1454311690 0.0107523598
0.1990948774 0.1457509915 0.0094213701
0.2194540621 0.1471496036 0.0084693521
0.2701757432 0.1502278467 0.0075164692
0.3010056989 0.1533421533 0.0063090909
0.3253581096 0.1562135780 0.0049359440
0.3471415641 0.1588263189 0.0033984381
0.3692031765 0.1607826920 0.0021368817
0.3941767846 0.1614484867 0.0003077335
0.4202870796 0.1619500666 0.0001861701
0.4468924754 0.1621603041 0.0000000000
0.4735191069 0.1617789028 0.0000000000
0.5003103747 0.1617046104 0.0000000000
0.5259131879 0.1634706778 0.0000000000
0.5521872132 0.1654295536 0.0000000000
0.5782631680 0.1671866966 0.0000000000
0.6037639264 0.1685222686 0.0000000000
0.6312078289 0.1686245164 0.0000000000
0.6548440113 0.1677533959 0.0000000000
0.6785101432 0.1665784429 0.0000000000
0.7002704039 0.1653948466 0.0000000000
0.7187038325 0.1650169674 0.0000000000
0.7360366219 0.1643556154 0.0000000000
0.7538109479 0.1630763498 0.0000000000
0.7717993962 0.1597039770 0.0000000000
0.7871072825 0.1565577638 0.0000000000
0.8035355934 0.1513945224 0.0000000000
0.8171696313 0.1455412240 0.0000000000
0.0000000000 0.1338186328 0.0176697880
0.0000000000 0.1386768503 0.0176741992
0.0459140448 0.1463125692 0.0149402717
0.1033410152 0.1532098892 0.0133782352
0.1443946657 0.1579143088 0.0122177523
0.1757387737 0.1623144754 0.0109731027
0.2057944553 0.1664004207 0.0096566405
0.2276671332 0.1683108013 0.0085822239
0.2768418093 0.1714292551 0.0073004489
0.3064252342 0.1743383566 0.0059561798
0.3300251226 0.1770223335 0.0045228133
0.3509580146 0.1795074648 0.0029999943
0.3732871789 0.1815215828 0.0018212087
0.3986950293 0.1823727310 0.0000251527
0.4251116614 0.1830413572 0.0000000000
0.4521366787 0.1834204710 0.0000000000
0.4799669981 0.1834160315 0.0000000000
0.5075821733 0.1837578605 0.0000000000
0.5335911270 0.1860983764 0.0000000000
0.5604569504 0.1885206718 0.0000000000
0.5872272537 0.1910531421 0.0000000000
0.6133459526 0.1931840626 0.0000000000
0.6403126956 0.1935476225 0.0000000000
0.6645197849 0.1927113191 0.0000000000
0.6886744084 0.1912998579 0.0000000000
0.7104722144 0.1898138009 0.0000000000
0.7284936719 0.1896278416 0.0000000000
0.7463340052 0.1894778092 0.0000000000
0.7653905320 0.1889751301 0.0000000000
0.7857645951 0.1870375369 0.0000000000
0.8002578474 0.1846388931 0.0000000000
0.8163442743 0.1807137971 0.0000000000
0.8295215955 0.1761552460 0.0000000000
0.0000000000 0.1566206892 0.0221904419
0.0000000000 0.1564864656 0.0197011977
0.0400482854 0.1599402139 0.0154958807
0.1000191019 0.1671922640 0.0132084911
0.1432235009 0.1732691836 0.0120478390
0.1757556350 0.1785328734 0.0108767598
0.2066925982 0.1832802673 0.0096294705
0.2382495461 0.1877894380 0.0083466737
0.2828197750 0.1909200555 0.0065924359
0.3111912907 0.1937096204 0.0048904267
0.3343259553 0.1962179033 0.0033395962
0.3548537363 0.1985597549 0.0017701822
0.3768059700 0.2004564141 0.0006023389
0.4029481101 0.2016658477 0.0000251527
0.4297188791 0.2025193693 0.0000000000
0.4571032701 0.2030321717 0.0000000000
0.4854088748 0.2031658946 0.0000000000
0.5139098051 0.2037738570 0.0000000000
0.5407010698 0.2067900479 0.0000000000
0.5681091671 0.2098035715 0.0000000000
0.5953942682 0.2128046833 0.0000000000
0.6220578582 0.2155725903 0.0000000000
0.6484430343 0.2160688884 0.0000000000
0.6740829036 0.2152282081 0.0000000000
0.6978902086 0.2138829218 0.0000000000
0.7198519015 0.2123331450 0.0000000000
0.7377773354 0.2123496089 0.0000000000
0.7561601577 0.2125331277 0.0000000000
0.7764949798 0.2125118277 0.0000000000
0.7985344240 0.2119111777 0.0000000000
0.8121187250 0.2099602753 0.0000000000
0.8279044499 0.2076457211 0.0000000000
0.8407577328 0.2050164772 0.0000000000
0.0000000000 0.1785934522 0.0257414787
0.0000000000 0.1793956238 0.0221457063
0.0301830516 0.1831880399 0.0183624298
0.0941217252 0.1906897847 0.0150137127
0.1384709696 0.1966939502 0.0134196906
0.1721361530 0.2022022845 0.0121568286
0.2035335427 0.2073818723 0.0109209668
0.2346295756 0.2122818894 0.0096613619
0.2837205267 0.2160631555 0.0067691139
0.3125832883 0.2186805546 0.0048267658
0.3361198016 0.2212210774 0.0031581364
0.3573068194 0.2237286262 0.0015905576
0.3800963689 0.2261656237 0.0004528875
0.4074029776 0.2285039636 0.0000056165
0.4342901667 0.2298617610 0.0000000000
0.4620467709 0.2311343800 0.0000000000
0.4910340478 0.2323079880 0.0000000000
0.5204338938 0.2336800607 0.0000000000
0.5476076112 0.2360319381 0.0000000000
0.5746464493 0.2389748898 0.0000000000
0.6014235003 0.2416923495 0.0000000000
0.6275612738 0.2441296042 0.0000000000
0.6555960888 0.2458965643 0.0000000000
0.6828097429 0.2460978853 0.0000000000
0.7066467022 0.2459022744 0.0000000000
0.7292980050 0.2457753205 0.0000000000
0.7487288358 0.2462987596 0.0000000000
0.7682369134 0.2467902039 0.0000000000
0.7888538855 0.2471389384 0.0000000000
0.8113939109 0.2472639845 0.0000000000
0.8248043048 0.2448319012 0.0000000000
0.8393268473 0.2424602089 0.0000000000
0.8515242591 0.2401140770 0.0000000000
0.0000000000 0.1942050327 0.0264010065
0.0000000000 0.1978752489 0.0234112207
0.0235757371 0.2020820006 0.0194244822
0.0884936243 0.2100302626 0.0165283564
0.1356148288 0.2168198282 0.0140355341
0.1698580930 0.2222042571 0.0123696860
0.2012763195 0.2274056901 0.0108374225
0.2319881596 0.2325147486 0.0092962029
0.2825790414 0.2364370512 0.0067028354
0.3138678492 0.2397279245 0.0039074138
0.3377625845 0.2421604835 0.0017674439
0.3595072720 0.2446682734 0.0006148579
0.3827393114 0.2473114991 0.0000660841
0.4102131927 0.2500858408 0.0000061092
0.4382196130 0.2533240827 0.0000000000
0.4664835000 0.2554213477 0.0000000000
0.4960295888 0.2573239085 0.0000000000
0.5260153739 0.2593081294 0.0000000000
0.5531329529 0.2612866136 0.0000000000
0.5794766350 0.2628936854 0.0000000000
0.6058118900 0.2652460033 0.0000000000
0.6315066621 0.2672148927 0.0000000000
0.6599892134 0.2697776993 0.0000000000
0.6901885654 0.2723628195 0.0000000000
0.7139537209 0.2730724145 0.0000000000
0.7374262070 0.2741359033 0.0000000000
0.7576799676 0.2748943316 0.0000000000
0.7784708220 0.2755893462 0.0000000000
0.7992560807 0.2761020640 0.0000000000
0.8221412214 0.2764717924 0.0000000000
0.8344914185 0.2739351794 0.0000000000
0.8483013715 0.2707496644 0.0000000000
0.8598276198 0.2681522394 0.0000000000
0.0000000000 0.2069665060 0.0257783821
0.0000000000 0.2121833622 0.0235325815
0.0187084136 0.2182832485 0.0192397773
0.0838582291 0.2266724583 0.0162444554
0.1319718386 0.2338332908 0.0138426411
0.1682038112 0.2399951854 0.0117049904
0.1997919173 0.2452307143 0.0097772975
0.2302448653 0.2502723423 0.0078276593
0.2822205973 0.2544443721 0.0051255657
0.3138606970 0.2578151036 0.0022765365
0.3396094905 0.2609202411 0.0010462273
0.3617702189 0.2633135166 0.0002536082
0.3853441099 0.2661644486 0.0000000000
0.4129989245 0.2694134110 0.0000000000
0.4414510459 0.2731966131 0.0000000000
0.4705425837 0.2769172412 0.0000000000
0.5007810697 0.2797117477 0.0000000000
0.5312469131 0.2820590109 0.0000000000
0.5582940018 0.2837767705 0.0000000000
0.5845007316 0.2849728600 0.0000000000
0.6098564602 0.2860594347 0.0000000000
0.6351825733 0.2875271430 0.0000000000
0.6647891786 0.2907848396 0.0000000000
0.6950689615 0.2941795761 0.0000000000
0.7206765120 0.2971735164 0.0000000000
0.7448611848 0.2991059257 0.0000000000
0.7661364136 0.3001631568 0.0000000000
0.7869866898 0.3010178006 0.0000000000
0.8087001439 0.3017597105 0.0000000000
0.8315584692 0.3022367757 0.0000000000
0.8434672665 0.2995602694 0.0000000000
0.8560070378 0.2955272613 0.0000000000
0.8672690576 0.2926463875 0.0000000000
0.0000000000 0.2183022343 0.0244802891
0.0000000000 0.2251347585 0.0223561004
0.0151406322 0.2332518659 0.0182219541
0.0797505450 0.2420012802 0.0147437287
0.1290227264 0.2495455452 0.0123414915
0.1658651908 0.2560024128 0.0099832706
0.1984269310 0.2617562625 0.0077597794
0.2288947424 0.2669049849 0.0055300953
0.2824110214 0.2713153357 0.0023632123
0.3145264836 0.2748191131 0.0009760826
0.3404967531 0.2779384074 0.0003735932
0.3640816615 0.2808424573 0.0000000000
0.3879759352 0.2839569739 0.0000000000
0.4158258590 0.2877541619 0.0000000000
0.4446720992 0.2921187288 0.0000000000
0.4745032751 0.2964855548 0.0000000000
0.5054969782 0.3006654020 0.0000000000
0.5363397174 0.3034128672 0.0000000000
0.5631729933 0.3047698893 0.0000000000
0.5893028531 0.3056550978 0.0000000000
0.6144020336 0.3061594416 0.0000000000
0.6389532059 0.3068132406 0.0000000000
0.6695304020 0.3105991267 0.0000000000
0.7001244828 0.3148782730 0.0000000000
0.7266427994 0.3189324378 0.0000000000
0.7522452442 0.3224350121 0.0000000000
0.7740971501 0.3237849402 0.0000000000
0.7953450598 0.3248028784 0.0000000000
0.8172917383 0.3257095032 0.0000000000
0.8406085571 0.3265135863 0.0000000000
0.8519687560 0.3234988645 0.0000000000
0.8641459484 0.3191645994 0.0000000000
0.8744958555 0.3156120199 0.0000000000
0.0000000000 0.2306314912 0.0235875869
0.0000000000 0.2388212978 0.0211570968
0.0115204658 0.2479534546 0.0171706370
0.0756533744 0.2581009063 0.0132387153
0.1263957321 0.2659580231 0.0107172636
0.1641258085 0.2727668597 0.0082655222
0.1978418240 0.2790273554 0.0058279888
0.2285643298 0.2844447867 0.0034261067
0.2832493793 0.2889776027 0.0001918371
0.3156924700 0.2925306873 0.0000222668
0.3418364551 0.2956071509 0.0000000000
0.3656442186 0.2984170176 0.0000000000
0.3908922606 0.3018951410 0.0000000000
0.4189413005 0.3062914723 0.0000000000
0.4480605062 0.3109577830 0.0000000000
0.4783605295 0.3156821905 0.0000000000
0.5103037303 0.3203723444 0.0000000000
0.5421798135 0.3244603722 0.0000000000
0.5688373634 0.3257040610 0.0000000000
0.5948960423 0.3264442926 0.0000000000
0.6200876083 0.3270057427 0.0000000000
0.6443667388 0.3276026238 0.0000000000
0.6759327398 0.3317070028 0.0000000000
0.7062050644 0.3366380818 0.0000000000
0.7329761891 0.3412312899 0.0000000000
0.7595499774 0.3455646848 0.0000000000
0.7816673238 0.3469201000 0.0000000000
0.8029473880 0.3479949451 0.0000000000
0.8247191744 0.3488556200 0.0000000000
0.8481619278 0.3496291371 0.0000000000
0.8596792137 0.3465043020 0.0000000000
0.8716479216 0.3420278738 0.0000000000
0.8817373188 0.3381613558 0.0000000000
0.0000000000 0.2457679286 0.0239189117
0.0000000000 0.2547955941 0.0209407691
0.0078824969 0.2646552837 0.0171920333
0.0710351281 0.2764080735 0.0127173953
0.1236907762 0.2845862991 0.0099737637
0.1624883657 0.2917267366 0.0074309625
0.1970452442 0.2983343795 0.0049299422
0.2297268401 0.3045344210 0.0024547037
0.2848037402 0.3088694305 0.0000379107
0.3172751269 0.3123234697 0.0000021215
0.3434640869 0.3152723767 0.0000000000
0.3674068682 0.3179252808 0.0000000000
0.3928826084 0.3212257125 0.0000000000
0.4225225895 0.3258906875 0.0000000000
0.4518044401 0.3306018023 0.0000000000
0.4824344161 0.3354014551 0.0000000000
0.5149497767 0.3402115558 0.0000000000
0.5477894009 0.3444949980 0.0000000000
0.5759817805 0.3471355432 0.0000000000
0.6021388997 0.3485592336 0.0000000000
0.6275617063 0.3497728468 0.0000000000
0.6519700298 0.3510716553 0.0000000000
0.6850514092 0.3559021645 0.0000000000
0.7142690128 0.3611157796 0.0000000000
0.7403488008 0.3658114889 0.0000000000
0.7671252336 0.3701475767 0.0000000000
0.7889006610 0.3708055337 0.0000000000
0.8096806235 0.3714606936 0.0000000000
0.8306823738 0.3719981154 0.0000000000
0.8533307053 0.3718019675 0.0000000000
0.8656990543 0.3685965930 0.0000000000
0.8782877225 0.3646213066 0.0000000000
0.8891085369 0.3610600590 0.0000000000
0.0000000000 0.2615564009 0.0233758490
0.0000000000 0.2721357410 0.0204311690
0.0001631237 0.2824833950 0.0163266193
0.0649245972 0.2948833233 0.0120784342
0.1216540299 0.3048930026 0.0086974884
0.1615686350 0.3123619700 0.0057822113
0.1972936912 0.3193520732 0.0032729768
0.2314104397 0.3260304283 0.0009175313
0.2858915203 0.3301286332 0.0000242158
0.3188708911 0.3329641014 0.0000000000
0.3451687139 0.3357922311 0.0000000000
0.3693076971 0.3382958140 0.0000000000
0.3951039690 0.3416082596 0.0000000000
0.4251491365 0.3464254160 0.0000000000
0.4561951659 0.3513087668 0.0000000000
0.4873612215 0.3561696546 0.0000000000
0.5206693770 0.3610537715 0.0000000000
0.5542114320 0.3655253178 0.0000000000
0.5827756882 0.3688163847 0.0000000000
0.6099013460 0.3717570938 0.0000000000
0.6353757742 0.3737523052 0.0000000000
0.6613171411 0.3759201706 0.0000000000
0.6938891519 0.3807194856 0.0000000000
0.7220127524 0.3859500363 0.0000000000
0.7478351710 0.3909008632 0.0000000000
0.7751593171 0.3954693578 0.0000000000
0.7964736627 0.3959567208 0.0000000000
0.8159567953 0.3947011559 0.0000000000
0.8362886233 0.3947927773 0.0000000000
0.8582924022 0.3939635960 0.0000000000
0.8715741517 0.3911869042 0.0000000000
0.8854917206 0.3875748969 0.0000000000
0.8968961645 0.3842401952 0.0000000000
0.0000000000 0.2775897660 0.0221217710
0.0000000000 0.2892466026 0.0193078566
0.0000157035 0.3007336213 0.0147927780
0.0587763321 0.3138373441 0.0105825751
0.1173577110 0.3246506392 0.0070031431
0.1604876600 0.3337486156 0.0035330760
0.1974788223 0.3411143044 0.0018562268
0.2327695845 0.3481592697 0.0003586573
0.2870781006 0.3520676886 0.0000000000
0.3202632674 0.3545362012 0.0000000000
0.3468712457 0.3567838871 0.0000000000
0.3712334968 0.3590847701 0.0000000000
0.3973623756 0.3623486334 0.0000000000
0.4278399484 0.3672768256 0.0000000000
0.4595504716 0.3722657618 0.0000000000
0.4925231668 0.3772250844 0.0000000000
0.5266958746 0.3822434646 0.0000000000
0.5610505441 0.3869899016 0.0000000000
0.5898675667 0.3907878330 0.0000000000
0.6175906831 0.3947493318 0.0000000000
0.6434692941 0.3982090774 0.0000000000
0.6713354717 0.4012505573 0.0000000000
0.7030289030 0.4063981347 0.0000000000
0.7307654839 0.4118212990 0.0000000000
0.7560320524 0.4168082958 0.0000000000
0.7832295005 0.4218095593 0.0000000000
0.8042678769 0.4220025459 0.0000000000
0.8232529001 0.4204405782 0.0000000000
0.8421831022 0.4182859708 0.0000000000
0.8634229490 0.4167751324 0.0000000000
0.8772925886 0.4143327585 0.0000000000
0.8929370585 0.4111191202 0.0000000000
0.9052685261 0.4080110969 0.0000000000
0.0000000000 0.2938568570 0.0200079145
0.0000000000 0.3065118882 0.0171846949
0.0000000000 0.3194349347 0.0126638380
0.0535018079 0.3333472568 0.0080856399
0.1128528303 0.3448892737 0.0041987995
0.1576239205 0.3546554096 0.0020984918
0.1972910277 0.3632942708 0.0001866365
0.2338454077 0.3707286846 0.0000274938
0.2882897982 0.3744238286 0.0000000000
0.3216891569 0.3766031295 0.0000000000
0.3484733575 0.3784740597 0.0000000000
0.3731302020 0.3803027013 0.0000000000
0.3996840747 0.3834446871 0.0000000000
0.4306425812 0.3884398553 0.0000000000
0.4631030917 0.3936202004 0.0000000000
0.4970353266 0.3988310522 0.0000000000
0.5329247321 0.4039945701 0.0000000000
0.5681948605 0.4091711443 0.0000000000
0.5973559845 0.4136712426 0.0000000000
0.6254394543 0.4183257765 0.0000000000
0.6518300063 0.4230956768 0.0000000000
0.6815230592 0.4273665925 0.0000000000
0.7126126844 0.4329381932 0.0000000000
0.7397637139 0.4386350959 0.0000000000
0.7653113510 0.4438449699 0.0000000000
0.7917172410 0.4490976517 0.0000000000
0.8121511915 0.4488703484 0.0000000000
0.8305171155 0.4467411920 0.0000000000
0.8488176246 0.4435859928 0.0000000000
0.8688577030 0.4403199570 0.0000000000
0.8833865817 0.4381290864 0.0000000000
0.9001651046 0.4351811029 0.0000000000
0.9145314485 0.4324555131 0.0000000000
0.0000000000 0.3095644927 0.0177793532
0.0000000000 0.3231916820 0.0143798179
0.0000000000 0.3369400093 0.0097983092
0.0470581319 0.3519749683 0.0047838529
0.1073384841 0.3639793560 0.0012172903
0.1536712420 0.3740936687 0.0002445504
0.1932796312 0.3830875584 0.0000000000
0.2315742602 0.3911747277 0.0000000000
0.2884622633 0.3954412334 0.0000000000
0.3223695677 0.3976575616 0.0000000000
0.3495573505 0.3996385463 0.0000000000
0.3746985684 0.4016371359 0.0000000000
0.4016324172 0.4044509118 0.0000000000
0.4331963269 0.4095198464 0.0000000000
0.4661125559 0.4148564676 0.0000000000
0.5006854336 0.4201890520 0.0000000000
0.5374382992 0.4254909029 0.0000000000
0.5741692027 0.4309837451 0.0000000000
0.6035548680 0.4362998824 0.0000000000
0.6320359763 0.4417419115 0.0000000000
0.6588210643 0.4471211875 0.0000000000
0.6897444814 0.4522611755 0.0000000000
0.7209852417 0.4583083111 0.0000000000
0.7477159850 0.4641966018 0.0000000000
0.7742319296 0.4696664235 0.0000000000
0.8001169061 0.4749625490 0.0000000000
0.8201437619 0.4746565794 0.0000000000
0.8379924850 0.4721415955 0.0000000000
0.8559068104 0.4686170621 0.0000000000
0.8753117071 0.4642241600 0.0000000000
0.8900430939 0.4625635714 0.0000000000
0.9079151364 0.4599136074 0.0000000000
0.9242052901 0.4576867095 0.0000000000
0.0000000000 0.3231096458 0.0173123399
0.0000000000 0.3374438358 0.0123912971
0.0000000000 0.3515106325 0.0074659647
0.0384975699 0.3667903025 0.0018909937
0.0993948901 0.3784096188 0.0002741093
0.1470364567 0.3883247775 0.0000000000
0.1869479077 0.3972840986 0.0000000000
0.2220808934 0.4053634039 0.0000000000
0.2852865946 0.4118916141 0.0000000000
0.3206503514 0.4153211619 0.0000000000
0.3487190120 0.4181855336 0.0000000000
0.3748293490 0.4212140605 0.0000000000
0.4026046184 0.4247971615 0.0000000000
0.4346354252 0.4297173125 0.0000000000
0.4673276518 0.4348508702 0.0000000000
0.5017855432 0.4400651013 0.0000000000
0.5385117151 0.4450793937 0.0000000000
0.5752953668 0.4502231396 0.0000000000
0.6057907259 0.4559160949 0.0000000000
0.6340488902 0.4613994356 0.0000000000
0.6609828212 0.4668466968 0.0000000000
