2. reversing the negative/print paper LUTs/color/LOGO GmbH, Steinfurt/305 silk fuji professional DPII 16_1_color only.cube
LUT_3D_SIZE 5
0.0000000000 0.0000850609 0.0001012384
0.2671328809 0.0173193028 0.0000000000
0.4200605955 0.0000000000 0.0000000000
0.5857650194 0.0000000000 0.0000000000
0.7143882605 0.0000000000 0.0000000000
0.0000000000 0.1785934522 0.0257414787
0.2837205267 0.2160631555 0.0067691139
0.4910340478 0.2323079880 0.0000000000
0.7066467022 0.2459022744 0.0000000000
0.8515242591 0.2401140770 0.0000000000
0.0000000000 0.2938568570 0.0200079145
0.2882897982 0.3744238286 0.0000000000
0.5329247321 0.4039945701 0.0000000000
0.7653113510 0.4438449699 0.0000000000
0.9145314485 0.4324555131 0.0000000000
0.0000000000 0.4096076826 0.0124950646
0.2683369669 0.5103069978 0.0000000000
0.5542711112 0.5662928331 0.0000000000
0.8060574745 0.6015776639 0.0000000000
0.9855017840 0.6245768214 0.0000000000
0.0000000000 0.4856311866 0.0000000000
0.2551898557 0.6046420905 0.0000000000
0.5721781464 0.6853057737 0.0000000000
0.8515741453 0.7449028010 0.0000000000
1.0000000000 0.7752504666 0.0000000000
0.0000000000 0.0049628863 0.2184144521
0.2037709624 0.0086944263 0.2087566926
0.4114643115 0.0050417330 0.2151179787
0.5909256413 0.0000000000 0.2097845161
0.7234413834 0.0000000000 0.2099314734
0.0000000000 0.2015415800 0.2481608745
0.2500108666 0.2499996359 0.2500066974
0.4928109854 0.2811244889 0.2518729503
0.6999942579 0.2827856327 0.2431322173
0.8632351195 0.2810318467 0.2442586211
0.0000000000 0.3465690756 0.2607652066
0.2290722723 0.4268875473 0.2622998208
0.5163792503 0.4757622439 0.2630041597
0.7561456119 0.5059052267 0.2522585796
0.9312416100 0.5052273725 0.2458332528
0.0000000000 0.4736982159 0.2757720320
0.1746798582 0.5803858008 0.2676590887
0.5205017653 0.6422695013 0.2499606430
0.7923468321 0.6917912221 0.2434319666
0.9994041293 0.7084039893 0.2297671564
0.0000000000 0.5379279486 0.2777093764
0.1182686956 0.6812249933 0.2660225802
0.5065173563 0.7647754256 0.2415836258
0.8052979412 0.8272206352 0.2222168313
1.0000000000 0.8727747042 0.1759601939
0.0000000000 0.0000000000 0.3769172295
0.2071178732 0.0000000000 0.3752014999
0.4260399661 0.0000000000 0.3958487133
0.5934405267 0.0000000000 0.3877948514
0.7264540784 0.0000000000 0.3915015591
0.0000000000 0.2108681140 0.4402494682
0.2319533206 0.2671219920 0.4614790721
0.4797161560 0.2896500343 0.4640685754
0.6986136624 0.3035591626 0.4713100448
0.8683532988 0.2837116467 0.4608714783
0.0000000000 0.3743580561 0.4824032631
0.1906640373 0.4636503465 0.4958532268
0.5000004788 0.4999974648 0.5000009178
0.7413097300 0.5291026531 0.4996493921
0.9303051616 0.5338221223 0.5013118501
0.0000000000 0.5089047061 0.5053372825
0.0620284467 0.6175100132 0.5202235232
0.4810262911 0.6801532721 0.5146396606
0.7670323428 0.7285807006 0.5165659744
0.9845980581 0.7449174755 0.5009230215
0.0000000000 0.5711371124 0.5102441073
0.0000000000 0.7221780302 0.5303511935
0.4647597683 0.8196257741 0.5284432767
0.7828833893 0.8903165283 0.5088804512
1.0000000000 0.9331792758 0.4991591501
0.0000000000 0.0000000000 0.4939881094
0.2131476716 0.0000000000 0.5312866295
0.4192220007 0.0000000000 0.5436479838
0.5945738477 0.0000000000 0.5562568097
0.7419830106 0.0000000000 0.5644640877
0.0000000000 0.2174181172 0.6087541393
0.2424560623 0.2735109032 0.6467522913
0.4898037391 0.2968557731 0.6617803291
0.7053390974 0.3057334983 0.6679800187
0.8677908803 0.2905859852 0.6643460300
0.0000000000 0.3961838496 0.6620993016
0.1547875369 0.4770874750 0.6994658289
0.4866749754 0.5173876303 0.7095993736
0.7339157221 0.5441887855 0.7159729892
0.9383278866 0.5502746767 0.7208218483
0.0000000000 0.5220988230 0.6877594709
0.0000000000 0.6399530219 0.7323895885
0.4477271234 0.7023181047 0.7432695099
0.7500003028 0.7500022679 0.7499959333
0.9745087306 0.7830510007 0.7537541451
0.0000000000 0.5966520614 0.7164431276
0.0000000000 0.7456267270 0.7494437982
0.3823905178 0.8365690630 0.7576096568
0.7501627409 0.9300533253 0.7669938195
1.0000000000 0.9764819409 0.7631636918
0.0022829855 0.0000000000 0.5736912209
0.2188511494 0.0000000000 0.6233558403
0.4291151577 0.0000000000 0.6469926245
0.6029789365 0.0000000000 0.6575756640
0.7361896310 0.0000000000 0.6663912491
0.0000000000 0.2060948502 0.7109599479
0.2263432508 0.2532824990 0.7673283504
0.4985601670 0.2945689722 0.7970265655
0.6989975154 0.2921573942 0.8064505290
0.8762009462 0.2815351575 0.8139683794
0.0000000000 0.3897097193 0.7774044796
0.1374323050 0.4878420215 0.8552887283
0.4876618919 0.5255830512 0.8808007709
0.7374100493 0.5516561450 0.8977400711
0.9346750671 0.5802009894 0.9114293517
0.0000000000 0.5316538919 0.8288541866
0.0000000000 0.6546789060 0.9090679728
0.4285755721 0.7227581266 0.9390282220
0.7364282830 0.7803353784 0.9583713511
0.9708583884 0.7952716881 0.9614993733
0.0000000000 0.6031402858 0.8513621853
0.0000000000 0.7676570709 0.9380482106
0.3738018825 0.8603448776 0.9667052629
0.7162057142 0.9398943239 0.9838374729
0.9998675242 0.9998782855 1.0000000000
