2. reversing the negative/print paper LUTs/color/LOGO GmbH, Steinfurt/305 glossy fuji supreme 16_1_color only.cube
LUT_3D_SIZE 5
0.0000000000 0.0000859157 0.0000661240
0.1841443874 0.0302164860 0.0021651493
0.3980020620 0.0457015102 0.0007631685
0.5415243982 0.0372774595 0.0000000000
0.6719729796 0.0082193941 0.0000000000
0.0000000000 0.1260826836 0.0253217499
0.2559127342 0.1905964256 0.0258054375
0.4731261586 0.2202477763 0.0166171056
0.6608578607 0.2208458731 0.0005352661
0.8248680598 0.2531021550 0.0000000000
0.0000000000 0.2645048106 0.0428815106
0.2654067297 0.3380067579 0.0273502615
0.5122405544 0.3764752042 0.0011399982
0.7060122128 0.4003532789 0.0000000000
0.8865439893 0.4128156332 0.0000000000
0.0000000000 0.3870976291 0.0386256857
0.2573489801 0.4735479162 0.0077762628
0.5419833893 0.5310942788 0.0000000000
0.7802378660 0.5809952604 0.0000000000
0.9576091626 0.5736664284 0.0000000000
0.0000000000 0.4817905365 0.0395143241
0.2340232583 0.5918622399 0.0000000000
0.5391866666 0.6625597619 0.0000000000
0.7966711786 0.7282672327 0.0000000000
1.0000000000 0.7625786463 0.0000000000
0.0000000000 0.0164737678 0.1686649234
0.1928772096 0.0540196451 0.2002072683
0.3954948665 0.0705282317 0.2087130091
0.5613216391 0.0620701009 0.2028519110
0.7070131989 0.0377690855 0.1992569005
0.0000000000 0.1969700622 0.2467686438
0.2499977280 0.2499988079 0.2499983832
0.4763726661 0.2728419440 0.2476141131
0.6817496424 0.2964300852 0.2509004498
0.8440550172 0.2817709109 0.2404201473
0.0000000000 0.3431095566 0.2698566816
0.2399128800 0.4311702268 0.2778518699
0.5244384881 0.4861638642 0.2797214589
0.7213129253 0.4923125284 0.2615348084
0.9287579947 0.5026839957 0.2549664192
0.0000000000 0.4782102039 0.2976257645
0.1940573813 0.5657976924 0.2844214869
0.5239319395 0.6293199301 0.2722177830
0.7626394857 0.6738196598 0.2621982847
0.9921857158 0.6928483887 0.2430487463
0.0000000000 0.5415751485 0.2887078629
0.1042856820 0.6672009137 0.2805193498
0.4977338056 0.7570570059 0.2548640087
0.7967815194 0.8322417497 0.2425682915
1.0000000000 0.8727024396 0.2157371483
0.0000000000 0.0161077787 0.3367766244
0.1983926506 0.0503541901 0.3655972298
0.3835817523 0.0626020933 0.3731156247
0.5745322550 0.0594094849 0.3922630195
0.7269019833 0.0413595496 0.4086701125
0.0000000000 0.2070712975 0.4231766900
0.2341590124 0.2655277314 0.4448063759
0.4652587656 0.2919585770 0.4447621435
0.6864409149 0.3168532449 0.4603231736
0.8581204880 0.3181495965 0.4649245417
0.0000000000 0.3756233078 0.4675158627
0.2067309642 0.4619205169 0.4944322048
0.4999924784 0.4999937642 0.4999933492
0.7378836405 0.5468278619 0.5129585073
0.9279004586 0.5281949512 0.4989725286
0.0000000000 0.5027177900 0.4986542567
0.1186070843 0.6145121795 0.5231219949
0.4922732882 0.6732213100 0.5219011142
0.7495525113 0.7102183838 0.4989830468
0.9829715336 0.7469392605 0.5186905396
0.0000000000 0.5833347914 0.5014937363
0.0000000000 0.7231743565 0.5345279757
0.4483702371 0.8104591550 0.5236103075
0.7569449869 0.8852834614 0.5081417817
1.0000000000 0.9346112219 0.5218004666
0.0000000000 0.0000000000 0.4630277532
0.2159988179 0.0365720372 0.5193564730
0.4112885551 0.0476951647 0.5341657327
0.5851788980 0.0389509115 0.5382750645
0.7270824694 0.0115207702 0.5360310042
0.0000000000 0.2156280601 0.5787374429
0.2356112475 0.2709265711 0.6119580537
0.4901937318 0.3126164642 0.6390778561
0.7066406199 0.3398135493 0.6610939087
0.8544647386 0.3062141638 0.6405787509
0.0000000000 0.3750175977 0.6223796146
0.1655239313 0.4663548995 0.6702549583
0.4832542247 0.5118325921 0.6925837611
0.7285235221 0.5687666921 0.7173206115
0.9373328659 0.5457514554 0.7061476585
0.0000000000 0.5381431404 0.6932967498
0.0054795808 0.6246668893 0.7153456407
0.4865897152 0.7178251910 0.7487099986
0.7499969959 0.7499970488 0.7499952721
0.9788485402 0.7847151819 0.7525696599
0.0000000000 0.6043026738 0.6906058676
0.0000000000 0.7530298781 0.7499950988
0.4005809011 0.8424183342 0.7593400539
0.7355971191 0.9237332847 0.7591633295
1.0000000000 0.9728543558 0.7585770935
0.0000000000 0.0000000000 0.5695430202
0.2208906047 0.0000000000 0.6331662506
0.4122686970 0.0163576425 0.6599968396
0.5849572099 0.0000000000 0.6744093905
0.7273832020 0.0000000000 0.6827398282
0.0000000000 0.2001373802 0.6970170402
0.2288688686 0.2573151491 0.7549464126
0.5079422640 0.3219016349 0.8017848673
0.6813245391 0.3036881326 0.8029554259
0.8701846244 0.3208040952 0.8207501396
0.0000000000 0.3890594775 0.7779351744
0.1652537466 0.4940844974 0.8537988221
0.4936599740 0.5385618378 0.8829385179
0.7283027341 0.5440446944 0.8932995973
0.9417529193 0.6048545709 0.9176216065
0.0000000000 0.5250637784 0.8262180866
0.0000000000 0.6344440242 0.8965398872
0.4376631704 0.7080933823 0.9300641709
0.7439500107 0.7820991846 0.9557137777
0.9679531872 0.7928560553 0.9607384742
0.0000000000 0.6134549064 0.8589732100
0.0000000000 0.7595572869 0.9267604463
0.3689185281 0.8615949184 0.9621856677
0.7048833083 0.9406679090 0.9815102406
0.9999712866 0.9998926307 1.0000000000
