2. reversing the negative_/print paper LUTs/color/Beyond Print/Fuji Maxima Matt_color only.cube
LUT_3D_SIZE 5
0.0000000000 0.0001094997 0.0000400663
0.2284515172 0.0007805286 0.0000000000
0.4216980246 0.0000000000 0.0000000000
0.5854038795 0.0000000000 0.0000000000
0.7102087127 0.0000000000 0.0000000000
0.0000000000 0.1617686979 0.0076154128
0.2809457066 0.2095338394 0.0000000000
0.5107732439 0.2320012347 0.0000000000
0.7028037970 0.2325150299 0.0000000000
0.8600038458 0.2197487641 0.0000000000
0.0000000000 0.2813546756 0.0000000000
0.2815062460 0.3643538634 0.0000000000
0.5475727501 0.4027064931 0.0000000000
0.7680497958 0.4274890700 0.0000000000
0.9432856480 0.4290329673 0.0000000000
0.0000000000 0.3652374313 0.0000000000
0.2704538180 0.4827993683 0.0000000000
0.5705089647 0.5432361056 0.0000000000
0.8069661729 0.5808453907 0.0000000000
1.0000000000 0.5980820310 0.0000000000
0.0000000000 0.4143846078 0.0000000000
0.2578130278 0.5639888608 0.0000000000
0.5790721350 0.6433569983 0.0000000000
0.8424934310 0.7054885635 0.0000000000
1.0000000000 0.7402912506 0.0000000000
0.0000000000 0.0000000000 0.1992820757
0.2230231331 0.0000000000 0.2086664503
0.4181964582 0.0000000000 0.2054710082
0.5887542963 0.0000000000 0.2025154537
0.7200570094 0.0000000000 0.1982051985
0.0000000000 0.1985530638 0.2472986932
0.2499995616 0.2500000423 0.2499999054
0.5000863843 0.2711987673 0.2441792322
0.7068445992 0.2779698013 0.2409842409
0.8709217323 0.2647096999 0.2302772390
0.0000000000 0.3378959487 0.2660348194
0.2100704386 0.4247268889 0.2636996164
0.5233585859 0.4663920971 0.2514906325
0.7590759118 0.4886767069 0.2381272773
0.9531365235 0.4915273262 0.2220003439
0.0000000000 0.4311824083 0.2720632016
0.1231210130 0.5630664820 0.2607242822
0.5217911706 0.6274615383 0.2408595055
0.7931503046 0.6733854158 0.2138611432
1.0000000000 0.6920316637 0.1912829769
0.0000000000 0.4865532010 0.2762573442
0.0156404126 0.6513373391 0.2532810663
0.5096009292 0.7426354157 0.2225543955
0.8122725396 0.8142729365 0.1638666120
1.0000000000 0.8624044335 0.1147326940
0.0000000000 0.0000000000 0.3574613811
0.2308568437 0.0000000000 0.3784886928
0.4212656575 0.0000000000 0.3833153563
0.5932793795 0.0000000000 0.3856487586
0.7244484323 0.0000000000 0.3881662342
0.0000000000 0.2074237024 0.4390930865
0.2309230536 0.2609298639 0.4623892697
0.4909467512 0.2832721404 0.4695786820
0.7042625371 0.2947498917 0.4718153925
0.8756334425 0.2823842016 0.4720739051
0.0000000000 0.3620567444 0.4742089662
0.1351251238 0.4532003527 0.4973837503
0.5000003973 0.4999998291 0.5000000015
0.7497009369 0.5201594499 0.4961043069
0.9509677166 0.5250302175 0.4948575244
0.0000000000 0.4662264566 0.4944481177
0.0000000000 0.6059400298 0.5136270962
0.4752702018 0.6743312687 0.5146149656
0.7703486691 0.7207702489 0.5033286715
1.0000000000 0.7407767855 0.4946388840
0.0000000000 0.5261005679 0.5078686191
0.0000000000 0.7009836965 0.5221767976
0.4372304982 0.8009207367 0.5176745675
0.7718038180 0.8797743589 0.4994452912
1.0000000000 0.9312759635 0.4823181193
0.0212015607 0.0000000000 0.4671568066
0.2390578172 0.0000000000 0.5080054112
0.4302301958 0.0000000000 0.5226152161
0.5993802276 0.0000000000 0.5321630744
0.7304513798 0.0000000000 0.5333502520
0.0000000000 0.2058530971 0.5858144247
0.2277754530 0.2611208386 0.6373488178
0.4921929973 0.2826312092 0.6520217017
0.7036068378 0.2931103956 0.6633864129
0.8775314365 0.2764045989 0.6664450239
0.0000000000 0.3730307139 0.6397776399
0.0734088058 0.4712521905 0.6966980262
0.4896769182 0.5153412384 0.7148790481
0.7449154655 0.5377702033 0.7230393610
0.9505005070 0.5452579452 0.7245244212
0.0000000000 0.4877970729 0.6714302207
0.0000000000 0.6319479892 0.7303947750
0.4365991044 0.7032537647 0.7483843860
0.7500002002 0.7500003559 0.7499999062
0.9949152902 0.7717360507 0.7498549769
0.0000000000 0.5466763850 0.6894336287
0.0000000000 0.7305262579 0.7484754939
0.3655206891 0.8375818111 0.7633241974
0.7308289900 0.9224907296 0.7665011881
1.0000000000 0.9781664717 0.7584400711
0.0367587703 0.0000000000 0.5235180338
0.2470418219 0.0000000000 0.5817532513
0.4383282748 0.0000000000 0.6025201390
0.6078636342 0.0000000000 0.6146068772
0.7362344762 0.0000000000 0.6194426800
0.0000000000 0.2090490135 0.6718681795
0.2398884635 0.2593663463 0.7494791461
0.4987776518 0.2827543866 0.7785289771
0.7137259979 0.2822053624 0.7942677990
0.8852852041 0.2774663023 0.8060388572
0.0000000000 0.3847436707 0.7402968954
0.0337476870 0.4809726763 0.8344492223
0.4879804465 0.5291086692 0.8712185858
0.7469522689 0.5536924483 0.8914758937
0.9538721671 0.5606445502 0.9026937402
0.0000000000 0.4996767605 0.7810209973
0.0000000000 0.6469273083 0.8872605946
0.4170203272 0.7242507929 0.9306475044
0.7467681974 0.7750875085 0.9561306887
0.9901186610 0.7980687835 0.9680569050
0.0000000000 0.5542398670 0.7984691042
0.0000000000 0.7467631654 0.9150534912
0.3163439309 0.8580328640 0.9629131843
0.7143685333 0.9452640467 0.9899650509
0.9998917324 0.9998746765 1.0000000000
