2. reversing the negative_/print paper LUTs/color/Beyond Print/Fuji Maxima Matt_color only.cube
LUT_3D_SIZE 33
0.0000000000 0.0001094997 0.0000400663
0.0354046247 0.0023528329 0.0005492921
0.0660951402 0.0028895720 0.0000793689
0.0960879926 0.0032781602 0.0000000000
0.1240985636 0.0055552462 0.0000000000
0.1520235383 0.0049756315 0.0000000000
0.1781725788 0.0034388536 0.0000000000
0.2031882719 0.0020930543 0.0000000000
0.2284515172 0.0007805286 0.0000000000
0.2528108004 0.0000000000 0.0000000000
0.2776453935 0.0000000000 0.0000000000
0.3033834410 0.0000000000 0.0000000000
0.3280255083 0.0000000000 0.0000000000
0.3516710472 0.0000000000 0.0000000000
0.3751711892 0.0000000000 0.0000000000
0.3985082564 0.0000000000 0.0000000000
0.4216980246 0.0000000000 0.0000000000
0.4457748119 0.0000000000 0.0000000000
0.4691699285 0.0000000000 0.0000000000
0.4904514277 0.0000000000 0.0000000000
0.5095128733 0.0000000000 0.0000000000
0.5289161430 0.0000000000 0.0000000000
0.5480790184 0.0000000000 0.0000000000
0.5666439534 0.0000000000 0.0000000000
0.5854038795 0.0000000000 0.0000000000
0.6030684075 0.0000000000 0.0000000000
0.6195302619 0.0000000000 0.0000000000
0.6349233976 0.0000000000 0.0000000000
0.6498723840 0.0000000000 0.0000000000
0.6649719709 0.0000000000 0.0000000000
0.6794549271 0.0000000000 0.0000000000
0.6942214330 0.0000000000 0.0000000000
0.7102087127 0.0000000000 0.0000000000
0.0000000000 0.0228022586 0.0027457025
0.0433734393 0.0310665423 0.0019327707
0.0740702660 0.0333334287 0.0016101435
0.1031533994 0.0348037592 0.0004607820
0.1316094754 0.0360631818 0.0000000000
0.1604454782 0.0360041546 0.0000000000
0.1876564113 0.0355138045 0.0000000000
0.2138499889 0.0351208476 0.0000000000
0.2401462747 0.0346810863 0.0000000000
0.2654770461 0.0342839376 0.0000000000
0.2917852042 0.0335227259 0.0000000000
0.3193614733 0.0322701676 0.0000000000
0.3453550782 0.0302663653 0.0000000000
0.3688316302 0.0279379796 0.0000000000
0.3919819989 0.0247783477 0.0000000000
0.4155494293 0.0209558098 0.0000000000
0.4389161771 0.0167132501 0.0000000000
0.4632463063 0.0128359585 0.0000000000
0.4860902518 0.0109500446 0.0000000000
0.5078799211 0.0086608073 0.0000000000
0.5278214418 0.0063652308 0.0000000000
0.5482534649 0.0022680259 0.0000000000
0.5690590147 0.0000000000 0.0000000000
0.5887886887 0.0000000000 0.0000000000
0.6080028151 0.0000000000 0.0000000000
0.6259234034 0.0000000000 0.0000000000
0.6426973071 0.0000000000 0.0000000000
0.6587053230 0.0000000000 0.0000000000
0.6745205511 0.0000000000 0.0000000000
0.6907318501 0.0000000000 0.0000000000
0.7056459470 0.0000000000 0.0000000000
0.7206377882 0.0000000000 0.0000000000
0.7370494663 0.0000000000 0.0000000000
0.0000000000 0.0459614144 0.0044213135
0.0348471864 0.0526311761 0.0038948123
0.0771469734 0.0580865378 0.0030374663
0.1074946897 0.0600903619 0.0020659297
0.1384124521 0.0622938135 0.0004619126
0.1684992641 0.0635876519 0.0000000000
0.1962637065 0.0644784257 0.0000000000
0.2228078926 0.0653864637 0.0000000000
0.2497354198 0.0662599547 0.0000000000
0.2763204040 0.0667979983 0.0000000000
0.3040636530 0.0671504001 0.0000000000
0.3330888350 0.0672695691 0.0000000000
0.3596934270 0.0668403741 0.0000000000
0.3839502973 0.0656064274 0.0000000000
0.4074730562 0.0637246746 0.0000000000
0.4315482323 0.0612511974 0.0000000000
0.4556333114 0.0584114474 0.0000000000
0.4790470313 0.0555963386 0.0000000000
0.5018048999 0.0527552981 0.0000000000
0.5238642582 0.0494656033 0.0000000000
0.5444601594 0.0452094026 0.0000000000
0.5661967450 0.0389467546 0.0000000000
0.5883073409 0.0310714160 0.0000000000
0.6086819443 0.0226606747 0.0000000000
0.6287530398 0.0153070045 0.0000000000
0.6473001082 0.0089465083 0.0000000000
0.6645184571 0.0027047032 0.0000000000
0.6807361495 0.0001527200 0.0000000000
0.6969424929 0.0000000000 0.0000000000
0.7137471824 0.0000000000 0.0000000000
0.7295606322 0.0000000000 0.0000000000
0.7455166437 0.0000000000 0.0000000000
0.7623990699 0.0000000000 0.0000000000
0.0000000000 0.0678896073 0.0071834057
0.0247187806 0.0734852863 0.0056841823
0.0724732757 0.0790994069 0.0039730354
0.1104725498 0.0837328682 0.0022520885
0.1427914646 0.0867196541 0.0006891917
0.1741918028 0.0887584089 0.0000000000
0.2029310875 0.0903218236 0.0000000000
0.2298775788 0.0919559254 0.0000000000
0.2573345775 0.0936623661 0.0000000000
0.2846730452 0.0951044212 0.0000000000
0.3137570019 0.0962877018 0.0000000000
0.3443527065 0.0972736114 0.0000000000
0.3714178874 0.0979531911 0.0000000000
0.3959529794 0.0979101650 0.0000000000
0.4205097240 0.0970432198 0.0000000000
0.4454310180 0.0952609171 0.0000000000
0.4696508430 0.0930591222 0.0000000000
0.4927747953 0.0910578751 0.0000000000
0.5155805198 0.0893404481 0.0000000000
0.5379794598 0.0879722703 0.0000000000
0.5589347016 0.0859021607 0.0000000000
0.5817266772 0.0822338139 0.0000000000
0.6038726710 0.0771257182 0.0000000000
0.6250883978 0.0707677234 0.0000000000
0.6462118955 0.0638362885 0.0000000000
0.6656555008 0.0579684020 0.0000000000
0.6833907551 0.0531485528 0.0000000000
0.6999371136 0.0486438380 0.0000000000
0.7164786401 0.0432300665 0.0000000000
0.7337881284 0.0353627173 0.0000000000
0.7503146014 0.0254137517 0.0000000000
0.7667950775 0.0125003289 0.0000000000
0.7842654412 0.0043183111 0.0000000000
0.0000000000 0.0869374672 0.0081130409
0.0159074354 0.0937322490 0.0067659748
0.0669616854 0.1005235577 0.0043077159
0.1087451705 0.1060370720 0.0016915526
0.1446755218 0.1099739289 0.0000000000
0.1770670167 0.1123670593 0.0000000000
0.2067923229 0.1141452485 0.0000000000
0.2345020718 0.1158887837 0.0000000000
0.2626361037 0.1178680906 0.0000000000
0.2904813041 0.1199203872 0.0000000000
0.3202824799 0.1218199938 0.0000000000
0.3517638656 0.1235701829 0.0000000000
0.3798320103 0.1250325898 0.0000000000
0.4050390733 0.1259854141 0.0000000000
0.4305408074 0.1261757409 0.0000000000
0.4560033579 0.1254546218 0.0000000000
0.4802717132 0.1237583105 0.0000000000
0.5037822566 0.1221448349 0.0000000000
0.5269024037 0.1209254827 0.0000000000
0.5497625250 0.1201659067 0.0000000000
0.5714846585 0.1191373916 0.0000000000
0.5943329488 0.1169492814 0.0000000000
0.6165368770 0.1136196965 0.0000000000
0.6381065855 0.1093188290 0.0000000000
0.6598812030 0.1040514506 0.0000000000
0.6801266284 0.0992097716 0.0000000000
0.6984791765 0.0954543069 0.0000000000
0.7155601074 0.0923670949 0.0000000000
0.7326689860 0.0890785039 0.0000000000
0.7506631763 0.0844052572 0.0000000000
0.7674321372 0.0783106548 0.0000000000
0.7840279405 0.0700441157 0.0000000000
0.8017776496 0.0581697243 0.0000000000
0.0000000000 0.1061469722 0.0081882484
0.0085748747 0.1143198955 0.0069593539
0.0588988541 0.1217553634 0.0043675946
0.1054831141 0.1276776087 0.0011941333
0.1440869714 0.1321281150 0.0000000000
0.1799101847 0.1357182591 0.0000000000
0.2109520496 0.1377844986 0.0000000000
0.2395398359 0.1396826794 0.0000000000
0.2678615994 0.1418105668 0.0000000000
0.2960201711 0.1440488120 0.0000000000
0.3261239396 0.1465017959 0.0000000000
0.3580194051 0.1489228316 0.0000000000
0.3867256551 0.1510828839 0.0000000000
0.4130746674 0.1528489181 0.0000000000
0.4391510216 0.1540856301 0.0000000000
0.4652474351 0.1545278018 0.0000000000
0.4893960048 0.1539807783 0.0000000000
0.5133750179 0.1527558339 0.0000000000
0.5371543879 0.1517384387 0.0000000000
0.5605309802 0.1512343411 0.0000000000
0.5830670644 0.1506192203 0.0000000000
0.6056844356 0.1492985329 0.0000000000
0.6281510673 0.1472339631 0.0000000000
0.6500011492 0.1444146225 0.0000000000
0.6720152569 0.1408564165 0.0000000000
0.6926948962 0.1370955190 0.0000000000
0.7118195190 0.1336569758 0.0000000000
0.7297556189 0.1308429628 0.0000000000
0.7475446318 0.1282506413 0.0000000000
0.7660824544 0.1249756963 0.0000000000
0.7831803121 0.1207383233 0.0000000000
0.8000234859 0.1148267778 0.0000000000
0.8179364689 0.1061400890 0.0000000000
0.0000000000 0.1252023722 0.0080956043
0.0010845276 0.1336751679 0.0062430061
0.0484944279 0.1417078526 0.0037571062
0.1009406043 0.1479684377 0.0005514876
0.1426303133 0.1528930053 0.0000000000
0.1802243443 0.1572523624 0.0000000000
0.2147830563 0.1606243240 0.0000000000
0.2445555742 0.1627226907 0.0000000000
0.2732704099 0.1649596178 0.0000000000
0.3013907286 0.1672850416 0.0000000000
0.3316250496 0.1698480310 0.0000000000
0.3636481930 0.1727035129 0.0000000000
0.3927101152 0.1753648898 0.0000000000
0.4197999760 0.1777229835 0.0000000000
0.4466397638 0.1798518779 0.0000000000
0.4729733744 0.1813993542 0.0000000000
0.4973622625 0.1819894634 0.0000000000
0.5217063795 0.1817256974 0.0000000000
0.5462320529 0.1809672708 0.0000000000
0.5704669234 0.1804811200 0.0000000000
0.5933739614 0.1800534559 0.0000000000
0.6159997191 0.1792256262 0.0000000000
0.6387481602 0.1779492078 0.0000000000
0.6608481028 0.1762089679 0.0000000000
0.6830545649 0.1738902933 0.0000000000
0.7039256834 0.1712335457 0.0000000000
0.7235226020 0.1684860695 0.0000000000
0.7421809967 0.1658026491 0.0000000000
0.7608024971 0.1633792904 0.0000000000
0.7797809942 0.1608382635 0.0000000000
0.7973297149 0.1579368362 0.0000000000
0.8146819350 0.1539579892 0.0000000000
0.8329306336 0.1475308026 0.0000000000
0.0000000000 0.1439946567 0.0080700886
0.0000000000 0.1522087563 0.0052676157
0.0374935984 0.1602489513 0.0024414991
0.0954672439 0.1669585573 0.0000000000
0.1401801603 0.1724302472 0.0000000000
0.1796110348 0.1775533085 0.0000000000
0.2153767561 0.1818177903 0.0000000000
0.2485865062 0.1851130945 0.0000000000
0.2779129047 0.1874889797 0.0000000000
0.3062821140 0.1899060687 0.0000000000
0.3364642393 0.1925660120 0.0000000000
0.3686709174 0.1955057564 0.0000000000
0.3980796988 0.1984441386 0.0000000000
0.4257842987 0.2011689074 0.0000000000
0.4530396376 0.2037655583 0.0000000000
0.4796048740 0.2062518996 0.0000000000
0.5044930147 0.2079813301 0.0000000000
0.5293095903 0.2086688420 0.0000000000
0.5544748180 0.2086257514 0.0000000000
0.5796981669 0.2082256437 0.0000000000
0.6026872522 0.2078619415 0.0000000000
0.6255932550 0.2074019464 0.0000000000
0.6485725093 0.2066730057 0.0000000000
0.6708623216 0.2056356591 0.0000000000
0.6933179745 0.2041569947 0.0000000000
0.7144386140 0.2022771925 0.0000000000
0.7344163752 0.2002083832 0.0000000000
0.7534575172 0.1980449846 0.0000000000
0.7726545566 0.1957731960 0.0000000000
0.7921869770 0.1937197684 0.0000000000
0.8102625592 0.1917288289 0.0000000000
0.8280886295 0.1892286323 0.0000000000
0.8470225238 0.1854524170 0.0000000000
0.0000000000 0.1617686979 0.0076154128
0.0000000000 0.1701759706 0.0041541927
0.0289690403 0.1782169311 0.0011178721
0.0895685924 0.1852769600 0.0000000000
0.1368399059 0.1913493738 0.0000000000
0.1777679980 0.1971913242 0.0000000000
0.2146980855 0.2022548253 0.0000000000
0.2489719963 0.2063684512 0.0000000000
0.2809457066 0.2095338394 0.0000000000
0.3096968874 0.2120518736 0.0000000000
0.3400639563 0.2148455649 0.0000000000
0.3725095553 0.2179209939 0.0000000000
0.4024871830 0.2208566355 0.0000000000
0.4309155489 0.2237540243 0.0000000000
0.4586495466 0.2266018725 0.0000000000
0.4852850859 0.2293687871 0.0000000000
0.5107732439 0.2320012347 0.0000000000
0.5363408667 0.2336622018 0.0000000000
0.5622233906 0.2344244090 0.0000000000
0.5883209253 0.2346606472 0.0000000000
0.6115431305 0.2345263170 0.0000000000
0.6347910210 0.2343611226 0.0000000000
0.6579066030 0.2340365119 0.0000000000
0.6802641047 0.2334770361 0.0000000000
0.7028037970 0.2325150299 0.0000000000
0.7243740665 0.2311708115 0.0000000000
0.7446873544 0.2295856246 0.0000000000
0.7640567987 0.2279175018 0.0000000000
0.7834380920 0.2261289899 0.0000000000
0.8035689904 0.2243500316 0.0000000000
0.8221337220 0.2229651163 0.0000000000
0.8404870932 0.2215983761 0.0000000000
0.8600038458 0.2197487641 0.0000000000
0.0000000000 0.1780928294 0.0066874551
0.0000000000 0.1872403550 0.0028332382
0.0191065449 0.1955601466 0.0003549787
0.0834484481 0.2029694415 0.0000000000
0.1335022024 0.2095255966 0.0000000000
0.1754536678 0.2158310469 0.0000000000
0.2133412056 0.2215300416 0.0000000000
0.2485494126 0.2263400427 0.0000000000
0.2815776791 0.2302050119 0.0000000000
0.3121674584 0.2332019269 0.0000000000
0.3428743005 0.2360805652 0.0000000000
0.3755545846 0.2392563695 0.0000000000
0.4060745312 0.2422082405 0.0000000000
0.4352447577 0.2450175677 0.0000000000
0.4634728325 0.2479742384 0.0000000000
0.4901933307 0.2509101354 0.0000000000
0.5160142644 0.2537086390 0.0000000000
0.5424367450 0.2562342111 0.0000000000
0.5691876536 0.2579195304 0.0000000000
0.5959708122 0.2588943692 0.0000000000
0.6195815746 0.2593947896 0.0000000000
0.6433548212 0.2595439391 0.0000000000
0.6666582455 0.2594893700 0.0000000000
0.6890472219 0.2592583405 0.0000000000
0.7115628898 0.2586405900 0.0000000000
0.7334136205 0.2576760351 0.0000000000
0.7541221044 0.2564593623 0.0000000000
0.7737882652 0.2551544040 0.0000000000
0.7933989516 0.2537471670 0.0000000000
0.8137735864 0.2523503621 0.0000000000
0.8328710415 0.2512792353 0.0000000000
0.8516882028 0.2504727239 0.0000000000
0.8718367033 0.2496826820 0.0000000000
0.0000000000 0.1944320901 0.0060184834
0.0000000000 0.2044147038 0.0016836557
0.0070494667 0.2134401911 0.0000063642
0.0765769507 0.2213943729 0.0000000000
0.1299266529 0.2284356724 0.0000000000
0.1733135149 0.2351289699 0.0000000000
0.2117405496 0.2413407077 0.0000000000
0.2478141543 0.2467737641 0.0000000000
0.2818791410 0.2512687045 0.0000000000
0.3135077215 0.2548315446 0.0000000000
0.3454103458 0.2580157301 0.0000000000
0.3784520187 0.2612307682 0.0000000000
0.4095346667 0.2641924750 0.0000000000
0.4392110650 0.2669929194 0.0000000000
0.4680089222 0.2698701916 0.0000000000
0.4948720832 0.2729294894 0.0000000000
0.5210211175 0.2759383964 0.0000000000
0.5480378398 0.2788169606 0.0000000000
0.5758400772 0.2813980515 0.0000000000
0.6031729554 0.2832819388 0.0000000000
0.6274653159 0.2844961203 0.0000000000
0.6518837439 0.2852942341 0.0000000000
0.6756057167 0.2856339566 0.0000000000
0.6980855913 0.2856661069 0.0000000000
0.7206700475 0.2853405507 0.0000000000
0.7426882043 0.2846897734 0.0000000000
0.7635743291 0.2837887332 0.0000000000
0.7834763447 0.2827005483 0.0000000000
0.8034170380 0.2815368218 0.0000000000
0.8240460299 0.2803661924 0.0000000000
0.8434057622 0.2795157890 0.0000000000
0.8627983306 0.2791262349 0.0000000000
0.8837981303 0.2790329961 0.0000000000
0.0000000000 0.2109810489 0.0053727474
0.0000000000 0.2224961785 0.0009820697
0.0000000000 0.2322840517 0.0000000000
0.0689450224 0.2409820685 0.0000000000
0.1258656926 0.2485516484 0.0000000000
0.1710997858 0.2556159078 0.0000000000
0.2105395421 0.2621682754 0.0000000000
0.2473934569 0.2681873243 0.0000000000
0.2826264585 0.2733270746 0.0000000000
0.3152940748 0.2774376389 0.0000000000
0.3482641350 0.2811556720 0.0000000000
0.3818259464 0.2847190297 0.0000000000
0.4134465573 0.2877127272 0.0000000000
0.4434136811 0.2905428068 0.0000000000
0.4724928868 0.2934678173 0.0000000000
0.4995660899 0.2966084125 0.0000000000
0.5260698569 0.2999106914 0.0000000000
0.5536826859 0.3032637150 0.0000000000
0.5823016623 0.3064293889 0.0000000000
0.6102539007 0.3092082142 0.0000000000
0.6353741205 0.3112440697 0.0000000000
0.6605085531 0.3127716972 0.0000000000
0.6848455963 0.3137579195 0.0000000000
0.7076542928 0.3142232493 0.0000000000
0.7306201371 0.3142029334 0.0000000000
0.7527998150 0.3138864244 0.0000000000
0.7738402889 0.3133119106 0.0000000000
0.7938139094 0.3125179487 0.0000000000
0.8139468435 0.3113857726 0.0000000000
0.8347734300 0.3101116210 0.0000000000
0.8543564451 0.3091610776 0.0000000000
0.8740778557 0.3086153962 0.0000000000
0.8956192889 0.3087485220 0.0000000000
0.0000000000 0.2257100698 0.0034646395
0.0000000000 0.2394492908 0.0000425930
0.0000000000 0.2501763534 0.0000000000
0.0606369183 0.2595697561 0.0000000000
0.1212389360 0.2676902316 0.0000000000
0.1686143324 0.2751057856 0.0000000000
0.2093617630 0.2819157100 0.0000000000
0.2473509350 0.2882305019 0.0000000000
0.2838106456 0.2939124435 0.0000000000
0.3176742737 0.2986459590 0.0000000000
0.3516117007 0.3029223503 0.0000000000
0.3858977101 0.3070897155 0.0000000000
0.4176211780 0.3105662320 0.0000000000
0.4476837389 0.3134323533 0.0000000000
0.4767023149 0.3163687425 0.0000000000
0.5039421856 0.3194927722 0.0000000000
0.5306786024 0.3229084831 0.0000000000
0.5587925914 0.3265901295 0.0000000000
0.5880880964 0.3301895186 0.0000000000
0.6163611259 0.3334563682 0.0000000000
0.6421929932 0.3360911565 0.0000000000
0.6679831815 0.3381493407 0.0000000000
0.6929323835 0.3396605128 0.0000000000
0.7162741721 0.3406078397 0.0000000000
0.7399486373 0.3410389942 0.0000000000
0.7624418717 0.3410249060 0.0000000000
0.7836294629 0.3407585473 0.0000000000
0.8037625608 0.3402537548 0.0000000000
0.8240215399 0.3394356162 0.0000000000
0.8450520515 0.3381540804 0.0000000000
0.8646971608 0.3367346468 0.0000000000
0.8845915845 0.3354397127 0.0000000000
0.9055509829 0.3345122841 0.0000000000
0.0000000000 0.2395379614 0.0012709134
0.0000000000 0.2546499175 0.0000000000
0.0000000000 0.2669309936 0.0000000000
0.0493296024 0.2770110751 0.0000000000
0.1157359006 0.2855732496 0.0000000000
0.1654451661 0.2933646542 0.0000000000
0.2076565113 0.3004500244 0.0000000000
0.2468060135 0.3070322753 0.0000000000
0.2846500774 0.3130511179 0.0000000000
0.3197872500 0.3182790540 0.0000000000
0.3546758099 0.3229939393 0.0000000000
0.3895607574 0.3275153062 0.0000000000
0.4217966299 0.3314599223 0.0000000000
0.4517644674 0.3346988614 0.0000000000
0.4806539065 0.3375061490 0.0000000000
0.5080370046 0.3405487778 0.0000000000
0.5349340014 0.3438506202 0.0000000000
0.5633525371 0.3475556084 0.0000000000
0.5931219336 0.3513439034 0.0000000000
0.6216226029 0.3548714516 0.0000000000
0.6478278852 0.3577455007 0.0000000000
0.6741133374 0.3601370308 0.0000000000
0.6996373469 0.3620502090 0.0000000000
0.7236766063 0.3634295329 0.0000000000
0.7480542181 0.3643065011 0.0000000000
0.7711004964 0.3646890375 0.0000000000
0.7925532939 0.3646766405 0.0000000000
0.8128799903 0.3644064223 0.0000000000
0.8333002056 0.3638731391 0.0000000000
0.8546324329 0.3629538182 0.0000000000
0.8745762503 0.3616520656 0.0000000000
0.8945778323 0.3599006964 0.0000000000
0.9148065154 0.3578301539 0.0000000000
0.0000000000 0.2536759538 0.0000000000
0.0000000000 0.2695401211 0.0000000000
0.0000000000 0.2831810231 0.0000000000
0.0327813445 0.2942437206 0.0000000000
0.1083015972 0.3032811528 0.0000000000
0.1615109452 0.3113485173 0.0000000000
0.2051605810 0.3185392805 0.0000000000
0.2456276608 0.3251645589 0.0000000000
0.2847829923 0.3313256223 0.0000000000
0.3214838331 0.3367994141 0.0000000000
0.3575518106 0.3419259068 0.0000000000
0.3930007284 0.3467241140 0.0000000000
0.4256408870 0.3509478739 0.0000000000
0.4558294359 0.3545496828 0.0000000000
0.4846041025 0.3577152493 0.0000000000
0.5121148234 0.3605996473 0.0000000000
0.5392826419 0.3638354105 0.0000000000
0.5678437013 0.3674855539 0.0000000000
0.5978068848 0.3713995151 0.0000000000
0.6264828648 0.3751829749 0.0000000000
0.6529750339 0.3783144922 0.0000000000
0.6795859318 0.3809843849 0.0000000000
0.7055436314 0.3832236604 0.0000000000
0.7303796935 0.3850125382 0.0000000000
0.7554141093 0.3863537559 0.0000000000
0.7790534830 0.3871439325 0.0000000000
0.8009580221 0.3874652332 0.0000000000
0.8215909182 0.3874188146 0.0000000000
0.8422332682 0.3870927609 0.0000000000
0.8638976804 0.3864581181 0.0000000000
0.8842772320 0.3855033641 0.0000000000
0.9043994938 0.3840738975 0.0000000000
0.9244329358 0.3816089095 0.0000000000
0.0000000000 0.2679577390 0.0000000000
0.0000000000 0.2844279337 0.0000000000
0.0000000000 0.2990705794 0.0000000000
0.0143299515 0.3113177232 0.0000000000
0.0988722318 0.3207484358 0.0000000000
0.1564465789 0.3287535726 0.0000000000
0.2018486931 0.3359039068 0.0000000000
0.2434001747 0.3424086262 0.0000000000
0.2836946649 0.3484957424 0.0000000000
0.3218213312 0.3540074392 0.0000000000
0.3596410531 0.3593291212 0.0000000000
0.3958999603 0.3646067991 0.0000000000
0.4289596166 0.3692626374 0.0000000000
0.4594516994 0.3732982813 0.0000000000
0.4882404834 0.3769389836 0.0000000000
0.5160702908 0.3803013675 0.0000000000
0.5435920964 0.3836190558 0.0000000000
0.5724223560 0.3872737799 0.0000000000
0.6022989237 0.3911434887 0.0000000000
0.6311062814 0.3949837309 0.0000000000
0.6577912005 0.3982686501 0.0000000000
0.6846525062 0.4011333702 0.0000000000
0.7109034084 0.4035908677 0.0000000000
0.7363686384 0.4056589328 0.0000000000
0.7621419624 0.4074407975 0.0000000000
0.7863794131 0.4086717067 0.0000000000
0.8088083673 0.4093362645 0.0000000000
0.8298147408 0.4095274203 0.0000000000
0.8509150274 0.4094335549 0.0000000000
0.8728565081 0.4090724035 0.0000000000
0.8936886909 0.4084548678 0.0000000000
0.9137028312 0.4074704821 0.0000000000
0.9341789758 0.4058667164 0.0000000000
0.0000000000 0.2813546756 0.0000000000
0.0000000000 0.2985661072 0.0000000000
0.0000000000 0.3142233909 0.0000000000
0.0056646949 0.3274814073 0.0000000000
0.0883701623 0.3376747262 0.0000000000
0.1507430325 0.3452014032 0.0000000000
0.1980240941 0.3518960728 0.0000000000
0.2404460616 0.3581894473 0.0000000000
0.2815062460 0.3643538634 0.0000000000
0.3204744616 0.3701645758 0.0000000000
0.3595961069 0.3758847302 0.0000000000
0.3974929450 0.3816306723 0.0000000000
0.4312906679 0.3867907714 0.0000000000
0.4622586476 0.3912114341 0.0000000000
0.4912800408 0.3952612898 0.0000000000
0.5194824995 0.3990076973 0.0000000000
0.5475727501 0.4027064931 0.0000000000
0.5768006520 0.4064862399 0.0000000000
0.6066962036 0.4104623943 0.0000000000
0.6355976233 0.4143695218 0.0000000000
0.6623895357 0.4177012998 0.0000000000
0.6894074866 0.4206133818 0.0000000000
0.7158785241 0.4231998824 0.0000000000
0.7417539109 0.4254263320 0.0000000000
0.7680497958 0.4274890700 0.0000000000
0.7929956260 0.4291676264 0.0000000000
0.8159894023 0.4302203367 0.0000000000
0.8374346191 0.4306787929 0.0000000000
0.8589538044 0.4307832576 0.0000000000
0.8814493560 0.4307552783 0.0000000000
0.9026051718 0.4304697612 0.0000000000
0.9226245885 0.4299599105 0.0000000000
0.9432856480 0.4290329673 0.0000000000
0.0000000000 0.2942967544 0.0000000000
0.0000000000 0.3123417080 0.0000000000
0.0000000000 0.3287823868 0.0000000000
0.0042662690 0.3424496600 0.0000000000
0.0762868029 0.3531210026 0.0000000000
0.1444891663 0.3610936025 0.0000000000
0.1940226460 0.3678234257 0.0000000000
0.2375011225 0.3741890661 0.0000000000
0.2790937647 0.3804679729 0.0000000000
0.3185212353 0.3864582317 0.0000000000
0.3584625709 0.3925386098 0.0000000000
0.3977253660 0.3987551585 0.0000000000
0.4328520053 0.4044242636 0.0000000000
0.4644658514 0.4093836336 0.0000000000
0.4938227875 0.4138270170 0.0000000000
0.5224436339 0.4179489188 0.0000000000
0.5510966278 0.4219214167 0.0000000000
0.5810537737 0.4261505319 0.0000000000
0.6111244368 0.4303387109 0.0000000000
0.6402448728 0.4344733763 0.0000000000
0.6671333946 0.4378801854 0.0000000000
0.6941666373 0.4406890493 0.0000000000
0.7207565982 0.4432880837 0.0000000000
0.7469564161 0.4456271300 0.0000000000
0.7734588138 0.4478182850 0.0000000000
0.7988295835 0.4497764617 0.0000000000
0.8225267323 0.4512814688 0.0000000000
0.8445227103 0.4520964956 0.0000000000
0.8666141427 0.4524838160 0.0000000000
0.8897348998 0.4527822804 0.0000000000
0.9111320388 0.4530491835 0.0000000000
0.9314718338 0.4529458431 0.0000000000
0.9523544380 0.4525948713 0.0000000000
0.0000000000 0.3065461917 0.0000000000
0.0000000000 0.3256265609 0.0000000000
0.0000000000 0.3421130889 0.0000000000
0.0027157598 0.3559801018 0.0000000000
0.0626517531 0.3672608276 0.0000000000
0.1378642783 0.3763613505 0.0000000000
0.1901510557 0.3836126225 0.0000000000
0.2348253171 0.3901877982 0.0000000000
0.2770770702 0.3966973675 0.0000000000
0.3167582262 0.4029227779 0.0000000000
0.3571027177 0.4093147676 0.0000000000
0.3972456426 0.4159697390 0.0000000000
0.4335598196 0.4220493031 0.0000000000
0.4660716493 0.4274349179 0.0000000000
0.4959171195 0.4324026109 0.0000000000
0.5250373422 0.4368983202 0.0000000000
0.5542049875 0.4411912582 0.0000000000
0.5847250066 0.4457430021 0.0000000000
0.6153248414 0.4506112203 0.0000000000
0.6448240562 0.4550705059 0.0000000000
0.6719442058 0.4586828670 0.0000000000
