2. reversing the negative_/print paper LUTs/color/Beyond Print/Kodak Metallic_color only.cube
LUT_3D_SIZE 5
0.0027119646 0.0026658952 0.0026761305
0.2439685928 0.0041296143 0.0035913587
0.4481530637 0.0037929159 0.0046507738
0.6243101541 0.0026641105 0.0026613064
0.7839506431 0.0026641105 0.0026613064
0.0026484694 0.1597676365 0.0258661347
0.2872986100 0.2283384302 0.0215251394
0.5260172108 0.2594857284 0.0026613064
0.7252056014 0.2755523971 0.0026613064
0.9027832764 0.2795788249 0.0026613064
0.0026484694 0.3035621250 0.0256620839
0.2821951339 0.3858142728 0.0026613064
0.5456766673 0.4293009334 0.0026613064
0.7656373494 0.4596235343 0.0026613064
0.9525030980 0.4765049088 0.0026613064
0.0026484694 0.4230246560 0.0076070564
0.2735023086 0.5365882009 0.0026613064
0.5751230336 0.5968603313 0.0026613064
0.8097211298 0.6379974466 0.0026613064
0.9998152274 0.6674294611 0.0026613064
0.0026484694 0.5428398259 0.0026613064
0.2389521236 0.6986464655 0.0026613064
0.5911117668 0.7734413709 0.0026613064
0.8458071493 0.8249242548 0.0026613064
0.9998152274 0.8602084637 0.0026613064
0.0026484694 0.0026681353 0.2059687564
0.2388288591 0.0036771959 0.2193647783
0.4429762446 0.0030183146 0.2179787415
0.6224208249 0.0026641105 0.2173897825
0.7875368839 0.0026641105 0.2117769686
0.0026484694 0.1900722416 0.2477236038
0.2499999929 0.2499999928 0.2499999930
0.5091831809 0.2852011189 0.2539594889
0.7167108534 0.3068399723 0.2456738681
0.9022094806 0.3111086541 0.2363875507
0.0026484694 0.3442218238 0.2614413842
0.2238538938 0.4284002134 0.2624551398
0.5308173344 0.4814740347 0.2603278809
0.7572158118 0.5103628975 0.2486368582
0.9545020999 0.5267526060 0.2360973653
0.0026484694 0.4716551932 0.2737635966
0.1648750309 0.5865187424 0.2656395800
0.5339394333 0.6462027689 0.2537112727
0.7821175502 0.6878187423 0.2384205093
0.9950158967 0.7160065669 0.2215446732
0.0026484694 0.5973658797 0.2745813141
0.0223814360 0.7485133864 0.2527733953
0.5336318891 0.8245069236 0.2332130649
0.8085178961 0.8771264756 0.2073324912
0.9998152274 0.9130492054 0.1784207993
0.0125836802 0.0026641105 0.3860246045
0.2367939851 0.0026641105 0.4040380798
0.4430065709 0.0026641105 0.4113590798
0.6229154114 0.0026641105 0.4124485335
0.7933393688 0.0026641105 0.4139683231
0.0026484694 0.2011240654 0.4466772679
0.2300134237 0.2634571567 0.4700479696
0.4959369518 0.2972131013 0.4754824653
0.7043497373 0.3136994257 0.4737610056
0.8989602820 0.3195941447 0.4709713078
0.0026484694 0.3738350023 0.4796100356
0.1582709839 0.4545592448 0.4949970323
0.5000000031 0.5000000033 0.5000000031
0.7370913215 0.5323029509 0.4936110438
0.9481806814 0.5538170160 0.4928948683
0.0026484694 0.5005796384 0.4945209169
0.0188267550 0.6138532306 0.5116699870
0.5022786747 0.6781777103 0.5122694100
0.7635841217 0.7203151439 0.5088145540
0.9851555655 0.7529479554 0.5053273539
0.0026484694 0.6328717804 0.5132964651
0.0026484694 0.7844465030 0.5252386883
0.4962869042 0.8580531483 0.5236916243
0.7813488188 0.9142673436 0.5112453812
0.9998152274 0.9519097200 0.5001809736
0.0649459477 0.0026641105 0.5547993980
0.2513813368 0.0026641105 0.5856583849
0.4511988480 0.0026641105 0.5999667327
0.6288106366 0.0026641105 0.6052023603
0.7999578442 0.0026641105 0.6091738637
0.0026484694 0.2009016478 0.6413976095
0.2143887924 0.2594104614 0.6747967382
0.4878941055 0.2948543702 0.6863064020
0.7036672165 0.3159476917 0.6907230434
0.9007066788 0.3257173085 0.6948323185
0.0026484694 0.3847941424 0.6839876701
0.1102527016 0.4676544852 0.7134792352
0.4931247614 0.5198643950 0.7230945062
0.7344990235 0.5554313140 0.7282114373
0.9488948104 0.5760134477 0.7296056285
0.0026484694 0.5216918527 0.7056874090
0.0026484694 0.6400825042 0.7371366713
0.4778903648 0.7047208700 0.7457655734
0.7499999942 0.7499999943 0.7499999944
0.9762138985 0.7784047609 0.7464519585
0.0026484694 0.6553428750 0.7304637865
0.0026484694 0.8115534455 0.7593602289
0.4582853647 0.8861818031 0.7663387883
0.7611511524 0.9393427339 0.7644695523
0.9998152274 0.9764148527 0.7626760121
0.1010653809 0.0026641105 0.7055224125
0.2715889397 0.0026641105 0.7466311982
0.4605954987 0.0026641105 0.7625435195
0.6338536564 0.0026641105 0.7694183835
0.8074327461 0.0026641105 0.7748815244
0.0026484694 0.1955609556 0.7988908504
0.2165382602 0.2632468140 0.8541401441
0.4930420494 0.2985223750 0.8719845028
0.7117076373 0.3215068263 0.8807285208
0.9084646753 0.3285024430 0.8856302053
0.0026484694 0.3989608074 0.8484104042
0.0581852626 0.4891678363 0.9021178486
0.4839498598 0.5402125734 0.9198154009
0.7325735451 0.5750735082 0.9291123243
0.9469689587 0.5981770043 0.9331014872
0.0026484694 0.5481056488 0.8888944558
0.0026484694 0.6664515483 0.9418661766
0.4628428607 0.7335163152 0.9585468219
0.7477588505 0.7742372789 0.9601687981
0.9735004809 0.8061971344 0.9675996915
0.0026484694 0.6678390407 0.9066529112
0.0026484694 0.8262881866 0.9672921330
0.4255743087 0.8992454968 0.9808675588
0.7467433372 0.9527607356 0.9884388590
0.9997549740 0.9997548645 0.9998041435
