2. reversing the negative_/print paper LUTs/color/Beyond Print/Kodak Metallic_color only.cube
LUT_3D_SIZE 33
0.0027119646 0.0026658952 0.0026761305
0.0585249013 0.0029368409 0.0092227683
0.0857011313 0.0031312260 0.0166408061
0.1117740277 0.0032899551 0.0218548398
0.1375927680 0.0038992318 0.0219600367
0.1649167274 0.0044386677 0.0190671359
0.1917612908 0.0046362521 0.0138561037
0.2180680619 0.0043967135 0.0073120832
0.2439685928 0.0041296143 0.0035913587
0.2710683966 0.0042401580 0.0035497809
0.2972641752 0.0046994740 0.0058470434
0.3214702352 0.0051627995 0.0087649610
0.3451602680 0.0053659449 0.0109236149
0.3699693118 0.0053050985 0.0115400403
0.3962618112 0.0050371838 0.0103043115
0.4228799382 0.0044929253 0.0076712880
0.4481530637 0.0037929159 0.0046507738
0.4712528929 0.0032446211 0.0026613064
0.4921790044 0.0031252940 0.0026613064
0.5131573487 0.0030115980 0.0026613064
0.5361382542 0.0029105931 0.0026613064
0.5596964187 0.0028082424 0.0026613064
0.5823551316 0.0027141151 0.0026613064
0.6039251444 0.0026641105 0.0026613064
0.6243101541 0.0026641105 0.0026613064
0.6427454654 0.0026641105 0.0026613064
0.6631941132 0.0026641105 0.0026613064
0.6856278489 0.0026641105 0.0026613064
0.7068863225 0.0026641105 0.0026613064
0.7279614627 0.0026641105 0.0026613064
0.7482561569 0.0026641105 0.0026613064
0.7669261868 0.0026641105 0.0026613064
0.7839506431 0.0026641105 0.0026613064
0.0026484694 0.0252325485 0.0068267477
0.0386375667 0.0327687159 0.0114131712
0.0770283945 0.0385215492 0.0175791159
0.1107610398 0.0437096877 0.0222090833
0.1421183660 0.0479106364 0.0242391036
0.1742136675 0.0514642712 0.0244701210
0.2059871394 0.0551051805 0.0237485995
0.2371562959 0.0586412218 0.0225856510
0.2675135578 0.0616529729 0.0204792914
0.2967722605 0.0635824609 0.0171038281
0.3231650796 0.0643707096 0.0131262671
0.3473205358 0.0647553850 0.0097204807
0.3719681705 0.0652794923 0.0080855686
0.3974428697 0.0662545759 0.0070408086
0.4246958498 0.0673128650 0.0059706518
0.4525700631 0.0682720311 0.0044384922
0.4793826326 0.0690976520 0.0030547600
0.5042043077 0.0698168471 0.0026652187
0.5267172403 0.0702864498 0.0026614857
0.5491252097 0.0701125434 0.0026613064
0.5731604012 0.0693745778 0.0026613064
0.5974285208 0.0681515642 0.0026613064
0.6207252813 0.0666922556 0.0026613064
0.6431076495 0.0651405460 0.0026613064
0.6646564148 0.0635336526 0.0026613064
0.6840170862 0.0615991235 0.0026613064
0.7057649662 0.0590150202 0.0026613064
0.7289724654 0.0555738482 0.0026613064
0.7501996432 0.0523321598 0.0026613064
0.7702539251 0.0493449915 0.0026613064
0.7894675748 0.0464181344 0.0026613064
0.8073199556 0.0435893674 0.0026613064
0.8237754774 0.0409693640 0.0026613064
0.0026484694 0.0440898693 0.0142770251
0.0178438143 0.0511797553 0.0150068870
0.0698208572 0.0581438595 0.0200460923
0.1075790018 0.0647207764 0.0246952285
0.1410429517 0.0703611629 0.0259424143
0.1746448172 0.0753409283 0.0253172551
0.2074840078 0.0796080216 0.0239777133
0.2390804974 0.0832247838 0.0224713182
0.2697524080 0.0864156617 0.0199951419
0.2998357780 0.0894589927 0.0160455112
0.3274664251 0.0919280632 0.0115401614
0.3528450144 0.0938501872 0.0082932618
0.3785375193 0.0957258746 0.0071066079
0.4049819620 0.0977709085 0.0072257404
0.4328754892 0.0996957071 0.0073123751
0.4609886405 0.1012176935 0.0061244537
0.4875516551 0.1022296591 0.0039392840
0.5119778269 0.1029571799 0.0026682268
0.5342690627 0.1034837754 0.0026613249
0.5568386790 0.1039526490 0.0026613064
0.5814788501 0.1043925890 0.0026613064
0.6064075829 0.1044581645 0.0026613064
0.6304062779 0.1041785450 0.0026613064
0.6536492802 0.1036548887 0.0026613064
0.6762582674 0.1030049150 0.0026613064
0.6973170693 0.1025504381 0.0026613064
0.7207406381 0.1028091453 0.0026613064
0.7454679046 0.1033176893 0.0026613064
0.7673646248 0.1030150430 0.0026613064
0.7877330134 0.1016102988 0.0026613064
0.8070409404 0.0994332544 0.0026613064
0.8247576804 0.0967260441 0.0026613064
0.8410970574 0.0939433696 0.0026613064
0.0026484694 0.0641385407 0.0227919572
0.0063080766 0.0714686364 0.0200842650
0.0620292045 0.0792500576 0.0239569543
0.1051521357 0.0868136646 0.0280634411
0.1406711113 0.0928717224 0.0285303057
0.1754594371 0.0982061735 0.0266917898
0.2091012174 0.1027321696 0.0244021375
0.2410085645 0.1064298717 0.0221581902
0.2719179059 0.1097979984 0.0193156271
0.3026240402 0.1134499874 0.0157045808
0.3314571356 0.1170593548 0.0117489259
0.3581259872 0.1202142939 0.0088840862
0.3846017566 0.1230766770 0.0078938726
0.4114864630 0.1258636690 0.0080256798
0.4397096869 0.1284168037 0.0081678694
0.4680974914 0.1306422703 0.0073567970
0.4947716912 0.1323406150 0.0051039056
0.5190860139 0.1335615158 0.0029277564
0.5414110612 0.1344967791 0.0026620199
0.5642850982 0.1353661197 0.0026613064
0.5892681964 0.1360837250 0.0026613064
0.6146830613 0.1367337456 0.0026613064
0.6391193970 0.1371766607 0.0026613064
0.6629008530 0.1373060363 0.0026613064
0.6862935811 0.1371908313 0.0026613064
0.7079734398 0.1374130364 0.0026613064
0.7322951842 0.1387191334 0.0026613064
0.7572932114 0.1407815470 0.0026613064
0.7795486227 0.1419276985 0.0026613064
0.8001466711 0.1415831539 0.0026613064
0.8197717306 0.1401472655 0.0026613064
0.8377474939 0.1379878490 0.0026613064
0.8541362315 0.1354230057 0.0026613064
0.0026484694 0.0850417877 0.0297158918
0.0056356083 0.0935972581 0.0267551549
0.0568677947 0.1024207727 0.0296019452
0.1037081592 0.1106556055 0.0320071853
0.1411991294 0.1168713491 0.0313140753
0.1771146743 0.1221179898 0.0286566206
0.2114580339 0.1267607122 0.0253699943
0.2436131638 0.1308932846 0.0222262220
0.2749092155 0.1348029850 0.0192067218
0.3062986356 0.1390958941 0.0167969309
0.3362408601 0.1433826472 0.0149093292
0.3641423492 0.1471902535 0.0132440616
0.3911992919 0.1505353609 0.0115691632
0.4180256753 0.1535326064 0.0098135423
0.4461570168 0.1563314347 0.0087148695
0.4746045158 0.1590380152 0.0076239545
0.5016098302 0.1615834833 0.0062455536
0.5264006821 0.1637919872 0.0045748653
0.5492957317 0.1655649832 0.0030764377
0.5727183255 0.1667129005 0.0027246025
0.5980847892 0.1674309666 0.0026613064
0.6237928063 0.1678580798 0.0026613064
0.6483505783 0.1681968692 0.0026613064
0.6721539396 0.1685026096 0.0026613064
0.6957996071 0.1686579968 0.0026613064
0.7175408564 0.1689734933 0.0026613064
0.7416146839 0.1699017870 0.0026613064
0.7661231116 0.1713981655 0.0026613064
0.7881597943 0.1722250156 0.0026613064
0.8088004860 0.1721089404 0.0026613064
0.8287008184 0.1711943678 0.0026613064
0.8470693739 0.1697417730 0.0026613064
0.8637955310 0.1679525703 0.0026613064
0.0026484694 0.1047045499 0.0336371536
0.0048880107 0.1153756446 0.0321955754
0.0518236430 0.1250762449 0.0337216628
0.1020274431 0.1341374364 0.0345460916
0.1411161449 0.1408552281 0.0328472266
0.1782051835 0.1462572535 0.0295364070
0.2133583692 0.1511871002 0.0258392539
0.2460815392 0.1557743516 0.0223925519
0.2779669628 0.1599695305 0.0194478857
0.3100269210 0.1643310571 0.0177097475
0.3408297873 0.1685838039 0.0172155812
0.3696485859 0.1723445246 0.0167050682
0.3971614851 0.1756269159 0.0150067295
0.4240006412 0.1785206128 0.0115026876
0.4520753173 0.1814958296 0.0087962925
0.4805815882 0.1846321906 0.0071758206
0.5079494484 0.1878187719 0.0065428444
0.5333107784 0.1907464981 0.0061963509
0.5567510392 0.1931588679 0.0054431174
0.5806654500 0.1946144957 0.0032123491
0.6063668246 0.1954566699 0.0026695021
0.6322165464 0.1958175179 0.0026613064
0.6567852538 0.1960394106 0.0026613064
0.6805403360 0.1963505818 0.0026613064
0.7043422881 0.1966786885 0.0026613064
0.7261304471 0.1970298740 0.0026613064
0.7497652832 0.1976169352 0.0026613064
0.7739285670 0.1984600634 0.0026613064
0.7957484823 0.1989158770 0.0026613064
0.8166148424 0.1987627705 0.0026613064
0.8368257494 0.1981128852 0.0026613064
0.8556159351 0.1971271261 0.0026613064
0.8728306204 0.1959486871 0.0026613064
0.0026484694 0.1218658295 0.0309060291
0.0026484694 0.1362370951 0.0351811199
0.0386842569 0.1463550356 0.0339470472
0.0981987201 0.1554508389 0.0319878362
0.1390113219 0.1622326953 0.0301858272
0.1776442499 0.1678560277 0.0277925432
0.2142735597 0.1731097683 0.0255165265
0.2481787444 0.1780919008 0.0231927884
0.2810422925 0.1828549288 0.0207496983
0.3137364307 0.1874590133 0.0180306570
0.3448888277 0.1915085537 0.0153273819
0.3740374697 0.1950240235 0.0129128250
0.4017316498 0.1983035016 0.0104603660
0.4288517871 0.2014293584 0.0086851122
0.4572690894 0.2046495565 0.0070514149
0.4861086075 0.2079319364 0.0056725591
0.5138485541 0.2112036691 0.0047793323
0.5396253248 0.2142439147 0.0041758984
0.5633618549 0.2167612858 0.0032923423
0.5875052412 0.2185303783 0.0028171505
0.6132493424 0.2198349081 0.0026616325
0.6390191986 0.2207049096 0.0026613064
0.6636379339 0.2213630461 0.0026613064
0.6876141994 0.2219684427 0.0026613064
0.7115377881 0.2224726358 0.0026613064
0.7336736144 0.2229906779 0.0026613064
0.7573283469 0.2237699648 0.0026613064
0.7816670407 0.2246931346 0.0026613064
0.8037304008 0.2252236039 0.0026613064
0.8251414057 0.2251934963 0.0026613064
0.8459872026 0.2247245622 0.0026613064
0.8653453391 0.2239317429 0.0026613064
0.8830574994 0.2229413151 0.0026613064
0.0026484694 0.1397341109 0.0256014318
0.0026484694 0.1580364465 0.0369090286
0.0340311609 0.1674032720 0.0325787836
0.0927293865 0.1755027735 0.0268535947
0.1356493313 0.1825717680 0.0248455457
0.1762158428 0.1889960948 0.0245894476
0.2145389394 0.1948033254 0.0241487672
0.2502517811 0.2005326463 0.0238399158
0.2842364424 0.2057753601 0.0221559800
0.3175393347 0.2104189024 0.0176305533
0.3488340530 0.2142673899 0.0117129108
0.3779810652 0.2176332937 0.0074339710
0.4057491525 0.2210119715 0.0055904943
0.4333034619 0.2245971229 0.0049727421
0.4622789974 0.2283391499 0.0045003778
0.4916259871 0.2319198890 0.0036761604
0.5198430982 0.2351378961 0.0029003871
0.5460557643 0.2379871815 0.0026613064
0.5700509746 0.2404002405 0.0026613064
0.5941965600 0.2424613009 0.0026613064
0.6197504637 0.2443698526 0.0026613064
0.6452535563 0.2459832091 0.0026613064
0.6698659912 0.2472524853 0.0026613064
0.6941799255 0.2482308813 0.0026613064
0.7183746703 0.2489813376 0.0026613064
0.7408293584 0.2496317507 0.0026613064
0.7646173100 0.2506246925 0.0026613064
0.7892532490 0.2518349261 0.0026613064
0.8118482009 0.2526007181 0.0026613064
0.8340297942 0.2527905795 0.0026613064
0.8556814353 0.2525173523 0.0026613064
0.8755878210 0.2519104512 0.0026613064
0.8935637463 0.2510731682 0.0026613064
0.0026484694 0.1597676365 0.0258661347
0.0026484694 0.1779299946 0.0379106988
0.0279937318 0.1878123886 0.0328860339
0.0867138500 0.1961059429 0.0253715726
0.1324116529 0.2033868262 0.0227061221
0.1751103152 0.2101164607 0.0226876260
0.2151391027 0.2164112391 0.0225142738
0.2522362795 0.2226255757 0.0226149827
0.2872986100 0.2283384302 0.0215251394
0.3211418675 0.2332431354 0.0168139608
0.3526335333 0.2371315659 0.0098695944
0.3817984901 0.2405216071 0.0055372539
0.4098065639 0.2440892491 0.0033738944
0.4378956518 0.2481092970 0.0031658018
0.4675311267 0.2522807241 0.0030770737
0.4973995313 0.2561695859 0.0028636737
0.5260172108 0.2594857284 0.0026613064
0.5525926154 0.2622740892 0.0026613064
0.5768770835 0.2646308865 0.0026613064
0.6009332175 0.2669360266 0.0026613064
0.6262589665 0.2693135859 0.0026613064
0.6514884560 0.2715118200 0.0026613064
0.6760719208 0.2733000766 0.0026613064
0.7006987786 0.2746113318 0.0026613064
0.7252056014 0.2755523971 0.0026613064
0.7477143046 0.2763717118 0.0026613064
0.7716015658 0.2774595283 0.0026613064
0.7963758183 0.2787676628 0.0026613064
0.8193932367 0.2797528139 0.0026613064
0.8420762705 0.2802361143 0.0026613064
0.8642907770 0.2803286920 0.0026613064
0.8846185206 0.2801417900 0.0026613064
0.9027832764 0.2795788249 0.0026613064
0.0026484694 0.1803719689 0.0313353338
0.0026484694 0.1967192026 0.0382493091
0.0197333055 0.2075667608 0.0343006156
0.0796972055 0.2169205557 0.0278962109
0.1292617535 0.2247704890 0.0240756265
0.1742731907 0.2317950461 0.0221162575
0.2159516431 0.2382760097 0.0206364012
0.2542398585 0.2445624071 0.0198462442
0.2900991217 0.2504032778 0.0184855136
0.3243459870 0.2554388231 0.0147805955
0.3560785227 0.2595237534 0.0089660333
0.3853729817 0.2630956909 0.0054249227
0.4137768171 0.2669022790 0.0033524086
0.4425194334 0.2712877932 0.0030368010
0.4728316784 0.2759254012 0.0028676510
0.5032235903 0.2802727731 0.0027477871
0.5322120022 0.2839773854 0.0026613064
0.5590888874 0.2870929884 0.0026613064
0.5835718546 0.2897021685 0.0026613064
0.6075221807 0.2924027213 0.0026613064
0.6326015243 0.2952829287 0.0026613064
0.6575718293 0.2980067671 0.0026613064
0.6821028735 0.3002508916 0.0026613064
0.7070321600 0.3019132722 0.0026613064
0.7318244924 0.3030918282 0.0026613064
0.7543150971 0.3040293028 0.0026613064
0.7782386091 0.3051660860 0.0026613064
0.8029970946 0.3063751704 0.0026613064
0.8262415585 0.3074085206 0.0026613064
0.8491393981 0.3082213751 0.0026613064
0.8714616258 0.3088309605 0.0026613064
0.8920137394 0.3092604211 0.0026613064
0.9103039282 0.3093244270 0.0026613064
0.0026484694 0.1998865654 0.0355891189
0.0026484694 0.2143357931 0.0372854636
0.0095991349 0.2259659995 0.0341965448
0.0707807583 0.2364452929 0.0294501536
0.1249157860 0.2447939075 0.0248297040
0.1721071960 0.2519919512 0.0208251432
0.2152181203 0.2584983635 0.0177590816
0.2545519357 0.2647582387 0.0159526786
0.2910926613 0.2705621734 0.0141894767
0.3258351067 0.2758283023 0.0109896619
0.3578105762 0.2802259317 0.0071764021
0.3872915030 0.2841915426 0.0047069895
0.4161098678 0.2884177820 0.0031133460
0.4454925940 0.2932835901 0.0028458625
0.4764547094 0.2984350394 0.0027167144
0.5073869335 0.3032636040 0.0026613064
0.5367221267 0.3073483163 0.0026613064
0.5638988875 0.3107438266 0.0026613064
0.5885853116 0.3136966166 0.0026613064
0.6126109853 0.3166645176 0.0026613064
0.6377126696 0.3198140593 0.0026613064
0.6627233464 0.3228544690 0.0026613064
0.6872663115 0.3254441034 0.0026613064
0.7124639147 0.3274505831 0.0026613064
0.7375899351 0.3289037196 0.0026613064
0.7600824880 0.3300703866 0.0026613064
0.7841576599 0.3313640051 0.0026613064
0.8091188147 0.3326613858 0.0026613064
0.8326292105 0.3338023952 0.0026613064
0.8556756003 0.3348661216 0.0026613064
0.8778376416 0.3358477664 0.0026613064
0.8981961929 0.3367032593 0.0026613064
0.9166673650 0.3373501423 0.0026613064
0.0026484694 0.2176903096 0.0371686687
0.0026484694 0.2316147669 0.0345039699
0.0026484694 0.2433807155 0.0320077730
0.0587898318 0.2541480541 0.0283072314
0.1187080242 0.2626708773 0.0232650384
0.1678039375 0.2700527844 0.0179117945
0.2120539356 0.2767889960 0.0138012116
0.2521658822 0.2832518958 0.0115659330
0.2893342496 0.2892587589 0.0092913902
0.3245366191 0.2947930621 0.0069865206
0.3569808964 0.2995628872 0.0045229443
0.3868963443 0.3038933435 0.0027701251
0.4161315216 0.3084605045 0.0026660770
0.4461209327 0.3137546701 0.0026613064
0.4776999944 0.3193421959 0.0026613064
0.5091649504 0.3245924979 0.0026613064
0.5388667141 0.3290635763 0.0026613064
0.5662769870 0.3327829964 0.0026613064
0.5912499107 0.3359646193 0.0026613064
0.6155767887 0.3390205386 0.0026613064
0.6410595637 0.3421663651 0.0026613064
0.6665449529 0.3451763546 0.0026613064
0.6915382572 0.3478280442 0.0026613064
0.7169076323 0.3500555970 0.0026613064
0.7423368086 0.3518734139 0.0026613064
0.7649344547 0.3533301364 0.0026613064
0.7893538672 0.3549986867 0.0026613064
0.8148866232 0.3566488798 0.0026613064
0.8388574389 0.3580563567 0.0026613064
0.8620680146 0.3593091116 0.0026613064
0.8840053494 0.3604431193 0.0026613064
0.9039908676 0.3614274156 0.0026613064
0.9222141576 0.3622968489 0.0026613064
0.0026484694 0.2352411438 0.0364634886
0.0026484694 0.2492732610 0.0300751244
0.0026484694 0.2605492675 0.0280327548
0.0493762554 0.2710822394 0.0250428017
0.1108393809 0.2798784245 0.0198440527
0.1615824425 0.2876796684 0.0135583955
0.2067981745 0.2947367947 0.0092128302
0.2474902036 0.3013044363 0.0075976802
0.2852180068 0.3075137696 0.0058280420
0.3210295196 0.3133976825 0.0035124635
0.3539494470 0.3185609870 0.0027359284
0.3844473954 0.3232870846 0.0026660772
0.4144098906 0.3283023066 0.0026660770
0.4449998856 0.3339372759 0.0026613064
0.4771787006 0.3398029597 0.0026613064
0.5091528418 0.3452591115 0.0026613064
0.5391987533 0.3498993400 0.0026613064
0.5668286641 0.3537807885 0.0026613064
0.5921269620 0.3570634862 0.0026613064
0.6169452499 0.3600656678 0.0026613064
0.6430823447 0.3630587053 0.0026613064
0.6693603680 0.3659084969 0.0026613064
0.6950937460 0.3685354482 0.0026613064
0.7208832417 0.3709726808 0.0026613064
0.7464884575 0.3732200958 0.0026613064
0.7692250120 0.3752008620 0.0026613064
0.7941579489 0.3774054563 0.0026613064
0.8205754910 0.3796868437 0.0026613064
0.8451045590 0.3815315436 0.0026613064
0.8685089468 0.3830112509 0.0026613064
0.8901713922 0.3842306850 0.0026613064
0.9096874409 0.3852171068 0.0026613064
0.9273373112 0.3860264160 0.0026613064
0.0026484694 0.2519515274 0.0347202460
0.0026484694 0.2661152902 0.0252671930
0.0026484694 0.2774062537 0.0232968987
0.0345607074 0.2880269615 0.0209684429
0.1024553501 0.2970142375 0.0156241575
0.1552942877 0.3052975792 0.0098065890
0.2017567949 0.3127372173 0.0064269745
0.2433205863 0.3195008661 0.0045604976
0.2818572583 0.3258818302 0.0035033579
0.3184020421 0.3319913964 0.0028415107
0.3519943341 0.3373698085 0.0026613064
0.3831210573 0.3422489909 0.0026613064
0.4135394799 0.3473489924 0.0026613064
0.4445967529 0.3529786763 0.0026613064
0.4771162519 0.3589542829 0.0026613064
0.5093682856 0.3646016026 0.0026613064
0.5396169711 0.3694558605 0.0026613064
0.5674436549 0.3735454466 0.0026613064
0.5929950136 0.3770254258 0.0026613064
0.6183960440 0.3801629590 0.0026613064
0.6452152882 0.3831669863 0.0026613064
0.6723066489 0.3860324251 0.0026613064
0.6987412983 0.3887332686 0.0026613064
0.7249180009 0.3913408958 0.0026613064
0.7505907683 0.3938640174 0.0026613064
0.7734254542 0.3961774883 0.0026613064
0.7987316476 0.3987982477 0.0026613064
0.8258486880 0.4015476235 0.0026613064
0.8508904765 0.4037867396 0.0026613064
0.8743674072 0.4055002040 0.0026613064
0.8959228198 0.4067861427 0.0026613064
0.9152162052 0.4077367925 0.0026613064
0.9326133468 0.4084617733 0.0026613064
0.0026484694 0.2691713601 0.0326030699
0.0026484694 0.2837806521 0.0223723049
0.0026484694 0.2952762194 0.0185467508
0.0089315827 0.3062335331 0.0155316789
0.0931390253 0.3157873476 0.0111122883
0.1498763814 0.3246545440 0.0069162829
0.1981632507 0.3324129165 0.0040425050
0.2412386901 0.3391155298 0.0030240679
0.2808867907 0.3454077228 0.0027236538
0.3184610728 0.3516556276 0.0026613064
0.3529288764 0.3573130993 0.0026613064
0.3846621236 0.3623780720 0.0026613064
0.4153445467 0.3674611830 0.0026613064
0.4460167407 0.3726963066 0.0026613064
0.4780772805 0.3781959311 0.0026613064
0.5103438604 0.3838280305 0.0026613064
0.5407092917 0.3888469022 0.0026613064
0.5687153302 0.3931597846 0.0026613064
0.5945309059 0.3968766510 0.0026613064
0.6203745933 0.4003809646 0.0026613064
0.6479193397 0.4038313701 0.0026613064
0.6757872077 0.4069743167 0.0026613064
0.7028909149 0.4098345395 0.0026613064
0.7293848254 0.4124982279 0.0026613064
0.7549948308 0.4150227404 0.0026613064
0.7778455432 0.4173901450 0.0026613064
0.8032159869 0.4201516493 0.0026613064
0.8306163985 0.4231395540 0.0026613064
0.8559583722 0.4255971377 0.0026613064
0.8796266982 0.4275187414 0.0026613064
0.9016108152 0.4290098078 0.0026613064
0.9211567153 0.4300808880 0.0026613064
0.9386960341 0.4308522403 0.0026613064
0.0026484694 0.2868165074 0.0297852278
0.0026484694 0.3020654620 0.0207302294
0.0026484694 0.3140053587 0.0144290263
0.0026484694 0.3253501834 0.0106279616
0.0812128291 0.3354442515 0.0071407851
0.1448808921 0.3448409229 0.0043857553
0.1955059787 0.3528816802 0.0028679162
0.2404925606 0.3595936427 0.0026613064
0.2815072432 0.3658583945 0.0026613064
0.3203138028 0.3723057716 0.0026613064
0.3558660605 0.3783288006 0.0026613064
0.3882269489 0.3836433313 0.0026613064
0.4190344012 0.3886540408 0.0026613064
0.4491515724 0.3933729881 0.0026613064
0.4804977994 0.3983141404 0.0026613064
0.5121830190 0.4035032111 0.0026613064
0.5425284232 0.4085620100 0.0026613064
0.5706800502 0.4130810084 0.0026613064
0.5967465919 0.4170546632 0.0026613064
0.6229807422 0.4209528384 0.0026613064
0.6511205891 0.4250042959 0.0026613064
0.6798358300 0.4287160202 0.0026613064
0.7075865411 0.4318717753 0.0026613064
0.7343842229 0.4345886313 0.0026613064
0.7598744475 0.4369615438 0.0026613064
0.7826461913 0.4391840070 0.0026613064
0.8079087007 0.4418889807 0.0026613064
0.8353026947 0.4449092439 0.0026613064
0.8608022741 0.4474483405 0.0026613064
0.8846477364 0.4495006161 0.0026613064
0.9071101794 0.4511981819 0.0026613064
0.9273428111 0.4524819419 0.0026613064
0.9454455513 0.4534332823 0.0026613064
0.0026484694 0.3035621250 0.0256620839
0.0026484694 0.3196340616 0.0190356793
0.0026484694 0.3320476217 0.0121512823
0.0026484694 0.3437738375 0.0071089233
0.0736802093 0.3542869524 0.0043754812
0.1399328655 0.3640753569 0.0029448103
0.1929404199 0.3724173834 0.0026656501
0.2398010523 0.3793496407 0.0026613064
0.2821951339 0.3858142728 0.0026613064
0.3221941377 0.3925728153 0.0026613064
0.3588767963 0.3990603570 0.0026613064
0.3919730725 0.4047566068 0.0026613064
0.4230173650 0.4098732479 0.0026613064
0.4530596228 0.4145956117 0.0026613064
0.4841681944 0.4194473633 0.0026613064
0.5155103697 0.4244006427 0.0026613064
0.5456766673 0.4293009334 0.0026613064
0.5739195524 0.4339315448 0.0026613064
0.6001702539 0.4380974876 0.0026613064
0.6266258735 0.4422304156 0.0026613064
0.6551056572 0.4466249630 0.0026613064
0.6844561520 0.4508427823 0.0026613064
0.7129724849 0.4544076777 0.0026613064
0.7401356944 0.4572778665 0.0026613064
0.7656373494 0.4596235343 0.0026613064
0.7883604343 0.4617411359 0.0026613064
0.8135145436 0.4643390274 0.0026613064
0.8407424292 0.4672819133 0.0026613064
0.8662654765 0.4698388850 0.0026613064
0.8901235977 0.4719989581 0.0026613064
0.9128044692 0.4738397151 0.0026613064
0.9336943708 0.4753439872 0.0026613064
0.9525030980 0.4765049088 0.0026613064
0.0026484694 0.3183297333 0.0201747185
0.0026484694 0.3353181390 0.0164533035
0.0026484694 0.3483391574 0.0103336833
0.0026484694 0.3604181308 0.0053715609
0.0663816390 0.3712237204 0.0029606992
0.1349802268 0.3813147574 0.0026707493
0.1900499462 0.3899861751 0.0026613064
0.2385073917 0.3973050060 0.0026613064
0.2821186229 0.4041620565 0.0026613064
0.3231108056 0.4113107178 0.0026613064
0.3607732625 0.4182663216 0.0026613064
0.3947408696 0.4245346622 0.0026613064
0.4263277919 0.4301151650 0.0026613064
0.4570168045 0.4355628021 0.0026613064
0.4886943190 0.4411372615 0.0026613064
0.5203779951 0.4464841400 0.0026613064
0.5506824879 0.4514366151 0.0026613064
0.5789198664 0.4559843568 0.0026613064
0.6052582072 0.4602063168 0.0026613064
0.6317252412 0.4643731238 0.0026613064
0.6603118164 0.4688381390 0.0026613064
0.6898974496 0.4732145838 0.0026613064
0.7189785116 0.4771079971 0.0026613064
0.7467567734 0.4803480582 0.0026613064
0.7724961372 0.4829545335 0.0026613064
0.7953369852 0.4852017494 0.0026613064
0.8205259647 0.4878009341 0.0026613064
0.8475239911 0.4906319278 0.0026613064
0.8728478934 0.4931493835 0.0026613064
0.8965500433 0.4953486740 0.0026613064
0.9191710968 0.4972705102 0.0026613064
0.9402518140 0.4988801984 0.0026613064
0.9596167409 0.5002267700 0.0026613064
0.0026484694 0.3310739584 0.0137763914
0.0026484694 0.3487109473 0.0124741206
0.0026484694 0.3625103408 0.0085536696
0.0026484694 0.3753635941 0.0045465271
0.0590627303 0.3864274515 0.0027965976
0.1302723636 0.3966012810 0.0026666522
0.1868858466 0.4055130752 0.0026613064
0.2364983740 0.4132621349 0.0026613064
0.2811131488 0.4205962417 0.0026613064
0.3229929712 0.4282559025 0.0026613064
0.3614766742 0.4356644870 0.0026613064
0.3962225752 0.4424983727 0.0026613064
0.4289649118 0.4492371715 0.0026613064
0.4609395928 0.4560321762 0.0026613064
0.4939167910 0.4630487196 0.0026613064
0.5266412679 0.4694765527 0.0026613064
0.5575082163 0.4748363093 0.0026613064
0.5859182924 0.4793213229 0.0026613064
0.6120047459 0.4832570254 0.0026613064
0.6383014650 0.4873051643 0.0026613064
0.6667884601 0.4916297707 0.0026613064
