2. reversing the negative/print paper LUTs/color/Altkit Pro/Alkit_Edge_color only.cube
LUT_3D_SIZE 33
0.0000145538 0.0000000000 0.0001014291
0.0370733497 0.0037977511 0.0000000000
0.0685474123 0.0084684094 0.0000000000
0.0964386695 0.0115509044 0.0000000000
0.1245557896 0.0121701507 0.0000000000
0.1536057476 0.0126001035 0.0000000000
0.1829679227 0.0122832230 0.0000000000
0.2120773310 0.0113318086 0.0000000000
0.2403985472 0.0098189806 0.0000000000
0.2682291501 0.0075536610 0.0000000000
0.2952365478 0.0046508642 0.0000000000
0.3214088692 0.0014851022 0.0000000000
0.3472317981 0.0000000000 0.0000000000
0.3728816039 0.0000000000 0.0000000000
0.3976367757 0.0000000000 0.0000000000
0.4208913511 0.0000000000 0.0000000000
0.4427669835 0.0000000000 0.0000000000
0.4637187024 0.0000000000 0.0000000000
0.4843768782 0.0000000000 0.0000000000
0.5052525149 0.0000000000 0.0000000000
0.5259378640 0.0000000000 0.0000000000
0.5449556219 0.0000000000 0.0000000000
0.5629620624 0.0000000000 0.0000000000
0.5797293340 0.0000000000 0.0000000000
0.5948462592 0.0000000000 0.0000000000
0.6089858158 0.0000000000 0.0000000000
0.6221500945 0.0000000000 0.0000000000
0.6342050557 0.0000000000 0.0000000000
0.6448554527 0.0000000000 0.0000000000
0.6549905546 0.0000000000 0.0000000000
0.6645268166 0.0000000000 0.0000000000
0.6736480919 0.0000000000 0.0000000000
0.6969625252 0.0000000000 0.0000000000
0.0000000000 0.0254724190 0.0000000000
0.0352046710 0.0291662280 0.0000000000
0.0692069236 0.0333182388 0.0000000000
0.1000202098 0.0365787259 0.0000000000
0.1298191774 0.0388981400 0.0000000000
0.1605571721 0.0412482515 0.0000000000
0.1911935045 0.0430468055 0.0000000000
0.2214393366 0.0443336995 0.0000000000
0.2508222887 0.0450060627 0.0000000000
0.2791282618 0.0452334793 0.0000000000
0.3069044706 0.0447740055 0.0000000000
0.3338122378 0.0438056631 0.0000000000
0.3604295171 0.0421269551 0.0000000000
0.3867982731 0.0395439114 0.0000000000
0.4120155831 0.0365376789 0.0000000000
0.4358132909 0.0326753324 0.0000000000
0.4582283329 0.0282201233 0.0000000000
0.4795207772 0.0235711139 0.0000000000
0.5006429051 0.0177914228 0.0000000000
0.5219525731 0.0113249740 0.0000000000
0.5428938490 0.0100019959 0.0000000000
0.5625098874 0.0086887872 0.0000000000
0.5808236233 0.0072858536 0.0000000000
0.5979777451 0.0050074191 0.0000000000
0.6135660884 0.0023370668 0.0000000000
0.6281145914 0.0000000000 0.0000000000
0.6415708886 0.0000000000 0.0000000000
0.6539111526 0.0000000000 0.0000000000
0.6647374744 0.0000000000 0.0000000000
0.6749997682 0.0000000000 0.0000000000
0.6846488854 0.0000000000 0.0000000000
0.6939005337 0.0000000000 0.0000000000
0.7174890057 0.0000000000 0.0000000000
0.0000000000 0.0478354300 0.0000481111
0.0325171775 0.0518056615 0.0000000000
0.0699960433 0.0567442294 0.0000000000
0.1030136524 0.0612484294 0.0000000000
0.1347755182 0.0651714262 0.0000000000
0.1668567226 0.0688421209 0.0000000000
0.1988903111 0.0720430094 0.0000000000
0.2302820702 0.0747195725 0.0000000000
0.2603334670 0.0769077694 0.0000000000
0.2896921215 0.0785908346 0.0000000000
0.3182286906 0.0798550437 0.0000000000
0.3461037001 0.0805322784 0.0000000000
0.3736525855 0.0805351088 0.0000000000
0.4006001668 0.0800000271 0.0000000000
0.4263706202 0.0787931158 0.0000000000
0.4506476296 0.0770656599 0.0000000000
0.4735010690 0.0749732917 0.0000000000
0.4954409498 0.0724274794 0.0000000000
0.5169200436 0.0695790016 0.0000000000
0.5386239673 0.0661452584 0.0000000000
0.5601449918 0.0620369208 0.0000000000
0.5802281612 0.0571834229 0.0000000000
0.5990770454 0.0520440664 0.0000000000
0.6166811205 0.0465759434 0.0000000000
0.6327208451 0.0407615116 0.0000000000
0.6476242194 0.0345027388 0.0000000000
0.6615638377 0.0281980543 0.0000000000
0.6742561062 0.0254518486 0.0000000000
0.6852311885 0.0219488740 0.0000000000
0.6955962048 0.0177027635 0.0000000000
0.7053327820 0.0151299563 0.0000000000
0.7146582482 0.0124319049 0.0000000000
0.7385212986 0.0019734040 0.0000000000
0.0000000000 0.0660053875 0.0004901245
0.0296664930 0.0715327583 0.0000000000
0.0698050330 0.0776257676 0.0000000000
0.1054818941 0.0830448088 0.0000000000
0.1388331995 0.0878341814 0.0000000000
0.1720300524 0.0923761445 0.0000000000
0.2051634336 0.0964538697 0.0000000000
0.2374712222 0.1000234959 0.0000000000
0.2682461825 0.1030761942 0.0000000000
0.2981634523 0.1057704099 0.0000000000
0.3275495313 0.1079504284 0.0000000000
0.3562410257 0.1096353312 0.0000000000
0.3845400689 0.1107177062 0.0000000000
0.4121538109 0.1110990431 0.0000000000
0.4383078552 0.1110337287 0.0000000000
0.4630382964 0.1103277588 0.0000000000
0.4863987406 0.1092021033 0.0000000000
0.5086731358 0.1079058893 0.0000000000
0.5306163124 0.1062063343 0.0000000000
0.5527289852 0.1041218772 0.0000000000
0.5746112982 0.1017092715 0.0000000000
0.5952654054 0.0985621869 0.0000000000
0.6147244840 0.0951871853 0.0000000000
0.6326478121 0.0918511109 0.0000000000
0.6490478402 0.0880027893 0.0000000000
0.6643496100 0.0838435068 0.0000000000
0.6785886829 0.0795959043 0.0000000000
0.6916734734 0.0751578901 0.0000000000
0.7029261825 0.0712986654 0.0000000000
0.7133642297 0.0674347661 0.0000000000
0.7231621172 0.0633281646 0.0000000000
0.7325481199 0.0589626233 0.0000000000
0.7565736025 0.0466970946 0.0000000000
0.0000000000 0.0833193056 0.0010347733
0.0250831938 0.0903236597 0.0000000000
0.0689921342 0.0974084575 0.0000000000
0.1067457357 0.1035318113 0.0000000000
0.1420887840 0.1089817326 0.0000000000
0.1763679929 0.1141531684 0.0000000000
0.2103919599 0.1189029880 0.0000000000
0.2435706602 0.1231139237 0.0000000000
0.2749677976 0.1268486902 0.0000000000
0.3055082856 0.1301812476 0.0000000000
0.3355005028 0.1331101038 0.0000000000
0.3649586143 0.1355063834 0.0000000000
0.3939970325 0.1373335978 0.0000000000
0.4221452584 0.1385764077 0.0000000000
0.4488458889 0.1391624477 0.0000000000
0.4739993396 0.1392587080 0.0000000000
0.4977843729 0.1389319646 0.0000000000
0.5204824462 0.1382462925 0.0000000000
0.5427265899 0.1372940630 0.0000000000
0.5651928048 0.1360595533 0.0000000000
0.5875363915 0.1344308785 0.0000000000
0.6085809371 0.1322841085 0.0000000000
0.6284235982 0.1299387417 0.0000000000
0.6469784032 0.1272967145 0.0000000000
0.6636167439 0.1244829463 0.0000000000
0.6792486380 0.1214879439 0.0000000000
0.6938747243 0.1183156854 0.0000000000
0.7072940808 0.1150643733 0.0000000000
0.7187162915 0.1123685936 0.0000000000
0.7293613194 0.1095205625 0.0000000000
0.7393047150 0.1066983314 0.0000000000
0.7488069627 0.1037891209 0.0000000000
0.7730921030 0.0957521732 0.0000000000
0.0000000000 0.1011569499 0.0011640198
0.0194165824 0.1091688090 0.0000000000
0.0672441381 0.1170005175 0.0000000000
0.1072266408 0.1237526663 0.0000000000
0.1441573630 0.1297875843 0.0000000000
0.1798630415 0.1354675719 0.0000000000
0.2148537723 0.1407275794 0.0000000000
0.2487998557 0.1454798583 0.0000000000
0.2808092254 0.1497234071 0.0000000000
0.3119423607 0.1536467696 0.0000000000
0.3425588913 0.1571532861 0.0000000000
0.3726510806 0.1602035121 0.0000000000
0.4023074908 0.1626993261 0.0000000000
0.4310242623 0.1646300197 0.0000000000
0.4582253832 0.1660152720 0.0000000000
0.4839554836 0.1667631046 0.0000000000
0.5082044675 0.1670717090 0.0000000000
0.5312174360 0.1670266767 0.0000000000
0.5537756241 0.1665713702 0.0000000000
0.5765534557 0.1657905109 0.0000000000
0.5992124154 0.1648253616 0.0000000000
0.6205437567 0.1631952838 0.0000000000
0.6408772401 0.1614713554 0.0000000000
0.6596740311 0.1595261699 0.0000000000
0.6768995854 0.1572556771 0.0000000000
0.6929055002 0.1549799307 0.0000000000
0.7078073266 0.1526638116 0.0000000000
0.7215291312 0.1502605503 0.0000000000
0.7333111638 0.1479597895 0.0000000000
0.7441713201 0.1458375039 0.0000000000
0.7543244134 0.1437409146 0.0000000000
0.7640666290 0.1415631793 0.0000000000
0.7888069159 0.1357016420 0.0000000000
0.0000000000 0.1192130374 0.0006993145
0.0116368981 0.1279125159 0.0000000000
0.0645774511 0.1364902919 0.0000000000
0.1069572127 0.1437927204 0.0000000000
0.1453993962 0.1503016089 0.0000000000
0.1823276896 0.1565018351 0.0000000000
0.2185363503 0.1622704729 0.0000000000
0.2532166547 0.1675658060 0.0000000000
0.2858159845 0.1724035641 0.0000000000
0.3176366538 0.1768760665 0.0000000000
0.3489110985 0.1809567121 0.0000000000
0.3796242353 0.1845003346 0.0000000000
0.4097510719 0.1876001753 0.0000000000
0.4389422551 0.1901806805 0.0000000000
0.4667571619 0.1922076674 0.0000000000
0.4929959078 0.1936530332 0.0000000000
0.5177100814 0.1945714563 0.0000000000
0.5411634362 0.1950277376 0.0000000000
0.5640171473 0.1950871310 0.0000000000
0.5870984688 0.1947278751 0.0000000000
0.6100962217 0.1940007037 0.0000000000
0.6316747279 0.1929130493 0.0000000000
0.6522579236 0.1914982106 0.0000000000
0.6715526800 0.1899660205 0.0000000000
0.6891407041 0.1882506700 0.0000000000
0.7056061910 0.1864464148 0.0000000000
0.7209499920 0.1845729378 0.0000000000
0.7349150441 0.1826938670 0.0000000000
0.7468945625 0.1808548229 0.0000000000
0.7581333920 0.1790615946 0.0000000000
0.7686163318 0.1773296552 0.0000000000
0.7785341161 0.1756488838 0.0000000000
0.8039285704 0.1709568356 0.0000000000
0.0000000000 0.1366459497 0.0001011894
0.0091168253 0.1460429407 0.0000000000
0.0611237368 0.1552153169 0.0000000000
0.1061220735 0.1630838013 0.0000000000
0.1462131774 0.1701216497 0.0000000000
0.1843110374 0.1768002190 0.0000000000
0.2214342967 0.1830758706 0.0000000000
0.2568979056 0.1888105646 0.0000000000
0.2900721398 0.1941923328 0.0000000000
0.3224386339 0.1992730234 0.0000000000
0.3543812728 0.2039068426 0.0000000000
0.3856359117 0.2080583206 0.0000000000
0.4162484275 0.2117012618 0.0000000000
0.4459206171 0.2148602046 0.0000000000
0.4742079074 0.2174793674 0.0000000000
0.5009899004 0.2194823337 0.0000000000
0.5261336721 0.2209494166 0.0000000000
0.5498897062 0.2218650897 0.0000000000
0.5730813242 0.2221856806 0.0000000000
0.5964127325 0.2222394723 0.0000000000
0.6196455294 0.2218828578 0.0000000000
0.6415276247 0.2209534497 0.0000000000
0.6624224114 0.2200385567 0.0000000000
0.6821219439 0.2189116158 0.0000000000
0.7001917808 0.2175869562 0.0000000000
0.7170908783 0.2162012177 0.0000000000
0.7328367832 0.2147682334 0.0000000000
0.7472611473 0.2131752039 0.0000000000
0.7594845678 0.2116837176 0.0000000000
0.7709193914 0.2102491309 0.0000000000
0.7816081090 0.2088690043 0.0000000000
0.7917649533 0.2074052159 0.0000000000
0.8174934278 0.2037566454 0.0000000000
0.0000000000 0.1535572672 0.0000000000
0.0067279915 0.1634845573 0.0000000000
0.0564239560 0.1733567169 0.0000000000
0.1043001959 0.1817979583 0.0000000000
0.1461708635 0.1893428376 0.0000000000
0.1854579815 0.1965487960 0.0000000000
0.2235053630 0.2033221209 0.0000000000
0.2596663528 0.2095746505 0.0000000000
0.2934769343 0.2153461003 0.0000000000
0.3264633536 0.2208579173 0.0000000000
0.3589587845 0.2259843203 0.0000000000
0.3907419063 0.2305415535 0.0000000000
0.4218172715 0.2346588631 0.0000000000
0.4519746392 0.2382735488 0.0000000000
0.4807286694 0.2413621418 0.0000000000
0.5078630585 0.2438460097 0.0000000000
0.5334445181 0.2457354477 0.0000000000
0.5576017911 0.2470660203 0.0000000000
0.5810969646 0.2478283977 0.0000000000
0.6047913925 0.2480387447 0.0000000000
0.6283000778 0.2480054736 0.0000000000
0.6504787357 0.2474559631 0.0000000000
0.6717141948 0.2467265257 0.0000000000
0.6917632510 0.2459309493 0.0000000000
0.7101710909 0.2449783743 0.0000000000
0.7274456962 0.2439056939 0.0000000000
0.7435734721 0.2427498210 0.0000000000
0.7582706576 0.2415366708 0.0000000000
0.7709036048 0.2403483371 0.0000000000
0.7826757576 0.2391968673 0.0000000000
0.7936019710 0.2380914212 0.0000000000
0.8039464192 0.2369657615 0.0000000000
0.8302674387 0.2341029697 0.0000000000
0.0000000000 0.1704187394 0.0000000000
0.0044111490 0.1809181696 0.0000000000
0.0505595068 0.1913682478 0.0000000000
0.1015106584 0.2003630060 0.0000000000
0.1452534529 0.2084538498 0.0000000000
0.1858677437 0.2160809554 0.0000000000
0.2248482375 0.2232654616 0.0000000000
0.2616770231 0.2299051096 0.0000000000
0.2961139286 0.2360786016 0.0000000000
0.3297288816 0.2419596178 0.0000000000
0.3628202962 0.2474931509 0.0000000000
0.3951018295 0.2525061225 0.0000000000
0.4266165382 0.2570038618 0.0000000000
0.4572352371 0.2610858330 0.0000000000
0.4864520292 0.2645987895 0.0000000000
0.5140019641 0.2674549598 0.0000000000
0.5398554024 0.2697623393 0.0000000000
0.5644238065 0.2714430319 0.0000000000
0.5882871519 0.2725021053 0.0000000000
0.6123472133 0.2731033757 0.0000000000
0.6362431291 0.2732511377 0.0000000000
0.6587610780 0.2729780087 0.0000000000
0.6802733668 0.2726017482 0.0000000000
0.7007129885 0.2720308341 0.0000000000
0.7194874127 0.2713170578 0.0000000000
0.7370288305 0.2705704720 0.0000000000
0.7534331600 0.2696672475 0.0000000000
0.7684911517 0.2686519200 0.0000000000
0.7814235819 0.2677768604 0.0000000000
0.7935002446 0.2669302861 0.0000000000
0.8047777736 0.2660664081 0.0000000000
0.8153931481 0.2651715340 0.0000000000
0.8425971917 0.2629778334 0.0000000000
0.0000000000 0.1870864676 0.0000000000
0.0014940150 0.1981146005 0.0000000000
0.0436537262 0.2091419297 0.0000000000
0.0979278920 0.2185520997 0.0000000000
0.1435219390 0.2270084301 0.0000000000
0.1854729610 0.2350381267 0.0000000000
0.2254409907 0.2425909160 0.0000000000
0.2630039298 0.2496106326 0.0000000000
0.2980103564 0.2561677194 0.0000000000
0.3322151128 0.2624541663 0.0000000000
0.3659699255 0.2683818165 0.0000000000
0.3987786780 0.2737675016 0.0000000000
0.4306920585 0.2787015432 0.0000000000
0.4617488971 0.2831208483 0.0000000000
0.4913567083 0.2870519593 0.0000000000
0.5192850142 0.2903003697 0.0000000000
0.5455450442 0.2928921455 0.0000000000
0.5703780110 0.2949192154 0.0000000000
0.5946570249 0.2962687188 0.0000000000
0.6191546719 0.2971478998 0.0000000000
0.6434177848 0.2976129400 0.0000000000
0.6662988146 0.2975390514 0.0000000000
0.6882201728 0.2974421515 0.0000000000
0.7089824974 0.2972351222 0.0000000000
0.7280944811 0.2967910002 0.0000000000
0.7460631757 0.2961661736 0.0000000000
0.7626660816 0.2955179077 0.0000000000
0.7779441584 0.2947261610 0.0000000000
0.7912321327 0.2941158805 0.0000000000
0.8036520874 0.2935440486 0.0000000000
0.8151378830 0.2929552038 0.0000000000
0.8260854994 0.2923090813 0.0000000000
0.8545800471 0.2907153996 0.0000000000
0.0000000000 0.2034172018 0.0000000000
0.0000000000 0.2149133546 0.0000000000
0.0352994929 0.2263939842 0.0000000000
0.0936945618 0.2361473773 0.0000000000
0.1412673835 0.2449596321 0.0000000000
0.1845673568 0.2533613998 0.0000000000
0.2255336200 0.2612724449 0.0000000000
0.2637982157 0.2686380810 0.0000000000
0.2993885050 0.2755478735 0.0000000000
0.3341482265 0.2821763360 0.0000000000
0.3684725255 0.2884856973 0.0000000000
0.4018879933 0.2942222818 0.0000000000
0.4342273464 0.2995029447 0.0000000000
0.4656398222 0.3043129430 0.0000000000
0.4956591262 0.3085732886 0.0000000000
0.5239610249 0.3121859727 0.0000000000
0.5505669403 0.3151475435 0.0000000000
0.5758146472 0.3173986295 0.0000000000
0.6004140122 0.3190597167 0.0000000000
0.6253164136 0.3202256975 0.0000000000
0.6500085835 0.3208987545 0.0000000000
0.6731965628 0.3210746131 0.0000000000
0.6954935237 0.3212384553 0.0000000000
0.7167197540 0.3213780853 0.0000000000
0.7361572988 0.3212235249 0.0000000000
0.7544145225 0.3208808751 0.0000000000
0.7714769153 0.3202229324 0.0000000000
0.7869990237 0.3196273268 0.0000000000
0.8004848316 0.3193087359 0.0000000000
0.8131545009 0.3190430347 0.0000000000
0.8249703891 0.3186897226 0.0000000000
0.8361710805 0.3183141668 0.0000000000
0.8658186300 0.3172367660 0.0000000000
0.0000000000 0.2195685255 0.0000000000
0.0000000000 0.2314396193 0.0000000000
0.0283403164 0.2433305535 0.0000000000
0.0886016241 0.2534709998 0.0000000000
0.1384916655 0.2626113163 0.0000000000
0.1832243423 0.2714156214 0.0000000000
0.2252141627 0.2797173374 0.0000000000
0.2641844734 0.2873764785 0.0000000000
0.3003279770 0.2945776020 0.0000000000
0.3355951982 0.3015158665 0.0000000000
0.3704196502 0.3080955008 0.0000000000
0.4043015940 0.3141286721 0.0000000000
0.4371607492 0.3196702455 0.0000000000
0.4689967725 0.3247875389 0.0000000000
0.4993801971 0.3293786487 0.0000000000
0.5281092100 0.3332868405 0.0000000000
0.5550707378 0.3365792106 0.0000000000
0.5807207534 0.3392177908 0.0000000000
0.6058638563 0.3412197967 0.0000000000
0.6311612526 0.3427358696 0.0000000000
0.6562770424 0.3437623423 0.0000000000
0.6799257863 0.3442256455 0.0000000000
0.7025130136 0.3446101797 0.0000000000
0.7241291671 0.3450993762 0.0000000000
0.7439522593 0.3452418563 0.0000000000
0.7625244291 0.3451695710 0.0000000000
0.7798288694 0.3448165165 0.0000000000
0.7957839911 0.3442307578 0.0000000000
0.8096027851 0.3440521252 0.0000000000
0.8224914839 0.3440808503 0.0000000000
0.8347052156 0.3439855251 0.0000000000
0.8463611746 0.3438477954 0.0000000000
0.8768477220 0.3432641251 0.0000000000
0.0000000000 0.2357366601 0.0000000000
0.0000000000 0.2478805498 0.0000000000
0.0226559905 0.2601478620 0.0000000000
0.0826637969 0.2706503225 0.0000000000
0.1349924315 0.2801740960 0.0000000000
0.1814111125 0.2893621568 0.0000000000
0.2244746746 0.2980635576 0.0000000000
0.2643194280 0.3060772678 0.0000000000
0.3009903137 0.3135107330 0.0000000000
0.3367167275 0.3206659061 0.0000000000
0.3719352148 0.3274225895 0.0000000000
0.4061399542 0.3336026127 0.0000000000
0.4393975461 0.3394016145 0.0000000000
0.4717172728 0.3447413037 0.0000000000
0.5025896933 0.3495850631 0.0000000000
0.5316905905 0.3537900149 0.0000000000
0.5591264750 0.3573405363 0.0000000000
0.5851831187 0.3603412292 0.0000000000
0.6107994820 0.3627657477 0.0000000000
0.6367498391 0.3647851198 0.0000000000
0.6623544360 0.3662632952 0.0000000000
0.6865176547 0.3672637409 0.0000000000
0.7095215286 0.3679787074 0.0000000000
0.7314301094 0.3686587131 0.0000000000
0.7515377783 0.3690946650 0.0000000000
0.7704222789 0.3692766342 0.0000000000
0.7880101571 0.3692150403 0.0000000000
0.8042033064 0.3689642610 0.0000000000
0.8183309644 0.3689126724 0.0000000000
0.8317862012 0.3689093097 0.0000000000
0.8443227072 0.3690307177 0.0000000000
0.8565971571 0.3690707795 0.0000000000
0.8883688056 0.3690403713 0.0000000000
0.0000000000 0.2513073312 0.0000000000
0.0000000000 0.2637436186 0.0000000000
0.0162785837 0.2763744050 0.0000000000
0.0759821335 0.2872079852 0.0000000000
0.1311159725 0.2970736883 0.0000000000
0.1791642719 0.3066480656 0.0000000000
0.2234180282 0.3156818520 0.0000000000
0.2640953601 0.3240534375 0.0000000000
0.3013952578 0.3317181063 0.0000000000
0.3374843746 0.3389769442 0.0000000000
0.3730576913 0.3458473558 0.0000000000
0.4075518661 0.3521318330 0.0000000000
0.4411249741 0.3580517654 0.0000000000
0.4738643950 0.3636359294 0.0000000000
0.5052379723 0.3687162024 0.0000000000
0.5348516429 0.3731939433 0.0000000000
0.5626751704 0.3770574180 0.0000000000
0.5892821284 0.3804152928 0.0000000000
0.6154018825 0.3832891306 0.0000000000
0.6418505327 0.3857851450 0.0000000000
0.6681233585 0.3878448634 0.0000000000
0.6928553479 0.3893913561 0.0000000000
0.7162632805 0.3905532672 0.0000000000
0.7384916449 0.3914920635 0.0000000000
0.7589062984 0.3921307141 0.0000000000
0.7780461838 0.3925921201 0.0000000000
0.7959235834 0.3927764438 0.0000000000
0.8123831207 0.3928015344 0.0000000000
0.8267558145 0.3929499826 0.0000000000
0.8407163803 0.3931194131 0.0000000000
0.8537966800 0.3932424339 0.0000000000
0.8665522128 0.3934274252 0.0000000000
0.8997298197 0.3939037810 0.0000000000
0.0000000000 0.2659862930 0.0000000000
0.0000000000 0.2788028970 0.0000000000
0.0095780227 0.2917629157 0.0000000000
0.0686396624 0.3029392731 0.0000000000
0.1269241914 0.3130922231 0.0000000000
0.1766640499 0.3230371824 0.0000000000
0.2220843015 0.3323856924 0.0000000000
0.2636038026 0.3410520735 0.0000000000
0.3014678453 0.3489208221 0.0000000000
0.3380532912 0.3563373317 0.0000000000
0.3738394011 0.3631698602 0.0000000000
0.4086515367 0.3695555826 0.0000000000
0.4425189776 0.3756260835 0.0000000000
0.4756932947 0.3813989885 0.0000000000
0.5074603020 0.3867174611 0.0000000000
0.5376106471 0.3914249093 0.0000000000
0.5659136600 0.3955731916 0.0000000000
0.5929132035 0.3992748525 0.0000000000
0.6196386519 0.4026204764 0.0000000000
0.6466390235 0.4056278572 0.0000000000
0.6734018507 0.4081966952 0.0000000000
0.6987671424 0.4103310596 0.0000000000
0.7226456602 0.4119213288 0.0000000000
0.7451456722 0.4131486157 0.0000000000
0.7658834209 0.4140473388 0.0000000000
0.7853687191 0.4147002476 0.0000000000
0.8034963250 0.4151385770 0.0000000000
0.8202317229 0.4153890249 0.0000000000
0.8349275339 0.4157079529 0.0000000000
0.8493283034 0.4160309419 0.0000000000
0.8628245408 0.4163043482 0.0000000000
0.8759642197 0.4165896069 0.0000000000
0.9103778423 0.4174594881 0.0000000000
0.0000000000 0.2798202339 0.0000000000
0.0000000000 0.2930198007 0.0000000000
0.0019779135 0.3063234763 0.0000000000
0.0608759455 0.3177843983 0.0000000000
0.1224605415 0.3282306673 0.0000000000
0.1740209519 0.3384698242 0.0000000000
0.2205552975 0.3481617421 0.0000000000
0.2629143462 0.3570589285 0.0000000000
0.3013623296 0.3651478466 0.0000000000
0.3383665031 0.3727107922 0.0000000000
0.3745332620 0.3796582459 0.0000000000
0.4094871187 0.3859341402 0.0000000000
0.4436959710 0.3921528813 0.0000000000
0.4772003451 0.3981230033 0.0000000000
0.5094495393 0.4036945679 0.0000000000
0.5399595877 0.4086346972 0.0000000000
0.5687855261 0.4129952265 0.0000000000
0.5962446329 0.4169969546 0.0000000000
0.6233497849 0.4206962014 0.0000000000
0.6509587263 0.4242129328 0.0000000000
0.6782422968 0.4272932288 0.0000000000
0.7040732793 0.4298973675 0.0000000000
0.7284739524 0.4319317965 0.0000000000
0.7513186284 0.4334781318 0.0000000000
0.7723201976 0.4346184313 0.0000000000
0.7921271371 0.4355137243 0.0000000000
0.8106444557 0.4361393480 0.0000000000
0.8276957461 0.4365936633 0.0000000000
0.8428331187 0.4370742709 0.0000000000
0.8574989762 0.4375620629 0.0000000000
0.8714784162 0.4379757832 0.0000000000
0.8848606869 0.4383839686 0.0000000000
0.9203131331 0.4395564051 0.0000000000
0.0000000000 0.2929189047 0.0000000000
0.0000000000 0.3065268076 0.0000000000
0.0000427382 0.3202352040 0.0000000000
0.0520773754 0.3319897254 0.0000000000
0.1176423853 0.3427109253 0.0000000000
0.1710589051 0.3531977075 0.0000000000
0.2188098716 0.3631671596 0.0000000000
0.2619745864 0.3723101283 0.0000000000
0.3010703327 0.3805807426 0.0000000000
0.3385161250 0.3883284459 0.0000000000
0.3750801601 0.3954319771 0.0000000000
0.4103670542 0.4018638807 0.0000000000
0.4447801271 0.4080288507 0.0000000000
0.4786700398 0.4141856525 0.0000000000
0.5112575119 0.4199338762 0.0000000000
0.5422236540 0.4251348528 0.0000000000
0.5713569428 0.4297085692 0.0000000000
0.5992805316 0.4339149480 0.0000000000
0.6268308749 0.4379386079 0.0000000000
0.6547847537 0.4417595345 0.0000000000
0.6826150131 0.4453215047 0.0000000000
0.7088736464 0.4483099813 0.0000000000
0.7336968521 0.4507432183 0.0000000000
0.7569405343 0.4526500624 0.0000000000
0.7783244323 0.4541189409 0.0000000000
0.7983650679 0.4552477896 0.0000000000
0.8172169030 0.4561636406 0.0000000000
0.8347006081 0.4567960355 0.0000000000
0.8504156368 0.4574140358 0.0000000000
0.8653873140 0.4580292218 0.0000000000
0.8797949981 0.4585861680 0.0000000000
0.8936029772 0.4590957697 0.0000000000
0.9304133785 0.4605512642 0.0000000000
0.0000000000 0.3056473841 0.0000000000
0.0000000000 0.3198169894 0.0000000000
0.0000000000 0.3338773850 0.0000000000
0.0459385215 0.3460585850 0.0000000000
0.1121804615 0.3570589417 0.0000000000
0.1676393439 0.3677642682 0.0000000000
0.2166742477 0.3779266906 0.0000000000
0.2607680477 0.3872513179 0.0000000000
0.3004735690 0.3957428818 0.0000000000
0.3384548125 0.4036542065 0.0000000000
0.3754581468 0.4109634583 0.0000000000
0.4111940092 0.4176439071 0.0000000000
0.4459843434 0.4240054501 0.0000000000
0.4801973186 0.4302385469 0.0000000000
0.5131461525 0.4361693336 0.0000000000
0.5444435289 0.4415344239 0.0000000000
0.5739887706 0.4463439084 0.0000000000
0.6021949743 0.4507454104 0.0000000000
0.6301422089 0.4549776861 0.0000000000
0.6584774451 0.4590871719 0.0000000000
0.6866217354 0.4629019210 0.0000000000
