2. reversing the negative/print paper LUTs/color/Altkit Pro/Alkit_Edge_color only.cube
LUT_3D_SIZE 5
0.0000145538 0.0000000000 0.0001014291
0.2403985472 0.0098189806 0.0000000000
0.4427669835 0.0000000000 0.0000000000
0.5948462592 0.0000000000 0.0000000000
0.6969625252 0.0000000000 0.0000000000
0.0000000000 0.1535572672 0.0000000000
0.2934769343 0.2153461003 0.0000000000
0.5334445181 0.2457354477 0.0000000000
0.7101710909 0.2449783743 0.0000000000
0.8302674387 0.2341029697 0.0000000000
0.0000000000 0.2798202339 0.0000000000
0.3013623296 0.3651478466 0.0000000000
0.5687855261 0.4129952265 0.0000000000
0.7723201976 0.4346184313 0.0000000000
0.9203131331 0.4395564051 0.0000000000
0.0000000000 0.3717848209 0.0000000000
0.2939633142 0.4782214222 0.0000000000
0.5871529477 0.5407649631 0.0000000000
0.8138654233 0.5796124413 0.0000000000
0.9984676218 0.5993588782 0.0000000000
0.0000000000 0.4389110638 0.0000000000
0.2801222643 0.5689399632 0.0000000000
0.6000235322 0.6534696146 0.0000000000
0.8481232908 0.7087979450 0.0000000000
1.0000000000 0.7442780045 0.0000000000
0.0000000000 0.0001288146 0.2000638845
0.2203493824 0.0073690879 0.2096927060
0.4219106561 0.0000000000 0.2135605181
0.5881850422 0.0000000000 0.2131046245
0.7120350290 0.0000000000 0.2117214461
0.0000000000 0.1930062997 0.2381473433
0.2500005764 0.2500005557 0.2500004010
0.5013389165 0.2803989216 0.2509593404
0.7020211021 0.2872492853 0.2450309503
0.8518320365 0.2789260040 0.2388681847
0.0000000000 0.3403728412 0.2560235869
0.2224416350 0.4267765435 0.2597397287
0.5246414350 0.4795228303 0.2565169790
0.7572831877 0.5090857783 0.2474968747
0.9435317459 0.5169452538 0.2382224887
0.0000000000 0.4467618530 0.2627112049
0.1526325707 0.5607854668 0.2597132589
0.5266005697 0.6325388535 0.2438470130
0.7905466197 0.6816110806 0.2227695252
1.0000000000 0.7069468387 0.2038614212
0.0000000000 0.5208283623 0.2679883878
0.0225007137 0.6620935919 0.2534010474
0.5138572066 0.7561569803 0.2209893187
0.8082432197 0.8263997317 0.1780745806
1.0000000000 0.8757860371 0.1306922855
0.0000000000 0.0000000000 0.3617161382
0.2222342966 0.0000000000 0.3793182958
0.4186239421 0.0000000000 0.3875581176
0.5880116258 0.0000000000 0.3915935005
0.7190345369 0.0000000000 0.3960187665
0.0000000000 0.2030256479 0.4290456746
0.2359478265 0.2582772448 0.4517417452
0.4888909284 0.2846167122 0.4633748792
0.6961072805 0.2943348599 0.4684749976
0.8535759000 0.2849731281 0.4699081750
0.0000000000 0.3667436661 0.4664593786
0.1663635764 0.4513604270 0.4881509142
0.5000000422 0.4999999253 0.5000002253
0.7430209024 0.5318818351 0.5061164958
0.9457081956 0.5389622993 0.5023448196
0.0000000000 0.4814120456 0.4836522230
0.0090182583 0.5987027877 0.5053137363
0.4859216786 0.6711445050 0.5106463053
0.7692430061 0.7234849599 0.5128156188
1.0000000000 0.7520002941 0.5109378302
0.0000000000 0.5622000632 0.4959153474
0.0000000000 0.7101060105 0.5120259265
0.4463949905 0.8100874886 0.5128500228
0.7720106120 0.8862007138 0.5046804571
1.0000000000 0.9401858742 0.4941043290
0.0000000000 0.0000000000 0.4786434382
0.2312082220 0.0000000000 0.5087923505
0.4242775850 0.0000000000 0.5220183133
0.5899534721 0.0000000000 0.5290659562
0.7228114163 0.0000000000 0.5359960031
0.0000000000 0.2009995262 0.5779443223
0.2292161011 0.2561648104 0.6177620673
0.4894036149 0.2830178641 0.6359790606
0.6955323073 0.2908065959 0.6465971121
0.8553821410 0.2824692643 0.6530472587
0.0000000000 0.3761920466 0.6325450648
0.1252039231 0.4654343448 0.6802900361
0.4950229870 0.5165096630 0.7019700059
0.7376361334 0.5400072508 0.7114539334
0.9386478843 0.5505160017 0.7191124549
0.0000000000 0.5006773368 0.6666392914
0.0000000000 0.6252745015 0.7168052176
0.4606165687 0.7003261117 0.7381497677
0.7500000266 0.7500001078 0.7500000403
1.0000000000 0.7799776273 0.7560227535
0.0000000000 0.5863669964 0.6860946750
0.0000000000 0.7439971531 0.7378375325
0.3851455321 0.8481962568 0.7562321234
0.7407281605 0.9272884036 0.7631603958
1.0000000000 0.9836826838 0.7687178232
0.0080214711 0.0000000000 0.5708727233
0.2377250509 0.0000000000 0.6129412089
0.4319961035 0.0000000000 0.6345629614
0.5967679967 0.0000000000 0.6441434618
0.7320965673 0.0000000000 0.6529093831
0.0000000000 0.1947856152 0.6998496629
0.2266464571 0.2476253638 0.7617820619
0.4951039074 0.2777381228 0.7926587099
0.7005297970 0.2835162349 0.8067207979
0.8620094427 0.2712754164 0.8165345613
0.0000000000 0.3833741175 0.7780874743
0.0809104099 0.4739473290 0.8546484469
0.4880714477 0.5273873940 0.8895497047
0.7372145536 0.5508955854 0.9043897058
0.9398488485 0.5610408378 0.9165009912
0.0000000000 0.5144694095 0.8293365656
0.0000000000 0.6417079920 0.9117973083
0.4353582543 0.7220942238 0.9475348429
0.7439084694 0.7739068749 0.9664000901
0.9957174129 0.8005819756 0.9765104701
0.0000000000 0.6035083589 0.8605843476
0.0000000000 0.7703616002 0.9483797168
0.3163483758 0.8811308957 0.9831380708
0.7141162243 0.9607159510 0.9996590368
0.9998422006 0.9998833431 1.0000000000
